/* XPM */
static xpm_row_t const player_machine_xpm[] = {
/* columns rows colors chars-per-pixel */
"49 43 149 2 ",
"   c None",
".  c #2B2B2B",
"X  c #2C2C2C",
"o  c #2D2D2D",
"O  c #2E2E2E",
"+  c #2F2F2F",
"@  c #2E3031",
"#  c #2B3236",
"$  c #2B3337",
"%  c #2D3236",
"&  c #2C3337",
"*  c #2E3436",
"=  c #2E3438",
"-  c #2F3539",
";  c #303030",
":  c #313131",
">  c #323232",
",  c #333333",
"<  c #353331",
"1  c #353535",
"2  c #363636",
"3  c #373737",
"4  c #32393D",
"5  c #343A3F",
"6  c #383838",
"7  c #393939",
"8  c #3B3B3B",
"9  c #3C3C3C",
"0  c #3D3D3D",
"q  c #3E3E3E",
"w  c #3F3F3F",
"e  c #4C453B",
"r  c #3D4449",
"t  c #414141",
"y  c #454545",
"u  c #4B4844",
"i  c #4C4947",
"p  c #40484D",
"a  c #41494E",
"s  c #4B4B4B",
"d  c #524D47",
"f  c #58524D",
"g  c #464F54",
"h  c #4B5255",
"j  c #4A5358",
"k  c #495459",
"l  c #5B5C5C",
"z  c #635B52",
"x  c #645B53",
"c  c #776656",
"v  c #706459",
"b  c #7C6D5F",
"n  c #515E65",
"m  c #596064",
"M  c #55636B",
"N  c #616161",
"B  c #6B6B6B",
"V  c #6D7274",
"C  c #92765D",
"Z  c #95795E",
"A  c #857461",
"S  c #887665",
"D  c #947A60",
"F  c #977C60",
"G  c #9A7D61",
"H  c #9B7F64",
"J  c #9B7F65",
"K  c #9C7F64",
"L  c #9D7F64",
"P  c #957E68",
"I  c #9F8065",
"U  c #9F8366",
"Y  c #9A846F",
"T  c #9E8A76",
"R  c #9C8C7B",
"E  c #9C8D7E",
"W  c #A08266",
"Q  c #A18367",
"!  c #A28366",
"~  c #A18466",
"^  c #A38568",
"/  c #A2866A",
"(  c #A7886A",
")  c #A8896B",
"_  c #AE8E6F",
"`  c #A08872",
"'  c #AB9178",
"]  c #B49373",
"[  c #B79575",
"{  c #BA9776",
"}  c #BF9C7A",
"|  c #C5A17E",
" . c #7C7F80",
".. c #818181",
"X. c #858585",
"o. c #8E8E8E",
"O. c #978D84",
"+. c #9A8F84",
"@. c #929292",
"#. c #959595",
"$. c #969696",
"%. c #9F9F9F",
"&. c #A0A0A0",
"*. c #A1A1A1",
"=. c #B0B0B0",
"-. c #BBBBBB",
";. c #C7A483",
":. c #C3A384",
">. c #CCA682",
",. c #C2A588",
"<. c #CFAC8A",
"1. c #D1AA85",
"2. c #D4AC87",
"3. c #D6AF89",
"4. c #DCB38C",
"5. c #DDB48D",
"6. c #DBB590",
"7. c #E2B890",
"8. c #E7BE96",
"9. c #E8BD94",
"0. c #EDC097",
"q. c #F2C59A",
"w. c #F3C69B",
"e. c #F9CB9F",
"r. c #D7C7B7",
"t. c #DFC9B3",
"y. c #FFD0A3",
"u. c #FDD1A7",
"i. c #FFD1A6",
"p. c #FFD2A7",
"a. c #FFD5AD",
"s. c #FBD5B0",
"d. c #FFD6B0",
"f. c #FFD7B2",
"g. c #FFD9B6",
"h. c #FFDBB9",
"j. c #FFDCBB",
"k. c #C0C0C0",
"l. c #C1C1C1",
"z. c #C5C5C5",
"x. c #D0D0D0",
"c. c #D6D6D6",
"v. c #E2DFDC",
"b. c #EBE0D6",
"n. c #F3E1D0",
"m. c #F0E5D9",
"M. c #E1E1E1",
"N. c #EEE8E2",
"B. c #ECECEC",
/* pixels */
"                    O O O O O O O O O                                                             ",
"                O O O O O O O O O O O O O                                                         ",
"                O O : w w t t t w w : O O                                                         ",
"              O O w t t t t t t t t t w O O                                                       ",
"            O O w t t t t t t t t t t t : O O                                                     ",
"            O : t t t t t t t t t t t t t : O                                                     ",
"            O : t t t t t t t t t t t t t : O                                                     ",
"            O : t t t t t t t t t t t t t : O O                                                   ",
"          O O w t t t t t t t t t t t t t w O t                                                   ",
"          O O w t t t t t t t t t t t t t w t #.                                                  ",
"          O O w t t t t t t t t t t t t t N &.#.                                                  ",
"          O O t t t t t x v v b ` v f t N M.-.#.                                                  ",
"          O : t t x ' 8.y.y.y.y.y.y.y.,.v.B.k.#.X.                                                ",
"          O : i ;.y.y.y.y.y.y.y.y.y.y.y.y.n.k.#.o.                                                ",
"        e : : ;.y.y.y.y.y.y.y.y.y.y.y.y.y.y.t.E ^                                                 ",
"        ^ H ;.y.a.j.j.f.y.y.y.y.y.y.y.y.y.y.y.| ^ F                                               ",
"      H ^ } y.y.g.j.j.j.y.y.y.y.y.y.y.y.y.y.y.y._ ^                                               ",
"      ^ ^ q.y.y.j.j.j.j.y.y.y.y.y.y.y.y.y.y.y.y.4.^ H                                             ",
"      ^ | y.y.y.y.j.j.f.y.y.y.y.y.y.y.y.y.y.y.y.y.( ^ H                                           ",
"    H ^ 3.y.y.y.y.y.y.y.y.y.y.y.y.y.y.y.y.y.y.y.y.4.( ^ C                                         ",
"    H ^ 9.y.y.y.y.y.y.y.y.y.y.y.y.y.y.y.y.y.y.y.y.0.>.^ I                                         ",
"    H ^ 9.y.y.y.y.y.y.y.y.y.y.y.y.y.y.y.y.y.y.y.y.q.2.^ I                                         ",
"    H ^ 9.y.y.y.y.y.y.y.y.y.y.y.y.y.y.y.y.y.y.y.y.q.[ ^ H                                         ",
"    H ^ 9.y.y.y.y.y.y.y.y.y.y.y.y.y.y.y.y.y.y.y.y.>.^ ^                                           ",
"    Z ^ 2.y.y.y.y.y.y.y.y.y.y.y.y.y.y.y.y.y.y.y.y.[ ^                                             ",
"      ^ { y.y.y.y.y.y.y.y.y.y.y.y.y.y.y.y.y.y.y.q.^ ^                                             ",
"      I ^ 9.y.y.y.y.y.y.y.y.y.y.y.y.y.y.y.y.y.y.4.^ c = = = = $ $                                 ",
"      C ^ { y.y.y.y.y.y.y.y.y.y.y.y.y.y.y.y.y.e._ ^ i = = = = = =             $ $ = = = = = $     ",
"        I F P y.y.y.y.y.y.y.y.y.y.y.y.y.y.y.y.} ^ A g g g g g r = = = = = = = = = = = = = = = =   ",
"          : : S 8.y.y.y.y.y.y.y.y.y.y.y.y.y.r.+.Y h g g g g g g 5 = = = = = = = a g g g g g 5 =   ",
"          O : t i ;.y.y.y.y.y.y.y.y.y.y.f.N.k.#. .g g g g g g g n M M M M M M M j g g g g g 5 =   ",
"          O O t t t f ' 6.y.y.y.y.y.<.T c.B.=.#.V g g g g g g g n M M M M M M M j g g g g g 5 =   ",
"          O O t t t t t t t t t t t t t s k.%.#.m g g g g g g g 5 = = = = = = = a g g g g g 5 =   ",
"          O O w t t t t t t t t t t t t t t X.#.j g g g g g g a = = = = = = = = = = = = = = = =   ",
"          O O w t t t t t t t t t t t t t w O l = = = = = = = = = d           = = = = = = = = $   ",
"          O O w t t t t t t t t t t t t t w O $ = = = $ $ = = = x H Q                             ",
"            O : t t t t t t t t t t t t t : O : t &.B.n.y.y.y.y.8.^ Q                             ",
"            O : t t t t t t t t t t t t t : O w t #.B.m.y.y.y.8._ ^ Q                             ",
"            O O w t t t t t t t t t t t w O : t t B B.b.4.| _ ^ ^ Q                               ",
"              O O w t t t t t t t t t w O O w t t s B.c.E ^ ^ Q                                   ",
"              O O O : w t t t t t w : O O : w : : : #.#.#.O.                                      ",
"                  O O O O O O O O O O O O O O O O O X.#.#.                                        ",
"                    O O O O O O O O O O O O O O                                                   "
};
