/* XPM */
static xpm_row_t const player_hold_xpm[] = {
/* columns rows colors chars-per-pixel */
"35 43 142 2 ",
"   c None",
".  c #2B2B2B",
"X  c #2C2C2C",
"o  c #2D2D2D",
"O  c #2E2E2E",
"+  c #2F2F2F",
"@  c #303030",
"#  c #313131",
"$  c #323232",
"%  c #333333",
"&  c #353331",
"*  c #353535",
"=  c #363636",
"-  c #373737",
";  c #383838",
":  c #393939",
">  c #3B3B3B",
",  c #3C3C3C",
"<  c #3D3D3D",
"1  c #3E3E3E",
"2  c #3F3F3F",
"3  c #4C453B",
"4  c #414141",
"5  c #464646",
"6  c #4C4947",
"7  c #4B4B4B",
"8  c #58524D",
"9  c #505050",
"0  c #5B5B5B",
"q  c #5E5E5E",
"w  c #645B53",
"e  c #706459",
"r  c #7C6D5F",
"t  c #616161",
"y  c #6B6B6B",
"u  c #92765D",
"i  c #95795E",
"p  c #887665",
"a  c #947A60",
"s  c #977C60",
"d  c #9A7D61",
"f  c #9B7F64",
"g  c #9C7F64",
"h  c #9D7F64",
"j  c #957E68",
"k  c #9F8065",
"l  c #9F8366",
"z  c #8E8175",
"x  c #8F8579",
"c  c #9F8973",
"v  c #9E8A76",
"b  c #9D8B78",
"n  c #9C8C7B",
"m  c #9C8D7E",
"M  c #A08266",
"N  c #A18366",
"B  c #A18367",
"V  c #A28366",
"C  c #A18466",
"Z  c #A38568",
"A  c #A2866A",
"S  c #A7886A",
"D  c #A8896B",
"F  c #AE8E6F",
"G  c #A08872",
"H  c #AB9178",
"J  c #B49373",
"K  c #B79575",
"L  c #BA9776",
"P  c #BF9C7A",
"I  c #BE9D7D",
"U  c #C5A17E",
"Y  c #808080",
"T  c #818181",
"R  c #8B8B8B",
"E  c #978D84",
"W  c #9A8F84",
"Q  c #95908D",
"!  c #929292",
"~  c #939393",
"^  c #959492",
"/  c #959595",
"(  c #969696",
")  c #9F9F9F",
"_  c #A0A0A0",
"`  c #A1A1A1",
"'  c #B0B0B0",
"]  c #B5B5B5",
"[  c #BBBBBB",
"{  c #C7A483",
"}  c #C3A384",
"|  c #CBA581",
" . c #CCA682",
".. c #C2A588",
"X. c #CFAC8A",
"o. c #D1AA85",
"O. c #D4AC87",
"+. c #D0AB88",
"@. c #D6AF89",
"#. c #DCB38C",
"$. c #DDB48D",
"%. c #DBB590",
"&. c #E2B890",
"*. c #E7BE96",
"=. c #E8BD94",
"-. c #EDC097",
";. c #EDC197",
":. c #F2C59A",
">. c #F3C69B",
",. c #F9CB9F",
"<. c #D7C7B7",
"1. c #DFC9B3",
"2. c #FFD0A3",
"3. c #FDD1A7",
"4. c #FFD1A6",
"5. c #FFD2A7",
"6. c #FCD3AC",
"7. c #FFD5AD",
"8. c #FBD5B0",
"9. c #FFD6B0",
"0. c #FFD7B2",
"q. c #FAD7B5",
"w. c #FFD9B6",
"e. c #F7DABE",
"r. c #FFDBB9",
"t. c #FFDCBB",
"y. c #C0C0C0",
"u. c #C1C1C1",
"i. c #C5C5C5",
"p. c #D0D0D0",
"a. c #D6D6D6",
"s. c #F6DCC2",
"d. c #F4DFCC",
"f. c #E4DCD5",
"g. c #E2DFDC",
"h. c #EBE0D6",
"j. c #F3E1D0",
"k. c #F1E3D5",
"l. c #F0E5D9",
"z. c #E1E1E1",
"x. c #EEE8E2",
"c. c #ECECEC",
/* pixels */
"                    O O O O O O O O O                                 ",
"                O O O O O O O O O O O O O O O O                       ",
"                O O # 2 2 4 4 4 2 2 # O O O O O O O T / /             ",
"              O O 2 4 4 4 4 4 4 4 4 4 2 O O # # # # / / / E           ",
"            O O 2 4 4 4 4 4 4 4 4 4 4 4 # O O 4 4 7 c.[ W Z N N       ",
"            O # 4 4 4 4 4 4 4 4 4 4 4 4 4 # O 2 4 y c.f.| L Z Z Z N   ",
"            O # 4 4 4 4 4 4 4 4 4 4 4 4 4 # O # 4 R c.l.2.2.2.*.F Z   ",
"            O # 4 4 4 4 4 4 4 4 4 4 4 4 4 # O # 4 ` c.d.2.2.2.2.*.Z N ",
"          O O 2 4 4 4 4 4 4 4 4 4 4 4 4 4 2 O 4 4 u.c.e.2.2.2.2.=.Z N ",
"          O O 2 4 4 4 4 4 4 4 4 4 4 4 4 4 2 4 / 4 z.c.7.2.2.2.2.+.Z   ",
"          O O 2 4 4 4 4 4 4 4 4 4 4 4 4 4 t ` / 0 c.k.2.2.2.2.2.F Z   ",
"          O O 4 4 4 4 4 w e e r G e 8 4 t z.[ / R c.0.2.2.2.2.;.Z N   ",
"          O # 4 4 w H *.2.2.2.2.2.2.2...g.c.u./ ] a.+.=.,.2.2.P Z N   ",
"          O # 6 { 2.2.2.2.2.2.2.2.2.2.2.2.k.u./ / / b Z Z Z Z Z Z     ",
"        3 # # { 2.2.2.2.2.2.2.2.2.2.2.2.2.2.1.b Z Q x f Z Z Z N       ",
"        Z f { 2.7.t.t.0.2.2.2.2.2.2.2.2.2.2.2.U Z s                   ",
"      f Z P 2.2.w.t.t.t.2.2.2.2.2.2.2.2.2.2.2.2.F Z                   ",
"      Z Z :.2.2.t.t.t.t.2.2.2.2.2.2.2.2.2.2.2.2.#.Z f                 ",
"      Z U 2.2.2.2.t.t.0.2.2.2.2.2.2.2.2.2.2.2.2.2.S Z f               ",
"    f Z +.2.2.2.2.2.2.2.2.2.2.2.2.2.2.2.2.2.2.2.2.#.S Z u             ",
"    f Z =.2.2.2.2.2.2.2.2.2.2.2.2.2.2.2.2.2.2.2.2.;.| Z k             ",
"    f Z =.2.2.2.2.2.2.2.2.2.2.2.2.2.2.2.2.2.2.2.2.:.O.Z k             ",
"    f Z =.2.2.2.2.2.2.2.2.2.2.2.2.2.2.2.2.2.2.2.2.:.K Z f             ",
"    f Z =.2.2.2.2.2.2.2.2.2.2.2.2.2.2.2.2.2.2.2.2.| Z Z               ",
"    i Z O.2.2.2.2.2.2.2.2.2.2.2.2.2.2.2.2.2.2.2.2.K Z                 ",
"      Z L 2.2.2.2.2.2.2.2.2.2.2.2.2.2.2.2.2.2.2.:.Z Z                 ",
"      k Z =.2.2.2.2.2.2.2.2.2.2.2.2.2.2.2.2.2.2.#.Z s                 ",
"      u Z L 2.2.2.2.2.2.2.2.2.2.2.2.2.2.2.2.2.,.F Z                   ",
"        k s j 2.2.2.2.2.2.2.2.2.2.2.2.2.2.2.2.P Z f                   ",
"          # # p *.2.2.2.2.2.2.2.2.2.2.2.2.2.<.W v / z f Z Z Z Z N     ",
"          O # 4 6 { 2.2.2.2.2.2.2.2.2.2.0.x.u./ / / v Z Z Z Z Z Z     ",
"          O O 4 4 4 8 H %.2.2.2.2.2.X.v a.c.] / u.a.P #.:.2.2.+.Z N   ",
"          O O 4 4 4 4 4 4 4 4 4 4 4 4 4 7 u.) / T c.0.2.2.2.2.;.Z N   ",
"          O O 2 4 4 4 4 4 4 4 4 4 4 4 4 4 4 T / 9 c.l.2.2.2.2.2.F Z   ",
"          O O 2 4 4 4 4 4 4 4 4 4 4 4 4 4 2 O 0 4 c.c.7.2.2.2.2.| Z   ",
"          O O 2 4 4 4 4 4 4 4 4 4 4 4 4 4 2 O # 4 u.c.s.2.2.2.2.=.Z N ",
"            O # 4 4 4 4 4 4 4 4 4 4 4 4 4 # O # 4 ` c.k.2.2.2.2.*.Z N ",
"            O # 4 4 4 4 4 4 4 4 4 4 4 4 4 # O 2 4 / c.l.2.2.2.*.F Z N ",
"            O O 2 4 4 4 4 4 4 4 4 4 4 4 2 O # 4 4 y c.h.#.U F Z Z N   ",
"              O O 2 4 4 4 4 4 4 4 4 4 2 O O 2 4 4 7 c.a.b Z Z N       ",
"              O O O # 2 4 4 4 4 4 2 # O O # 2 # # # / / / E           ",
"                  O O O O O O O O O O O O O O O O O T / /             ",
"                    O O O O O O O O O O O O O O                       "
};
