/* XPM */
static char *_[] = {
/* columns rows colors chars-per-pixel */
"17 42 2 1 ",
"  c None",
". c #FFFFFF",
/* pixels */
"                 ",
"                 ",
"                 ",
"                 ",
"                 ",
"                 ",
"                 ",
"                 ",
"                 ",
"......           ",
"........         ",
"........         ",
".........        ",
".........        ",
"    .....        ",
"    .....        ",
"    .....        ",
"    .....        ",
"    .....        ",
"    .....        ",
"    .....        ",
"    .....        ",
"    .....        ",
"    .....        ",
"    .....        ",
"    .....        ",
"    .....        ",
"    .....        ",
"    .....        ",
"    .....        ",
"    .....        ",
"    .....        ",
"                 ",
"                 ",
"                 ",
"                 ",
"                 ",
"                 ",
"                 ",
"                 ",
"                 ",
"                 "
};
