static xpm_row_t const 2[] = {
"31 42 2 1",
"  c None",
"! c #FFFFFF",
"                               ",
"                               ",
"                               ",
"                               ",
"                               ",
"                               ",
"                               ",
"                               ",
"                               ",
"!!!!!!!!!!!!!!!!!!!!!          ",
"!!!!!!!!!!!!!!!!!!!!!!         ",
"!!!!!!!!!!!!!!!!!!!!!!!        ",
"!!!!!!!!!!!!!!!!!!!!!!!        ",
"!!!!!!!!!!!!!!!!!!!!!!!        ",
"                  !!!!!        ",
"                  !!!!!        ",
"                  !!!!!        ",
"                  !!!!!        ",
" !!!!!!!!!!!!!!!!!!!!!!        ",
"!!!!!!!!!!!!!!!!!!!!!!!        ",
"!!!!!!!!!!!!!!!!!!!!!!!        ",
"!!!!!!!!!!!!!!!!!!!!!!         ",
"!!!!!!!!!!!!!!!!!!!!!          ",
"!!!!!                          ",
"!!!!!                          ",
"!!!!!                          ",
"!!!!!                          ",
"!!!!!!!!!!!!!!!!!!!!!!!        ",
"!!!!!!!!!!!!!!!!!!!!!!!        ",
"!!!!!!!!!!!!!!!!!!!!!!!        ",
"!!!!!!!!!!!!!!!!!!!!!!!        ",
" !!!!!!!!!!!!!!!!!!!!!!        ",
"                               ",
"                               ",
"                               ",
"                               ",
"                               ",
"                               ",
"                               ",
"                               ",
"                               ",
"                               "
};
