/* XPM */
static xpm_row_t health_pickup_1_xpm[] = {
"20 20 2 1 ",
"  c None",
"R c #E04040",
"                    ",
"                    ",
"                    ",
"                    ",
"        RRRR        ",
"        RRRR        ",
"        RRRR        ",
"        RRRR        ",
"    RRRRRRRRRRRR    ",
"    RRRRRRRRRRRR    ",
"    RRRRRRRRRRRR    ",
"    RRRRRRRRRRRR    ",
"        RRRR        ",
"        RRRR        ",
"        RRRR        ",
"        RRRR        ",
"                    ",
"                    ",
"                    ",
"                    "
};
