static xpm_row_t const colon[] = {
"13 42 2 1",
"  c None",
"! c #FFFFFF",
"             ",
"             ",
"             ",
"             ",
"             ",
"             ",
"             ",
"             ",
"             ",
"!!!!!        ",
"!!!!!        ",
"!!!!!        ",
"!!!!!        ",
"!!!!!        ",
"             ",
"             ",
"             ",
"             ",
"             ",
"             ",
"             ",
"             ",
"             ",
"             ",
"             ",
"             ",
"             ",
"!!!!!        ",
"!!!!!        ",
"!!!!!        ",
"!!!!!        ",
"!!!!!        ",
"             ",
"             ",
"             ",
"             ",
"             ",
"             ",
"             ",
"             ",
"             ",
"             "
};
