static xpm_row_t const dash[] = {
"31 42 2 1",
"  c None",
"! c #FFFFFF",
"                               ",
"                               ",
"                               ",
"                               ",
"                               ",
"                               ",
"                               ",
"                               ",
"                               ",
"                               ",
"                               ",
"                               ",
"                               ",
"                               ",
"                               ",
"                               ",
"                               ",
"                               ",
"!!!!!!!!!!!!!!!!!!!!!!!        ",
"!!!!!!!!!!!!!!!!!!!!!!!        ",
"!!!!!!!!!!!!!!!!!!!!!!!        ",
"!!!!!!!!!!!!!!!!!!!!!!!        ",
"!!!!!!!!!!!!!!!!!!!!!!!        ",
"                               ",
"                               ",
"                               ",
"                               ",
"                               ",
"                               ",
"                               ",
"                               ",
"                               ",
"                               ",
"                               ",
"                               ",
"                               ",
"                               ",
"                               ",
"                               ",
"                               ",
"                               ",
"                               "
};
