static xpm_row_t const date[] = {
"121 42 2 1",
"  c None",
"! c #FFFFFF",
"                                                                                                                         ",
"                                                                                                                         ",
"                                                                                                                         ",
"                                                                                                                         ",
"                                                                                                                         ",
"                                                                                                                         ",
"                                                                                                                         ",
"                                                                                                                         ",
"                                                                                                                         ",
"!!!!!!!!!!!!!!!!!!!!!          !!!!!!!!!!!!!!!!!!!!         !!!!!!!!!!!!!!!!!!!!!!!        !!!!!!!!!!!!!!!!!!!!!!        ",
"!!!!!!!!!!!!!!!!!!!!!!        !!!!!!!!!!!!!!!!!!!!!!        !!!!!!!!!!!!!!!!!!!!!!!       !!!!!!!!!!!!!!!!!!!!!!!        ",
"!!!!!!!!!!!!!!!!!!!!!!!       !!!!!!!!!!!!!!!!!!!!!!!       !!!!!!!!!!!!!!!!!!!!!!!       !!!!!!!!!!!!!!!!!!!!!!!        ",
"!!!!!!!!!!!!!!!!!!!!!!!       !!!!!!!!!!!!!!!!!!!!!!!       !!!!!!!!!!!!!!!!!!!!!!!       !!!!!!!!!!!!!!!!!!!!!!!        ",
"!!!!!!!!!!!!!!!!!!!!!!!       !!!!!!!!!!!!!!!!!!!!!!!       !!!!!!!!!!!!!!!!!!!!!!!       !!!!!!!!!!!!!!!!!!!!!!!        ",
"!!!!!             !!!!!       !!!!!             !!!!!                !!!!!                !!!!!                          ",
"!!!!!             !!!!!       !!!!!             !!!!!                !!!!!                !!!!!                          ",
"!!!!!             !!!!!       !!!!!             !!!!!                !!!!!                !!!!!                          ",
"!!!!!             !!!!!       !!!!!             !!!!!                !!!!!                !!!!!                          ",
"!!!!!             !!!!!       !!!!!!!!!!!!!!!!!!!!!!!                !!!!!                !!!!!!!!!!!!!!!!!!!!!!!        ",
"!!!!!             !!!!!       !!!!!!!!!!!!!!!!!!!!!!!                !!!!!                !!!!!!!!!!!!!!!!!!!!!!!        ",
"!!!!!             !!!!!       !!!!!!!!!!!!!!!!!!!!!!!                !!!!!                !!!!!!!!!!!!!!!!!!!!!!!        ",
"!!!!!             !!!!!       !!!!!!!!!!!!!!!!!!!!!!!                !!!!!                !!!!!!!!!!!!!!!!!!!!!!!        ",
"!!!!!             !!!!!       !!!!!!!!!!!!!!!!!!!!!!!                !!!!!                !!!!!!!!!!!!!!!!!!!!!!!        ",
"!!!!!             !!!!!       !!!!!             !!!!!                !!!!!                !!!!!                          ",
"!!!!!             !!!!!       !!!!!             !!!!!                !!!!!                !!!!!                          ",
"!!!!!             !!!!!       !!!!!             !!!!!                !!!!!                !!!!!                          ",
"!!!!!             !!!!!       !!!!!             !!!!!                !!!!!                !!!!!                          ",
"!!!!!!!!!!!!!!!!!!!!!!!       !!!!!             !!!!!                !!!!!                !!!!!!!!!!!!!!!!!!!!!!!        ",
"!!!!!!!!!!!!!!!!!!!!!!!       !!!!!             !!!!!                !!!!!                !!!!!!!!!!!!!!!!!!!!!!!        ",
"!!!!!!!!!!!!!!!!!!!!!!!       !!!!!             !!!!!                !!!!!                !!!!!!!!!!!!!!!!!!!!!!!        ",
"!!!!!!!!!!!!!!!!!!!!!!        !!!!!             !!!!!                !!!!!                !!!!!!!!!!!!!!!!!!!!!!!        ",
"!!!!!!!!!!!!!!!!!!!!!         !!!!!             !!!!!                !!!!!                 !!!!!!!!!!!!!!!!!!!!!!        ",
"                                                                                                                         ",
"                                                                                                                         ",
"                                                                                                                         ",
"                                                                                                                         ",
"                                                                                                                         ",
"                                                                                                                         ",
"                                                                                                                         ",
"                                                                                                                         ",
"                                                                                                                         ",
"                                                                                                                         "
};
