static xpm_row_t const log[] = {
"121 55 2 1",
"  c None",
"! c #FFFFFF",
"                                                                                                                         ",
"                                                                                                                         ",
"                                                                                                                         ",
"                                                                                                                         ",
"                                                                                                                         ",
"                                                                                                                         ",
"                                                                                                                         ",
"                                                                                                                         ",
"                                                                                                                         ",
"                                                                                                                         ",
"                                                                                                                         ",
"                                                                                                                         ",
"!!!!!!                                    !!!!!!!!!!!!!!!!!!!!!!!!!!              !!!!!!!!!!!!!!!!!!!!!!!!!!!!           ",
"!!!!!!                                   !!!!!!!!!!!!!!!!!!!!!!!!!!!!            !!!!!!!!!!!!!!!!!!!!!!!!!!!!!           ",
"!!!!!!                                  !!!!!!!!!!!!!!!!!!!!!!!!!!!!!!          !!!!!!!!!!!!!!!!!!!!!!!!!!!!!!           ",
"!!!!!!                                  !!!!!!!!!!!!!!!!!!!!!!!!!!!!!!          !!!!!!!!!!!!!!!!!!!!!!!!!!!!!!           ",
"!!!!!!                                  !!!!!!!!!!!!!!!!!!!!!!!!!!!!!!          !!!!!!!!!!!!!!!!!!!!!!!!!!!!!!           ",
"!!!!!!                                  !!!!!!!!!!!!!!!!!!!!!!!!!!!!!!          !!!!!!!!!!!!!!!!!!!!!!!!!!!!!!           ",
"!!!!!!                                  !!!!!!                  !!!!!!          !!!!!!                                   ",
"!!!!!!                                  !!!!!!                  !!!!!!          !!!!!!                                   ",
"!!!!!!                                  !!!!!!                  !!!!!!          !!!!!!                                   ",
"!!!!!!                                  !!!!!!                  !!!!!!          !!!!!!                                   ",
"!!!!!!                                  !!!!!!                  !!!!!!          !!!!!!                                   ",
"!!!!!!                                  !!!!!!                  !!!!!!          !!!!!!                                   ",
"!!!!!!                                  !!!!!!                  !!!!!!          !!!!!!      !!!!!!!!!!!!!!!!             ",
"!!!!!!                                  !!!!!!                  !!!!!!          !!!!!!      !!!!!!!!!!!!!!!!!            ",
"!!!!!!                                  !!!!!!                  !!!!!!          !!!!!!      !!!!!!!!!!!!!!!!!!           ",
"!!!!!!                                  !!!!!!                  !!!!!!          !!!!!!      !!!!!!!!!!!!!!!!!!           ",
"!!!!!!                                  !!!!!!                  !!!!!!          !!!!!!      !!!!!!!!!!!!!!!!!!           ",
"!!!!!!                                  !!!!!!                  !!!!!!          !!!!!!      !!!!!!!!!!!!!!!!!!           ",
"!!!!!!                                  !!!!!!                  !!!!!!          !!!!!!                  !!!!!!           ",
"!!!!!!                                  !!!!!!                  !!!!!!          !!!!!!                  !!!!!!           ",
"!!!!!!                                  !!!!!!                  !!!!!!          !!!!!!                  !!!!!!           ",
"!!!!!!                                  !!!!!!                  !!!!!!          !!!!!!                  !!!!!!           ",
"!!!!!!                                  !!!!!!                  !!!!!!          !!!!!!                  !!!!!!           ",
"!!!!!!                                  !!!!!!                  !!!!!!          !!!!!!                  !!!!!!           ",
"!!!!!!!!!!!!!!!!!!!!!!!!!!!!!!          !!!!!!!!!!!!!!!!!!!!!!!!!!!!!!          !!!!!!!!!!!!!!!!!!!!!!!!!!!!!!           ",
"!!!!!!!!!!!!!!!!!!!!!!!!!!!!!!          !!!!!!!!!!!!!!!!!!!!!!!!!!!!!!          !!!!!!!!!!!!!!!!!!!!!!!!!!!!!!           ",
"!!!!!!!!!!!!!!!!!!!!!!!!!!!!!!          !!!!!!!!!!!!!!!!!!!!!!!!!!!!!!          !!!!!!!!!!!!!!!!!!!!!!!!!!!!!!           ",
"!!!!!!!!!!!!!!!!!!!!!!!!!!!!!!          !!!!!!!!!!!!!!!!!!!!!!!!!!!!!!          !!!!!!!!!!!!!!!!!!!!!!!!!!!!!!           ",
" !!!!!!!!!!!!!!!!!!!!!!!!!!!!!           !!!!!!!!!!!!!!!!!!!!!!!!!!!!            !!!!!!!!!!!!!!!!!!!!!!!!!!!!            ",
"  !!!!!!!!!!!!!!!!!!!!!!!!!!!!            !!!!!!!!!!!!!!!!!!!!!!!!!!              !!!!!!!!!!!!!!!!!!!!!!!!!!             ",
"                                                                                                                         ",
"                                                                                                                         ",
"                                                                                                                         ",
"                                                                                                                         ",
"                                                                                                                         ",
"                                                                                                                         ",
"                                                                                                                         ",
"                                                                                                                         ",
"                                                                                                                         ",
"                                                                                                                         ",
"                                                                                                                         ",
"                                                                                                                         ",
"                                                                                                                         "
};
