static xpm_row_t const p1[] = {
"47 42 2 1",
"  c None",
"! c #FFFFFF",
"                                               ",
"                                               ",
"                                               ",
"                                               ",
"                                               ",
"                                               ",
"                                               ",
"                                               ",
"                                               ",
"!!!!!!!!!!!!!!!!!!!!!         !!!!!!!!         ",
"!!!!!!!!!!!!!!!!!!!!!!        !!!!!!!!!        ",
"!!!!!!!!!!!!!!!!!!!!!!!       !!!!!!!!!        ",
"!!!!!!!!!!!!!!!!!!!!!!!       !!!!!!!!!        ",
"!!!!!!!!!!!!!!!!!!!!!!!       !!!!!!!!!        ",
"!!!!!             !!!!!           !!!!!        ",
"!!!!!             !!!!!           !!!!!        ",
"!!!!!             !!!!!           !!!!!        ",
"!!!!!             !!!!!           !!!!!        ",
"!!!!!!!!!!!!!!!!!!!!!!!           !!!!!        ",
"!!!!!!!!!!!!!!!!!!!!!!!           !!!!!        ",
"!!!!!!!!!!!!!!!!!!!!!!!           !!!!!        ",
"!!!!!!!!!!!!!!!!!!!!!!            !!!!!        ",
"!!!!!!!!!!!!!!!!!!!!!             !!!!!        ",
"!!!!!                             !!!!!        ",
"!!!!!                             !!!!!        ",
"!!!!!                             !!!!!        ",
"!!!!!                             !!!!!        ",
"!!!!!                             !!!!!        ",
"!!!!!                             !!!!!        ",
"!!!!!                             !!!!!        ",
"!!!!!                             !!!!!        ",
"!!!!!                             !!!!!        ",
"                                               ",
"                                               ",
"                                               ",
"                                               ",
"                                               ",
"                                               ",
"                                               ",
"                                               ",
"                                               ",
"                                               "
};
