/* XPM */
static char *p2[] = {
/* columns rows colors chars-per-pixel */
"61 42 2 1 ",
"  c None",
". c #FFFFFF",
/* pixels */
"                                                             ",
"                                                             ",
"                                                             ",
"                                                             ",
"                                                             ",
"                                                             ",
"                                                             ",
"                                                             ",
"                                                             ",
"....................          ....................           ",
".....................         .....................          ",
"......................        ......................         ",
"......................        ......................         ",
"......................        ......................         ",
".....             .....                         .....        ",
".....             .....                         .....        ",
".....             .....                         .....        ",
".....             .....                         .....        ",
"......................           ...................         ",
"......................         .....................         ",
"......................         .....................         ",
".....................         .....................          ",
"...................           ...................            ",
".....                         .....                          ",
".....                         .....                          ",
".....                         .....                          ",
".....                         .....                          ",
".....                         ......................         ",
".....                         .......................        ",
".....                          ......................        ",
".....                          ......................        ",
".....                           .....................        ",
"                                                             ",
"                                                             ",
"                                                             ",
"                                                             ",
"                                                             ",
"                                                             ",
"                                                             ",
"                                                             ",
"                                                             ",
"                                                             "
};
