/* XPM */
static char *slash[] = {
/* columns rows colors chars-per-pixel */
"17 42 2 1 ",
"  c None",
". c #FFFFFF",
/* pixels */
"                 ",
"                 ",
"                 ",
"                 ",
"                 ",
"                 ",
"                 ",
"                 ",
"                 ",
"    .....        ",
"    .....        ",
"    .....        ",
"    .....        ",
"    .....        ",
"    .....        ",
"    .....        ",
"    .....        ",
"    .....        ",
"   ......        ",
" ........        ",
" .......         ",
"........         ",
"......           ",
".....            ",
".....            ",
".....            ",
".....            ",
".....            ",
".....            ",
".....            ",
".....            ",
".....            ",
"                 ",
"                 ",
"                 ",
"                 ",
"                 ",
"                 ",
"                 ",
"                 ",
"                 ",
"                 "
};
