static xpm_row_t const time[] = {
"112 42 2 1",
"  c None",
"! c #FFFFFF",
"                                                                                                                ",
"                                                                                                                ",
"                                                                                                                ",
"                                                                                                                ",
"                                                                                                                ",
"                                                                                                                ",
"                                                                                                                ",
"                                                                                                                ",
"                                                                                                                ",
"!!!!!!!!!!!!!!!!!!!!!!!       !!!!!       !!!!!!!!!!!!!!!!!!!!!!!!!!!!!!          !!!!!!!!!!!!!!!!!!!!!!        ",
"!!!!!!!!!!!!!!!!!!!!!!!       !!!!!       !!!!!!!!!!!!!!!!!!!!!!!!!!!!!!!        !!!!!!!!!!!!!!!!!!!!!!!        ",
"!!!!!!!!!!!!!!!!!!!!!!!       !!!!!       !!!!!!!!!!!!!!!!!!!!!!!!!!!!!!!!       !!!!!!!!!!!!!!!!!!!!!!!        ",
"!!!!!!!!!!!!!!!!!!!!!!!       !!!!!       !!!!!!!!!!!!!!!!!!!!!!!!!!!!!!!!       !!!!!!!!!!!!!!!!!!!!!!!        ",
"!!!!!!!!!!!!!!!!!!!!!!!       !!!!!       !!!!!!!!!!!!!!!!!!!!!!!!!!!!!!!!       !!!!!!!!!!!!!!!!!!!!!!!        ",
"         !!!!!                !!!!!       !!!!!        !!!!!         !!!!!       !!!!!                          ",
"         !!!!!                !!!!!       !!!!!        !!!!!         !!!!!       !!!!!                          ",
"         !!!!!                !!!!!       !!!!!        !!!!!         !!!!!       !!!!!                          ",
"         !!!!!                !!!!!       !!!!!        !!!!!         !!!!!       !!!!!                          ",
"         !!!!!                !!!!!       !!!!!        !!!!!         !!!!!       !!!!!!!!!!!!!!!!!!!!!!!        ",
"         !!!!!                !!!!!       !!!!!        !!!!!         !!!!!       !!!!!!!!!!!!!!!!!!!!!!!        ",
"         !!!!!                !!!!!       !!!!!        !!!!!         !!!!!       !!!!!!!!!!!!!!!!!!!!!!!        ",
"         !!!!!                !!!!!       !!!!!        !!!!!         !!!!!       !!!!!!!!!!!!!!!!!!!!!!!        ",
"         !!!!!                !!!!!       !!!!!        !!!!!         !!!!!       !!!!!!!!!!!!!!!!!!!!!!!        ",
"         !!!!!                !!!!!       !!!!!        !!!!!         !!!!!       !!!!!                          ",
"         !!!!!                !!!!!       !!!!!        !!!!!         !!!!!       !!!!!                          ",
"         !!!!!                !!!!!       !!!!!        !!!!!         !!!!!       !!!!!                          ",
"         !!!!!                !!!!!       !!!!!        !!!!!         !!!!!       !!!!!                          ",
"         !!!!!                !!!!!       !!!!!        !!!!!         !!!!!       !!!!!!!!!!!!!!!!!!!!!!!        ",
"         !!!!!                !!!!!       !!!!!        !!!!!         !!!!!       !!!!!!!!!!!!!!!!!!!!!!!        ",
"         !!!!!                !!!!!       !!!!!        !!!!!         !!!!!       !!!!!!!!!!!!!!!!!!!!!!!        ",
"         !!!!!                !!!!!       !!!!!        !!!!!         !!!!!       !!!!!!!!!!!!!!!!!!!!!!!        ",
"         !!!!!                !!!!!       !!!!!        !!!!!         !!!!!        !!!!!!!!!!!!!!!!!!!!!!        ",
"                                                                                                                ",
"                                                                                                                ",
"                                                                                                                ",
"                                                                                                                ",
"                                                                                                                ",
"                                                                                                                ",
"                                                                                                                ",
"                                                                                                                ",
"                                                                                                                ",
"                                                                                                                "
};
