static xpm_row_t const winner[] = {
"172 42 2 1",
"  c None",
"! c #FFFFFF",
"                                                                                                                                                                            ",
"                                                                                                                                                                            ",
"                                                                                                                                                                            ",
"                                                                                                                                                                            ",
"                                                                                                                                                                            ",
"                                                                                                                                                                            ",
"                                                                                                                                                                            ",
"                                                                                                                                                                            ",
"                                                                                                                                                                            ",
"!!!!!        !!!!!         !!!!!       !!!!!       !!!!!!!!!!!!!!!!!!!!!         !!!!!!!!!!!!!!!!!!!!!          !!!!!!!!!!!!!!!!!!!!!!       !!!!!!!!!!!!!!!!!!!!!          ",
"!!!!!        !!!!!         !!!!!       !!!!!       !!!!!!!!!!!!!!!!!!!!!!        !!!!!!!!!!!!!!!!!!!!!!        !!!!!!!!!!!!!!!!!!!!!!!       !!!!!!!!!!!!!!!!!!!!!!         ",
"!!!!!        !!!!!         !!!!!       !!!!!       !!!!!!!!!!!!!!!!!!!!!!!       !!!!!!!!!!!!!!!!!!!!!!!       !!!!!!!!!!!!!!!!!!!!!!!       !!!!!!!!!!!!!!!!!!!!!!!        ",
"!!!!!        !!!!!         !!!!!       !!!!!       !!!!!!!!!!!!!!!!!!!!!!!       !!!!!!!!!!!!!!!!!!!!!!!       !!!!!!!!!!!!!!!!!!!!!!!       !!!!!!!!!!!!!!!!!!!!!!!        ",
"!!!!!        !!!!!         !!!!!       !!!!!       !!!!!!!!!!!!!!!!!!!!!!!       !!!!!!!!!!!!!!!!!!!!!!!       !!!!!!!!!!!!!!!!!!!!!!!       !!!!!!!!!!!!!!!!!!!!!!!        ",
"!!!!!        !!!!!         !!!!!       !!!!!       !!!!!             !!!!!       !!!!!             !!!!!       !!!!!                         !!!!!             !!!!!        ",
"!!!!!        !!!!!         !!!!!       !!!!!       !!!!!             !!!!!       !!!!!             !!!!!       !!!!!                         !!!!!             !!!!!        ",
"!!!!!        !!!!!         !!!!!       !!!!!       !!!!!             !!!!!       !!!!!             !!!!!       !!!!!                         !!!!!             !!!!!        ",
"!!!!!        !!!!!         !!!!!       !!!!!       !!!!!             !!!!!       !!!!!             !!!!!       !!!!!                         !!!!!             !!!!!        ",
"!!!!!        !!!!!         !!!!!       !!!!!       !!!!!             !!!!!       !!!!!             !!!!!       !!!!!!!!!!!!!!!!!!!!!!!       !!!!!!!!!!!!!!!!!!!!!!!        ",
"!!!!!        !!!!!         !!!!!       !!!!!       !!!!!             !!!!!       !!!!!             !!!!!       !!!!!!!!!!!!!!!!!!!!!!!       !!!!!!!!!!!!!!!!!!!!!!!        ",
"!!!!!        !!!!!         !!!!!       !!!!!       !!!!!             !!!!!       !!!!!             !!!!!       !!!!!!!!!!!!!!!!!!!!!!!       !!!!!!!!!!!!!!!!!!!!!!         ",
"!!!!!        !!!!!         !!!!!       !!!!!       !!!!!             !!!!!       !!!!!             !!!!!       !!!!!!!!!!!!!!!!!!!!!!!       !!!!!!!!!!!!!!!!!!!!!!!        ",
"!!!!!        !!!!!         !!!!!       !!!!!       !!!!!             !!!!!       !!!!!             !!!!!       !!!!!!!!!!!!!!!!!!!!!!!       !!!!!!!!!!!!!!!!!!!!!!!        ",
"!!!!!        !!!!!         !!!!!       !!!!!       !!!!!             !!!!!       !!!!!             !!!!!       !!!!!                         !!!!!             !!!!!        ",
"!!!!!        !!!!!         !!!!!       !!!!!       !!!!!             !!!!!       !!!!!             !!!!!       !!!!!                         !!!!!             !!!!!        ",
"!!!!!        !!!!!         !!!!!       !!!!!       !!!!!             !!!!!       !!!!!             !!!!!       !!!!!                         !!!!!             !!!!!        ",
"!!!!!        !!!!!         !!!!!       !!!!!       !!!!!             !!!!!       !!!!!             !!!!!       !!!!!                         !!!!!             !!!!!        ",
"!!!!!!!!!!!!!!!!!!!!!!!!!!!!!!!!       !!!!!       !!!!!             !!!!!       !!!!!             !!!!!       !!!!!!!!!!!!!!!!!!!!!!!       !!!!!             !!!!!        ",
"!!!!!!!!!!!!!!!!!!!!!!!!!!!!!!!!       !!!!!       !!!!!             !!!!!       !!!!!             !!!!!       !!!!!!!!!!!!!!!!!!!!!!!       !!!!!             !!!!!        ",
"!!!!!!!!!!!!!!!!!!!!!!!!!!!!!!!!       !!!!!       !!!!!             !!!!!       !!!!!             !!!!!       !!!!!!!!!!!!!!!!!!!!!!!       !!!!!             !!!!!        ",
"!!!!!!!!!!!!!!!!!!!!!!!!!!!!!!!        !!!!!       !!!!!             !!!!!       !!!!!             !!!!!       !!!!!!!!!!!!!!!!!!!!!!!       !!!!!             !!!!!        ",
" !!!!!!!!!!!!!!!!!!!!!!!!!!!!!         !!!!!       !!!!!             !!!!!       !!!!!             !!!!!        !!!!!!!!!!!!!!!!!!!!!!       !!!!!             !!!!!        ",
"                                                                                                                                                                            ",
"                                                                                                                                                                            ",
"                                                                                                                                                                            ",
"                                                                                                                                                                            ",
"                                                                                                                                                                            ",
"                                                                                                                                                                            ",
"                                                                                                                                                                            ",
"                                                                                                                                                                            ",
"                                                                                                                                                                            ",
"                                                                                                                                                                            "
};
