/* XPM */
static char *won[] = {
/* columns rows colors chars-per-pixel */
"100 42 2 1 ",
"  c None",
". c #FFFFFF",
/* pixels */
"                                                                                                    ",
"                                                                                                    ",
"                                                                                                    ",
"                                                                                                    ",
"                                                                                                    ",
"                                                                                                    ",
"                                                                                                    ",
"                                                                                                    ",
"                                                                                                    ",
".....        .....         .....         ..................          ....................           ",
".....        .....         .....        ....................         .....................          ",
".....        .....         .....        .....................        ......................         ",
".....        .....         .....       ......................        ......................         ",
".....        .....         .....       ......................        ......................         ",
".....        .....         .....       .....             .....       .....             .....        ",
".....        .....         .....       .....             .....       .....             .....        ",
".....        .....         .....       .....             .....       .....             .....        ",
".....        .....         .....       .....             .....       .....             .....        ",
".....        .....         .....       .....             .....       .....             .....        ",
".....        .....         .....       .....             .....       .....             .....        ",
".....        .....         .....       .....             .....       .....             .....        ",
".....        .....         .....       .....             .....       .....             .....        ",
".....        .....         .....       .....             .....       .....             .....        ",
".....        .....         .....       .....             .....       .....             .....        ",
".....        .....         .....       .....             .....       .....             .....        ",
".....        .....         .....       .....             .....       .....             .....        ",
".....        .....         .....       .....             .....       .....             .....        ",
"...............................        ......................        .....             .....        ",
"...............................        ......................        .....             .....        ",
"...............................        ......................        .....             .....        ",
" .............................          ....................         .....             .....        ",
"  ...........................            ..................          .....             .....        ",
"                                                                                                    ",
"                                                                                                    ",
"                                                                                                    ",
"                                                                                                    ",
"                                                                                                    ",
"                                                                                                    ",
"                                                                                                    ",
"                                                                                                    ",
"                                                                                                    ",
"                                                                                                    "
};
