/* XPM */
static xpm_row_t const button_red[] = {
/* columns rows colors chars-per-pixel */
"192 64 6 1 ",
"  c #CD0B2A",
". c #EE2747",
"X c #DF2B48",
"o c #FF627B",
"O c None",
"+ c #CD0A28",
/* pixels */
"+++OOO                                                                                                                                                                                    OOO+++",
"+O                                                                                                                                                                                            O+",
"+  XooooooooooooooooooooooooooooooooooooooooooooooooooooooooooooooooooooooooooooooooooooooooooooooooooooooooooooooooooooooooooooooooooooooooooooooooooooooooooooooooooooooooooooooooooooooooX  +",
"O XooooooooooooooooooooooooooooooooooooooooooooooooooooooooooooooooooooooooooooooooooooooooooooooooooooooooooooooooooooooooooooooooooooooooooooooooooooooooooooooooooooooooooooooooooooooooooX O",
"  ooo......................................................................................................................................................................................ooo  ",
"  oo........................................................................................................................................................................................oo  ",
"  oo........................................................................................................................................................................................oo  ",
"  oo........................................................................................................................................................................................oo  ",
"  oo........................................................................................................................................................................................oo  ",
"  oo........................................................................................................................................................................................oo  ",
"  oo........................................................................................................................................................................................oo  ",
"  oo........................................................................................................................................................................................oo  ",
"  oo........................................................................................................................................................................................oo  ",
"  oo........................................................................................................................................................................................oo  ",
"  oo........................................................................................................................................................................................oo  ",
"  oo........................................................................................................................................................................................oo  ",
"  oo........................................................................................................................................................................................oo  ",
"  oo........................................................................................................................................................................................oo  ",
"  oo........................................................................................................................................................................................oo  ",
"  oo........................................................................................................................................................................................oo  ",
"  oo........................................................................................................................................................................................oo  ",
"  oo........................................................................................................................................................................................oo  ",
"  oo........................................................................................................................................................................................oo  ",
"  oo........................................................................................................................................................................................oo  ",
"  oo........................................................................................................................................................................................oo  ",
"  oo........................................................................................................................................................................................oo  ",
"  oo........................................................................................................................................................................................oo  ",
"  oo........................................................................................................................................................................................oo  ",
"  oo........................................................................................................................................................................................oo  ",
"  oo........................................................................................................................................................................................oo  ",
"  oo........................................................................................................................................................................................oo  ",
"  oo........................................................................................................................................................................................oo  ",
"  oo........................................................................................................................................................................................oo  ",
"  oo........................................................................................................................................................................................oo  ",
"  oo........................................................................................................................................................................................oo  ",
"  oo........................................................................................................................................................................................oo  ",
"  oo........................................................................................................................................................................................oo  ",
"  oo........................................................................................................................................................................................oo  ",
"  oo........................................................................................................................................................................................oo  ",
"  oo........................................................................................................................................................................................oo  ",
"  oo........................................................................................................................................................................................oo  ",
"  oo........................................................................................................................................................................................oo  ",
"  oo........................................................................................................................................................................................oo  ",
"  oo........................................................................................................................................................................................oo  ",
"  oo........................................................................................................................................................................................oo  ",
"  oo........................................................................................................................................................................................oo  ",
"  oo........................................................................................................................................................................................oo  ",
"  oo........................................................................................................................................................................................oo  ",
"  oo........................................................................................................................................................................................oo  ",
"  oo........................................................................................................................................................................................oo  ",
"  oo........................................................................................................................................................................................oo  ",
"  oo........................................................................................................................................................................................oo  ",
"  oo........................................................................................................................................................................................oo  ",
"  oo........................................................................................................................................................................................oo  ",
"  oo........................................................................................................................................................................................oo  ",
"  oo........................................................................................................................................................................................oo  ",
"  oo........................................................................................................................................................................................oo  ",
"  oo........................................................................................................................................................................................oo  ",
"  oo........................................................................................................................................................................................oo  ",
"O oo........................................................................................................................................................................................oo O",
"O XooooooooooooooooooooooooooooooooooooooooooooooooooooooooooooooooooooooooooooooooooooooooooooooooooooooooooooooooooooooooooooooooooooooooooooooooooooooooooooooooooooooooooooooooooooooooooX O",
"+  XooooooooooooooooooooooooooooooooooooooooooooooooooooooooooooooooooooooooooooooooooooooooooooooooooooooooooooooooooooooooooooooooooooooooooooooooooooooooooooooooooooooooooooooooooooooooX  +",
"+O                                                                                                                                                                                            O+",
"+++O                                                                                                                                                                                        O+++"
};
