/* XPM */
static xpm_row_t const button_gray_wide[] = {
/* columns rows colors chars-per-pixel */
"560 90 6 1 ",
"  c None",
". c #DADCE7",
"X c #F7F7F9",
"o c #CACBD6",
"O c #B5B6C5",
"+ c #989AAF",
/* pixels */
"+++++++++++++++++                                                                                                                                                                                                                                                                                                                                                                                                                                                                                                                                              +++++++++++++++++",
"+++++++++                                                                                                                                                                                                                                                                                                                                                                                                                                                                                                                                                              +++++++++",
"+++++      OOOOOOOOOOOOOOOOOOOOOOOOOOOOOOOOOOOOOOOOOOOOOOOOOOOOOOOOOOOOOOOOOOOOOOOOOOOOOOOOOOOOOOOOOOOOOOOOOOOOOOOOOOOOOOOOOOOOOOOOOOOOOOOOOOOOOOOOOOOOOOOOOOOOOOOOOOOOOOOOOOOOOOOOOOOOOOOOOOOOOOOOOOOOOOOOOOOOOOOOOOOOOOOOOOOOOOOOOOOOOOOOOOOOOOOOOOOOOOOOOOOOOOOOOOOOOOOOOOOOOOOOOOOOOOOOOOOOOOOOOOOOOOOOOOOOOOOOOOOOOOOOOOOOOOOOOOOOOOOOOOOOOOOOOOOOOOOOOOOOOOOOOOOOOOOOOOOOOOOOOOOOOOOOOOOOOOOOOOOOOOOOOOOOOOOOOOOOOOOOOOOOOOOOOOOOOOOOOOOOOOOOOOOOOOOOOOOOOOOOOOOOOOOOOOOOOOOOOOOOOOOOOOOOOOOOOOOOOOOOOOOOOOOOOOOOOOOOOOOOOOOOOOOOOOOOOOOOOOOOOOOOOOOOOOOOOOOOOO      +++++",
"+++     OOoo...XXXXXXXXXXXXXXXXXXXXXXXXXXXXXXXXXXXXXXXXXXXXXXXXXXXXXXXXXXXXXXXXXXXXXXXXXXXXXXXXXXXXXXXXXXXXXXXXXXXXXXXXXXXXXXXXXXXXXXXXXXXXXXXXXXXXXXXXXXXXXXXXXXXXXXXXXXXXXXXXXXXXXXXXXXXXXXXXXXXXXXXXXXXXXXXXXXXXXXXXXXXXXXXXXXXXXXXXXXXXXXXXXXXXXXXXXXXXXXXXXXXXXXXXXXXXXXXXXXXXXXXXXXXXXXXXXXXXXXXXXXXXXXXXXXXXXXXXXXXXXXXXXXXXXXXXXXXXXXXXXXXXXXXXXXXXXXXXXXXXXXXXXXXXXXXXXXXXXXXXXXXXXXXXXXXXXXXXXXXXXXXXXXXXXXXXXXXXXXXXXXXXXXXXXXXXXXXXXXXXXXXXXXXXXXXXXXXXXXXXXXXXXXXXXXXXXXXXXXXXXXXXXXXXXXXXXXXXXXXXXXXXXXXXXXXXXXXXXXXXXXXXXXXXXXXXXXXXXXXXXXXXXXXXXX...ooOO     +++",
"++    OOo.XXXXXXXXXXXXXXXXXXXXXXXXXXXXXXXXXXXXXXXXXXXXXXXXXXXXXXXXXXXXXXXXXXXXXXXXXXXXXXXXXXXXXXXXXXXXXXXXXXXXXXXXXXXXXXXXXXXXXXXXXXXXXXXXXXXXXXXXXXXXXXXXXXXXXXXXXXXXXXXXXXXXXXXXXXXXXXXXXXXXXXXXXXXXXXXXXXXXXXXXXXXXXXXXXXXXXXXXXXXXXXXXXXXXXXXXXXXXXXXXXXXXXXXXXXXXXXXXXXXXXXXXXXXXXXXXXXXXXXXXXXXXXXXXXXXXXXXXXXXXXXXXXXXXXXXXXXXXXXXXXXXXXXXXXXXXXXXXXXXXXXXXXXXXXXXXXXXXXXXXXXXXXXXXXXXXXXXXXXXXXXXXXXXXXXXXXXXXXXXXXXXXXXXXXXXXXXXXXXXXXXXXXXXXXXXXXXXXXXXXXXXXXXXXXXXXXXXXXXXXXXXXXXXXXXXXXXXXXXXXXXXXXXXXXXXXXXXXXXXXXXXXXXXXXXXXXXXXXXXXXXXXXXXXXXXXXXXXXXXX.oOO    ++",
"     Oo.XXXXXXXXXXXXXXXXXXXXXXXXXXXXXXXXXXXXXXXXXXXXXXXXXXXXXXXXXXXXXXXXXXXXXXXXXXXXXXXXXXXXXXXXXXXXXXXXXXXXXXXXXXXXXXXXXXXXXXXXXXXXXXXXXXXXXXXXXXXXXXXXXXXXXXXXXXXXXXXXXXXXXXXXXXXXXXXXXXXXXXXXXXXXXXXXXXXXXXXXXXXXXXXXXXXXXXXXXXXXXXXXXXXXXXXXXXXXXXXXXXXXXXXXXXXXXXXXXXXXXXXXXXXXXXXXXXXXXXXXXXXXXXXXXXXXXXXXXXXXXXXXXXXXXXXXXXXXXXXXXXXXXXXXXXXXXXXXXXXXXXXXXXXXXXXXXXXXXXXXXXXXXXXXXXXXXXXXXXXXXXXXXXXXXXXXXXXXXXXXXXXXXXXXXXXXXXXXXXXXXXXXXXXXXXXXXXXXXXXXXXXXXXXXXXXXXXXXXXXXXXXXXXXXXXXXXXXXXXXXXXXXXXXXXXXXXXXXXXXXXXXXXXXXXXXXXXXXXXXXXXXXXXXXXXXXXXXXXXXXXXXX.oO     ",
"     O.XXXXXXX....................................................................................................................................................................................................................................................................................................................................................................................................................................................................................................................................................XXXXXXX.O     ",
"     O.XXXXX........................................................................................................................................................................................................................................................................................................................................................................................................................................................................................................................................................XXXXX.O     ",
"     O.XXXXX........................................................................................................................................................................................................................................................................................................................................................................................................................................................................................................................................................XXXXX.O     ",
"     O.XXXXX........................................................................................................................................................................................................................................................................................................................................................................................................................................................................................................................................................XXXXX.O     ",
"     O.XXXXX........................................................................................................................................................................................................................................................................................................................................................................................................................................................................................................................................................XXXXX.O     ",
"     O.XXXXX........................................................................................................................................................................................................................................................................................................................................................................................................................................................................................................................................................XXXXX.O     ",
"     O.XXXXX........................................................................................................................................................................................................................................................................................................................................................................................................................................................................................................................................................XXXXX.O     ",
"     O.XXXXX........................................................................................................................................................................................................................................................................................................................................................................................................................................................................................................................................................XXXXX.O     ",
"     O.XXXXX........................................................................................................................................................................................................................................................................................................................................................................................................................................................................................................................................................XXXXX.O     ",
"     O.XXXXX........................................................................................................................................................................................................................................................................................................................................................................................................................................................................................................................................................XXXXX.O     ",
"     O.XXXXX........................................................................................................................................................................................................................................................................................................................................................................................................................................................................................................................................................XXXXX.O     ",
"     O.XXXXX........................................................................................................................................................................................................................................................................................................................................................................................................................................................................................................................................................XXXXX.O     ",
"     O.XXXXX........................................................................................................................................................................................................................................................................................................................................................................................................................................................................................................................................................XXXXX.O     ",
"     O.XXXXX........................................................................................................................................................................................................................................................................................................................................................................................................................................................................................................................................................XXXXX.O     ",
"     O.XXXXX........................................................................................................................................................................................................................................................................................................................................................................................................................................................................................................................................................XXXXX.O     ",
"     O.XXXXX........................................................................................................................................................................................................................................................................................................................................................................................................................................................................................................................................................XXXXX.O     ",
"     O.XXXXX........................................................................................................................................................................................................................................................................................................................................................................................................................................................................................................................................................XXXXX.O     ",
"     O.XXXXX........................................................................................................................................................................................................................................................................................................................................................................................................................................................................................................................................................XXXXX.O     ",
"     O.XXXXX........................................................................................................................................................................................................................................................................................................................................................................................................................................................................................................................................................XXXXX.O     ",
"     O.XXXXX........................................................................................................................................................................................................................................................................................................................................................................................................................................................................................................................................................XXXXX.O     ",
"     O.XXXXX........................................................................................................................................................................................................................................................................................................................................................................................................................................................................................................................................................XXXXX.O     ",
"     O.XXXXX........................................................................................................................................................................................................................................................................................................................................................................................................................................................................................................................................................XXXXX.O     ",
"     O.XXXXX........................................................................................................................................................................................................................................................................................................................................................................................................................................................................................................................................................XXXXX.O     ",
"     O.XXXXX........................................................................................................................................................................................................................................................................................................................................................................................................................................................................................................................................................XXXXX.O     ",
"     O.XXXXX........................................................................................................................................................................................................................................................................................................................................................................................................................................................................................................................................................XXXXX.O     ",
"     O.XXXXX........................................................................................................................................................................................................................................................................................................................................................................................................................................................................................................................................................XXXXX.O     ",
"     O.XXXXX........................................................................................................................................................................................................................................................................................................................................................................................................................................................................................................................................................XXXXX.O     ",
"     O.XXXXX........................................................................................................................................................................................................................................................................................................................................................................................................................................................................................................................................................XXXXX.O     ",
"     O.XXXXX........................................................................................................................................................................................................................................................................................................................................................................................................................................................................................................................................................XXXXX.O     ",
"     O.XXXXX........................................................................................................................................................................................................................................................................................................................................................................................................................................................................................................................................................XXXXX.O     ",
"     O.XXXXX........................................................................................................................................................................................................................................................................................................................................................................................................................................................................................................................................................XXXXX.O     ",
"     O.XXXXX........................................................................................................................................................................................................................................................................................................................................................................................................................................................................................................................................................XXXXX.O     ",
"     O.XXXXX........................................................................................................................................................................................................................................................................................................................................................................................................................................................................................................................................................XXXXX.O     ",
"     O.XXXXX........................................................................................................................................................................................................................................................................................................................................................................................................................................................................................................................................................XXXXX.O     ",
"     O.XXXXX........................................................................................................................................................................................................................................................................................................................................................................................................................................................................................................................................................XXXXX.O     ",
"     O.XXXXX........................................................................................................................................................................................................................................................................................................................................................................................................................................................................................................................................................XXXXX.O     ",
"     O.XXXXX........................................................................................................................................................................................................................................................................................................................................................................................................................................................................................................................................................XXXXX.O     ",
"     O.XXXXX........................................................................................................................................................................................................................................................................................................................................................................................................................................................................................................................................................XXXXX.O     ",
"     O.XXXXX........................................................................................................................................................................................................................................................................................................................................................................................................................................................................................................................................................XXXXX.O     ",
"     O.XXXXX........................................................................................................................................................................................................................................................................................................................................................................................................................................................................................................................................................XXXXX.O     ",
"     O.XXXXX........................................................................................................................................................................................................................................................................................................................................................................................................................................................................................................................................................XXXXX.O     ",
"     O.XXXXX........................................................................................................................................................................................................................................................................................................................................................................................................................................................................................................................................................XXXXX.O     ",
"     O.XXXXX........................................................................................................................................................................................................................................................................................................................................................................................................................................................................................................................................................XXXXX.O     ",
"     O.XXXXX........................................................................................................................................................................................................................................................................................................................................................................................................................................................................................................................................................XXXXX.O     ",
"     O.XXXXX........................................................................................................................................................................................................................................................................................................................................................................................................................................................................................................................................................XXXXX.O     ",
"     O.XXXXX........................................................................................................................................................................................................................................................................................................................................................................................................................................................................................................................................................XXXXX.O     ",
"     O.XXXXX........................................................................................................................................................................................................................................................................................................................................................................................................................................................................................................................................................XXXXX.O     ",
"     O.XXXXX........................................................................................................................................................................................................................................................................................................................................................................................................................................................................................................................................................XXXXX.O     ",
"     O.XXXXX........................................................................................................................................................................................................................................................................................................................................................................................................................................................................................................................................................XXXXX.O     ",
"     O.XXXXX........................................................................................................................................................................................................................................................................................................................................................................................................................................................................................................................................................XXXXX.O     ",
"     O.XXXXX........................................................................................................................................................................................................................................................................................................................................................................................................................................................................................................................................................XXXXX.O     ",
"     O.XXXXX........................................................................................................................................................................................................................................................................................................................................................................................................................................................................................................................................................XXXXX.O     ",
"     O.XXXXX........................................................................................................................................................................................................................................................................................................................................................................................................................................................................................................................................................XXXXX.O     ",
"     O.XXXXX........................................................................................................................................................................................................................................................................................................................................................................................................................................................................................................................................................XXXXX.O     ",
"     O.XXXXX........................................................................................................................................................................................................................................................................................................................................................................................................................................................................................................................................................XXXXX.O     ",
"     O.XXXXX........................................................................................................................................................................................................................................................................................................................................................................................................................................................................................................................................................XXXXX.O     ",
"     O.XXXXX........................................................................................................................................................................................................................................................................................................................................................................................................................................................................................................................................................XXXXX.O     ",
"     O.XXXXX........................................................................................................................................................................................................................................................................................................................................................................................................................................................................................................................................................XXXXX.O     ",
"     O.XXXXX........................................................................................................................................................................................................................................................................................................................................................................................................................................................................................................................................................XXXXX.O     ",
"     O.XXXXX........................................................................................................................................................................................................................................................................................................................................................................................................................................................................................................................................................XXXXX.O     ",
"     O.XXXXX........................................................................................................................................................................................................................................................................................................................................................................................................................................................................................................................................................XXXXX.O     ",
"     O.XXXXX........................................................................................................................................................................................................................................................................................................................................................................................................................................................................................................................................................XXXXX.O     ",
"     O.XXXXX........................................................................................................................................................................................................................................................................................................................................................................................................................................................................................................................................................XXXXX.O     ",
"     O.XXXXX........................................................................................................................................................................................................................................................................................................................................................................................................................................................................................................................................................XXXXX.O     ",
"     O.XXXXX........................................................................................................................................................................................................................................................................................................................................................................................................................................................................................................................................................XXXXX.O     ",
"     O.XXXXX........................................................................................................................................................................................................................................................................................................................................................................................................................................................................................................................................................XXXXX.O     ",
"     O.XXXXX........................................................................................................................................................................................................................................................................................................................................................................................................................................................................................................................................................XXXXX.O     ",
"     O.XXXXX........................................................................................................................................................................................................................................................................................................................................................................................................................................................................................................................................................XXXXX.O     ",
"     O.XXXXX........................................................................................................................................................................................................................................................................................................................................................................................................................................................................................................................................................XXXXX.O     ",
"     O.XXXXX........................................................................................................................................................................................................................................................................................................................................................................................................................................................................................................................................................XXXXX.O     ",
"     O.XXXXX........................................................................................................................................................................................................................................................................................................................................................................................................................................................................................................................................................XXXXX.O     ",
"     O.XXXXX........................................................................................................................................................................................................................................................................................................................................................................................................................................................................................................................................................XXXXX.O     ",
"     O.XXXXX........................................................................................................................................................................................................................................................................................................................................................................................................................................................................................................................................................XXXXX.O     ",
"     O.XXXXX........................................................................................................................................................................................................................................................................................................................................................................................................................................................................................................................................................XXXXX.O     ",
"     O.XXXXX........................................................................................................................................................................................................................................................................................................................................................................................................................................................................................................................................................XXXXX.O     ",
"     O.XXXXX........................................................................................................................................................................................................................................................................................................................................................................................................................................................................................................................................................XXXXX.O     ",
"     O.XXXXX........................................................................................................................................................................................................................................................................................................................................................................................................................................................................................................................................................XXXXX.O     ",
"     O.XXXXXX......................................................................................................................................................................................................................................................................................................................................................................................................................................................................................................................................................XXXXXX.O     ",
"++   Oo.XXXXXXXXXXXXXXXXXXXXXXXXXXXXXXXXXXXXXXXXXXXXXXXXXXXXXXXXXXXXXXXXXXXXXXXXXXXXXXXXXXXXXXXXXXXXXXXXXXXXXXXXXXXXXXXXXXXXXXXXXXXXXXXXXXXXXXXXXXXXXXXXXXXXXXXXXXXXXXXXXXXXXXXXXXXXXXXXXXXXXXXXXXXXXXXXXXXXXXXXXXXXXXXXXXXXXXXXXXXXXXXXXXXXXXXXXXXXXXXXXXXXXXXXXXXXXXXXXXXXXXXXXXXXXXXXXXXXXXXXXXXXXXXXXXXXXXXXXXXXXXXXXXXXXXXXXXXXXXXXXXXXXXXXXXXXXXXXXXXXXXXXXXXXXXXXXXXXXXXXXXXXXXXXXXXXXXXXXXXXXXXXXXXXXXXXXXXXXXXXXXXXXXXXXXXXXXXXXXXXXXXXXXXXXXXXXXXXXXXXXXXXXXXXXXXXXXXXXXXXXXXXXXXXXXXXXXXXXXXXXXXXXXXXXXXXXXXXXXXXXXXXXXXXXXXXXXXXXXXXXXXXXXXXXXXXXXXXXXXXXXXX.oO   ++",
"+++   Ooo.XXXXXXXXXXXXXXXXXXXXXXXXXXXXXXXXXXXXXXXXXXXXXXXXXXXXXXXXXXXXXXXXXXXXXXXXXXXXXXXXXXXXXXXXXXXXXXXXXXXXXXXXXXXXXXXXXXXXXXXXXXXXXXXXXXXXXXXXXXXXXXXXXXXXXXXXXXXXXXXXXXXXXXXXXXXXXXXXXXXXXXXXXXXXXXXXXXXXXXXXXXXXXXXXXXXXXXXXXXXXXXXXXXXXXXXXXXXXXXXXXXXXXXXXXXXXXXXXXXXXXXXXXXXXXXXXXXXXXXXXXXXXXXXXXXXXXXXXXXXXXXXXXXXXXXXXXXXXXXXXXXXXXXXXXXXXXXXXXXXXXXXXXXXXXXXXXXXXXXXXXXXXXXXXXXXXXXXXXXXXXXXXXXXXXXXXXXXXXXXXXXXXXXXXXXXXXXXXXXXXXXXXXXXXXXXXXXXXXXXXXXXXXXXXXXXXXXXXXXXXXXXXXXXXXXXXXXXXXXXXXXXXXXXXXXXXXXXXXXXXXXXXXXXXXXXXXXXXXXXXXXXXXXXXXXXXXXXXXXXX.ooO   +++",
"++++    Oo..XXXXXXXXXXXXXXXXXXXXXXXXXXXXXXXXXXXXXXXXXXXXXXXXXXXXXXXXXXXXXXXXXXXXXXXXXXXXXXXXXXXXXXXXXXXXXXXXXXXXXXXXXXXXXXXXXXXXXXXXXXXXXXXXXXXXXXXXXXXXXXXXXXXXXXXXXXXXXXXXXXXXXXXXXXXXXXXXXXXXXXXXXXXXXXXXXXXXXXXXXXXXXXXXXXXXXXXXXXXXXXXXXXXXXXXXXXXXXXXXXXXXXXXXXXXXXXXXXXXXXXXXXXXXXXXXXXXXXXXXXXXXXXXXXXXXXXXXXXXXXXXXXXXXXXXXXXXXXXXXXXXXXXXXXXXXXXXXXXXXXXXXXXXXXXXXXXXXXXXXXXXXXXXXXXXXXXXXXXXXXXXXXXXXXXXXXXXXXXXXXXXXXXXXXXXXXXXXXXXXXXXXXXXXXXXXXXXXXXXXXXXXXXXXXXXXXXXXXXXXXXXXXXXXXXXXXXXXXXXXXXXXXXXXXXXXXXXXXXXXXXXXXXXXXXXXXXXXXXXXXXXXXXXXXXXXXXXX..oO    ++++",
"+++++     OOOOOOOOOOOOOOOOOOOOOOOOOOOOOOOOOOOOOOOOOOOOOOOOOOOOOOOOOOOOOOOOOOOOOOOOOOOOOOOOOOOOOOOOOOOOOOOOOOOOOOOOOOOOOOOOOOOOOOOOOOOOOOOOOOOOOOOOOOOOOOOOOOOOOOOOOOOOOOOOOOOOOOOOOOOOOOOOOOOOOOOOOOOOOOOOOOOOOOOOOOOOOOOOOOOOOOOOOOOOOOOOOOOOOOOOOOOOOOOOOOOOOOOOOOOOOOOOOOOOOOOOOOOOOOOOOOOOOOOOOOOOOOOOOOOOOOOOOOOOOOOOOOOOOOOOOOOOOOOOOOOOOOOOOOOOOOOOOOOOOOOOOOOOOOOOOOOOOOOOOOOOOOOOOOOOOOOOOOOOOOOOOOOOOOOOOOOOOOOOOOOOOOOOOOOOOOOOOOOOOOOOOOOOOOOOOOOOOOOOOOOOOOOOOOOOOOOOOOOOOOOOOOOOOOOOOOOOOOOOOOOOOOOOOOOOOOOOOOOOOOOOOOOOOOOOOOOOOOOOOOOOOOOOOOOOOOOOOOOO     +++++",
"++++++++                                                                                                                                                                                                                                                                                                                                                                                                                                                                                                                                                                ++++++++",
"++++++++++                                                                                                                                                                                                                                                                                                                                                                                                                                                                                                                                                            ++++++++++"
};
