/* XPM */
static xpm_row_t const button_gray_large[] = {
/* columns rows colors chars-per-pixel */
"420 80 6 1 ",
"  c None",
". c #DADCE7",
"X c #FAFBFC",
"o c #D5D6E0",
"O c #B6B7C7",
"+ c #989AAF",
/* pixels */
"++++++++++++                                                                                                                                                                                                                                                                                                                                                                                                            ++++++++++++",
"++++++                                                                                                                                                                                                                                                                                                                                                                                                                        ++++++",
"+++    OOOOOooooooooooooooooooooooooooooooooooooooooooooooooooooooooooooooooooooooooooooooooooooooooooooooooooooooooooooooooooooooooooooooooooooooooooooooooooooooooooooooooooooooooooooooooooooooooooooooooooooooooooooooooooooooooooooooooooooooooooooooooooooooooooooooooooooooooooooooooooooooooooooooooooooooooooooooooooooooooooooooooooooooooooooooooooooooooooooooooooooooooooooooooooooooooooooooooooooooooooooOOOOO    +++",
"++   OOo..XXXXXXXXXXXXXXXXXXXXXXXXXXXXXXXXXXXXXXXXXXXXXXXXXXXXXXXXXXXXXXXXXXXXXXXXXXXXXXXXXXXXXXXXXXXXXXXXXXXXXXXXXXXXXXXXXXXXXXXXXXXXXXXXXXXXXXXXXXXXXXXXXXXXXXXXXXXXXXXXXXXXXXXXXXXXXXXXXXXXXXXXXXXXXXXXXXXXXXXXXXXXXXXXXXXXXXXXXXXXXXXXXXXXXXXXXXXXXXXXXXXXXXXXXXXXXXXXXXXXXXXXXXXXXXXXXXXXXXXXXXXXXXXXXXXXXXXXXXXXXXXXXXXXXXXXXXXXXXXXXXXXXXXXXXXXXXXXXXXXXXXXXXXXXXXXXXXXXXXXXXXXXXXXXXXXXXXXXXXXXXXXXXXXXXXXXXXXXXXX..oOO   ++",
"    Oo.XXXXXXXXXXXXXXXXXXXXXXXXXXXXXXXXXXXXXXXXXXXXXXXXXXXXXXXXXXXXXXXXXXXXXXXXXXXXXXXXXXXXXXXXXXXXXXXXXXXXXXXXXXXXXXXXXXXXXXXXXXXXXXXXXXXXXXXXXXXXXXXXXXXXXXXXXXXXXXXXXXXXXXXXXXXXXXXXXXXXXXXXXXXXXXXXXXXXXXXXXXXXXXXXXXXXXXXXXXXXXXXXXXXXXXXXXXXXXXXXXXXXXXXXXXXXXXXXXXXXXXXXXXXXXXXXXXXXXXXXXXXXXXXXXXXXXXXXXXXXXXXXXXXXXXXXXXXXXXXXXXXXXXXXXXXXXXXXXXXXXXXXXXXXXXXXXXXXXXXXXXXXXXXXXXXXXXXXXXXXXXXXXXXXXXXXXXXXXXXXXXXXXX.oO    ",
"    o.XXXXX..............................................................................................................................................................................................................................................................................................................................................................................................................XXXXX.o    ",
"    oXXXX..................................................................................................................................................................................................................................................................................................................................................................................................................XXXXo    ",
"    oXXXX..................................................................................................................................................................................................................................................................................................................................................................................................................XXXXo    ",
"    oXXXX..................................................................................................................................................................................................................................................................................................................................................................................................................XXXXo    ",
"    oXXXX..................................................................................................................................................................................................................................................................................................................................................................................................................XXXXo    ",
"    oXXXX..................................................................................................................................................................................................................................................................................................................................................................................................................XXXXo    ",
"    oXXXX..................................................................................................................................................................................................................................................................................................................................................................................................................XXXXo    ",
"    oXXXX..................................................................................................................................................................................................................................................................................................................................................................................................................XXXXo    ",
"    oXXXX..................................................................................................................................................................................................................................................................................................................................................................................................................XXXXo    ",
"    oXXXX..................................................................................................................................................................................................................................................................................................................................................................................................................XXXXo    ",
"    oXXXX..................................................................................................................................................................................................................................................................................................................................................................................................................XXXXo    ",
"    oXXXX..................................................................................................................................................................................................................................................................................................................................................................................................................XXXXo    ",
"    oXXXX..................................................................................................................................................................................................................................................................................................................................................................................................................XXXXo    ",
"    oXXXX..................................................................................................................................................................................................................................................................................................................................................................................................................XXXXo    ",
"    oXXXX..................................................................................................................................................................................................................................................................................................................................................................................................................XXXXo    ",
"    oXXXX..................................................................................................................................................................................................................................................................................................................................................................................................................XXXXo    ",
"    oXXXX..................................................................................................................................................................................................................................................................................................................................................................................................................XXXXo    ",
"    oXXXX..................................................................................................................................................................................................................................................................................................................................................................................................................XXXXo    ",
"    oXXXX..................................................................................................................................................................................................................................................................................................................................................................................................................XXXXo    ",
"    oXXXX..................................................................................................................................................................................................................................................................................................................................................................................................................XXXXo    ",
"    oXXXX..................................................................................................................................................................................................................................................................................................................................................................................................................XXXXo    ",
"    oXXXX..................................................................................................................................................................................................................................................................................................................................................................................................................XXXXo    ",
"    oXXXX..................................................................................................................................................................................................................................................................................................................................................................................................................XXXXo    ",
"    oXXXX..................................................................................................................................................................................................................................................................................................................................................................................................................XXXXo    ",
"    oXXXX..................................................................................................................................................................................................................................................................................................................................................................................................................XXXXo    ",
"    oXXXX..................................................................................................................................................................................................................................................................................................................................................................................................................XXXXo    ",
"    oXXXX..................................................................................................................................................................................................................................................................................................................................................................................................................XXXXo    ",
"    oXXXX..................................................................................................................................................................................................................................................................................................................................................................................................................XXXXo    ",
"    oXXXX..................................................................................................................................................................................................................................................................................................................................................................................................................XXXXo    ",
"    oXXXX..................................................................................................................................................................................................................................................................................................................................................................................................................XXXXo    ",
"    oXXXX..................................................................................................................................................................................................................................................................................................................................................................................................................XXXXo    ",
"    oXXXX..................................................................................................................................................................................................................................................................................................................................................................................................................XXXXo    ",
"    oXXXX..................................................................................................................................................................................................................................................................................................................................................................................................................XXXXo    ",
"    oXXXX..................................................................................................................................................................................................................................................................................................................................................................................................................XXXXo    ",
"    oXXXX..................................................................................................................................................................................................................................................................................................................................................................................................................XXXXo    ",
"    oXXXX..................................................................................................................................................................................................................................................................................................................................................................................................................XXXXo    ",
"    oXXXX..................................................................................................................................................................................................................................................................................................................................................................................................................XXXXo    ",
"    oXXXX..................................................................................................................................................................................................................................................................................................................................................................................................................XXXXo    ",
"    oXXXX..................................................................................................................................................................................................................................................................................................................................................................................................................XXXXo    ",
"    oXXXX..................................................................................................................................................................................................................................................................................................................................................................................................................XXXXo    ",
"    oXXXX..................................................................................................................................................................................................................................................................................................................................................................................................................XXXXo    ",
"    oXXXX..................................................................................................................................................................................................................................................................................................................................................................................................................XXXXo    ",
"    oXXXX..................................................................................................................................................................................................................................................................................................................................................................................................................XXXXo    ",
"    oXXXX..................................................................................................................................................................................................................................................................................................................................................................................................................XXXXo    ",
"    oXXXX..................................................................................................................................................................................................................................................................................................................................................................................................................XXXXo    ",
"    oXXXX..................................................................................................................................................................................................................................................................................................................................................................................................................XXXXo    ",
"    oXXXX..................................................................................................................................................................................................................................................................................................................................................................................................................XXXXo    ",
"    oXXXX..................................................................................................................................................................................................................................................................................................................................................................................................................XXXXo    ",
"    oXXXX..................................................................................................................................................................................................................................................................................................................................................................................................................XXXXo    ",
"    oXXXX..................................................................................................................................................................................................................................................................................................................................................................................................................XXXXo    ",
"    oXXXX..................................................................................................................................................................................................................................................................................................................................................................................................................XXXXo    ",
"    oXXXX..................................................................................................................................................................................................................................................................................................................................................................................................................XXXXo    ",
"    oXXXX..................................................................................................................................................................................................................................................................................................................................................................................................................XXXXo    ",
"    oXXXX..................................................................................................................................................................................................................................................................................................................................................................................................................XXXXo    ",
"    oXXXX..................................................................................................................................................................................................................................................................................................................................................................................................................XXXXo    ",
"    oXXXX..................................................................................................................................................................................................................................................................................................................................................................................................................XXXXo    ",
"    oXXXX..................................................................................................................................................................................................................................................................................................................................................................................................................XXXXo    ",
"    oXXXX..................................................................................................................................................................................................................................................................................................................................................................................................................XXXXo    ",
"    oXXXX..................................................................................................................................................................................................................................................................................................................................................................................................................XXXXo    ",
"    oXXXX..................................................................................................................................................................................................................................................................................................................................................................................................................XXXXo    ",
"    oXXXX..................................................................................................................................................................................................................................................................................................................................................................................................................XXXXo    ",
"    oXXXX..................................................................................................................................................................................................................................................................................................................................................................................................................XXXXo    ",
"    oXXXX..................................................................................................................................................................................................................................................................................................................................................................................................................XXXXo    ",
"    oXXXX..................................................................................................................................................................................................................................................................................................................................................................................................................XXXXo    ",
"    oXXXX..................................................................................................................................................................................................................................................................................................................................................................................................................XXXXo    ",
"    oXXXX..................................................................................................................................................................................................................................................................................................................................................................................................................XXXXo    ",
"    oXXXX..................................................................................................................................................................................................................................................................................................................................................................................................................XXXXo    ",
"    oXXXX..................................................................................................................................................................................................................................................................................................................................................................................................................XXXXo    ",
"    oXXXX..................................................................................................................................................................................................................................................................................................................................................................................................................XXXXo    ",
"    o.XXXX................................................................................................................................................................................................................................................................................................................................................................................................................XXXX.o    ",
"++  Oo.XXXXXXXXXXXXXXXXXXXXXXXXXXXXXXXXXXXXXXXXXXXXXXXXXXXXXXXXXXXXXXXXXXXXXXXXXXXXXXXXXXXXXXXXXXXXXXXXXXXXXXXXXXXXXXXXXXXXXXXXXXXXXXXXXXXXXXXXXXXXXXXXXXXXXXXXXXXXXXXXXXXXXXXXXXXXXXXXXXXXXXXXXXXXXXXXXXXXXXXXXXXXXXXXXXXXXXXXXXXXXXXXXXXXXXXXXXXXXXXXXXXXXXXXXXXXXXXXXXXXXXXXXXXXXXXXXXXXXXXXXXXXXXXXXXXXXXXXXXXXXXXXXXXXXXXXXXXXXXXXXXXXXXXXXXXXXXXXXXXXXXXXXXXXXXXXXXXXXXXXXXXXXXXXXXXXXXXXXXXXXXXXXXXXXXXXXXXXXXXXXXXXXX.oO  ++",
"+++  OO.XXXXXXXXXXXXXXXXXXXXXXXXXXXXXXXXXXXXXXXXXXXXXXXXXXXXXXXXXXXXXXXXXXXXXXXXXXXXXXXXXXXXXXXXXXXXXXXXXXXXXXXXXXXXXXXXXXXXXXXXXXXXXXXXXXXXXXXXXXXXXXXXXXXXXXXXXXXXXXXXXXXXXXXXXXXXXXXXXXXXXXXXXXXXXXXXXXXXXXXXXXXXXXXXXXXXXXXXXXXXXXXXXXXXXXXXXXXXXXXXXXXXXXXXXXXXXXXXXXXXXXXXXXXXXXXXXXXXXXXXXXXXXXXXXXXXXXXXXXXXXXXXXXXXXXXXXXXXXXXXXXXXXXXXXXXXXXXXXXXXXXXXXXXXXXXXXXXXXXXXXXXXXXXXXXXXXXXXXXXXXXXXXXXXXXXXXXXXXXXXXXXX.OO  +++",
"+++    OOooooooooooooooooooooooooooooooooooooooooooooooooooooooooooooooooooooooooooooooooooooooooooooooooooooooooooooooooooooooooooooooooooooooooooooooooooooooooooooooooooooooooooooooooooooooooooooooooooooooooooooooooooooooooooooooooooooooooooooooooooooooooooooooooooooooooooooooooooooooooooooooooooooooooooooooooooooooooooooooooooooooooooooooooooooooooooooooooooooooooooooooooooooooooooooooooooooooooooooooooooOO    +++",
"+++++                                                                                                                                                                                                                                                                                                                                                                                                                          +++++",
"+++++++                                                                                                                                                                                                                                                                                                                                                                                                                      +++++++"
};
