/* XPM */
static xpm_row_t const button_red_wide[] = {
/* columns rows colors chars-per-pixel */
"560 90 6 1 ",
"  c None",
". c #EE2747",
"X c #DA2240",
"o c #FB5973",
"O c #CC0A29",
"+ c #D41836",
/* pixels */
"+++++++++++OOOOOOO                                                                                                                                                                                                                                                                                                                                                                                                                                                                                                                                            OOOOOOO+++++++++++",
"+++++++OOOOOOOOOO                                                                                                                                                                                                                                                                                                                                                                                                                                                                                                                                              OOOOOOOOOO+++++++",
"++++OO     XXXXXXXXXXXXXXXXXXXXXXXXXXXXXXXXXXXXXXXXXXXXXXXXXXXXXXXXXXXXXXXXXXXXXXXXXXXXXXXXXXXXXXXXXXXXXXXXXXXXXXXXXXXXXXXXXXXXXXXXXXXXXXXXXXXXXXXXXXXXXXXXXXXXXXXXXXXXXXXXXXXXXXXXXXXXXXXXXXXXXXXXXXXXXXXXXXXXXXXXXXXXXXXXXXXXXXXXXXXXXXXXXXXXXXXXXXXXXXXXXXXXXXXXXXXXXXXXXXXXXXXXXXXXXXXXXXXXXXXXXXXXXXXXXXXXXXXXXXXXXXXXXXXXXXXXXXXXXXXXXXXXXXXXXXXXXXXXXXXXXXXXXXXXXXXXXXXXXXXXXXXXXXXXXXXXXXXXXXXXXXXXXXXXXXXXXXXXXXXXXXXXXXXXXXXXXXXXXXXXXXXXXXXXXXXXXXXXXXXXXXXXXXXXXXXXXXXXXXXXXXXXXXXXXXXXXXXXXXXXXXXXXXXXXXXXXXXXXXXXXXXXXXXXXXXXXXXXXXXXXXXXXXXXXXXXXXXXXX     OO++++",
"+++O    XX..oooooooooooooooooooooooooooooooooooooooooooooooooooooooooooooooooooooooooooooooooooooooooooooooooooooooooooooooooooooooooooooooooooooooooooooooooooooooooooooooooooooooooooooooooooooooooooooooooooooooooooooooooooooooooooooooooooooooooooooooooooooooooooooooooooooooooooooooooooooooooooooooooooooooooooooooooooooooooooooooooooooooooooooooooooooooooooooooooooooooooooooooooooooooooooooooooooooooooooooooooooooooooooooooooooooooooooooooooooooooooooooooooooooooooooooooooooooooooooooooooooooooooooooooooooooooooooooooooooooooooooooooooooooooo..XX    O+++",
"OOOO  XX.oooooooooooooooooooooooooooooooooooooooooooooooooooooooooooooooooooooooooooooooooooooooooooooooooooooooooooooooooooooooooooooooooooooooooooooooooooooooooooooooooooooooooooooooooooooooooooooooooooooooooooooooooooooooooooooooooooooooooooooooooooooooooooooooooooooooooooooooooooooooooooooooooooooooooooooooooooooooooooooooooooooooooooooooooooooooooooooooooooooooooooooooooooooooooooooooooooooooooooooooooooooooooooooooooooooooooooooooooooooooooooooooooooooooooooooooooooooooooooooooooooooooooooooooooooooooooooooooooooooooooooooooooooooooooooooo.XX  OOOO",
"OO   X.oooooooooooooooooooooooooooooooooooooooooooooooooooooooooooooooooooooooooooooooooooooooooooooooooooooooooooooooooooooooooooooooooooooooooooooooooooooooooooooooooooooooooooooooooooooooooooooooooooooooooooooooooooooooooooooooooooooooooooooooooooooooooooooooooooooooooooooooooooooooooooooooooooooooooooooooooooooooooooooooooooooooooooooooooooooooooooooooooooooooooooooooooooooooooooooooooooooooooooooooooooooooooooooooooooooooooooooooooooooooooooooooooooooooooooooooooooooooooooooooooooooooooooooooooooooooooooooooooooooooooooooooooooooooooooooooooo.X   OO",
"     Xoooooooo....................................................................................................................................................................................................................................................................................................................................................................................................................................................................................................................................................ooooooooX     ",
"     Xoooooo........................................................................................................................................................................................................................................................................................................................................................................................................................................................................................................................................................ooooooX     ",
"     Xoooooo........................................................................................................................................................................................................................................................................................................................................................................................................................................................................................................................................................ooooooX     ",
"     Xoooooo........................................................................................................................................................................................................................................................................................................................................................................................................................................................................................................................................................ooooooX     ",
"     Xoooooo........................................................................................................................................................................................................................................................................................................................................................................................................................................................................................................................................................ooooooX     ",
"     Xoooooo........................................................................................................................................................................................................................................................................................................................................................................................................................................................................................................................................................ooooooX     ",
"     Xoooooo........................................................................................................................................................................................................................................................................................................................................................................................................................................................................................................................................................ooooooX     ",
"     Xoooooo........................................................................................................................................................................................................................................................................................................................................................................................................................................................................................................................................................ooooooX     ",
"     Xoooooo........................................................................................................................................................................................................................................................................................................................................................................................................................................................................................................................................................ooooooX     ",
"     Xoooooo........................................................................................................................................................................................................................................................................................................................................................................................................................................................................................................................................................ooooooX     ",
"     Xoooooo........................................................................................................................................................................................................................................................................................................................................................................................................................................................................................................................................................ooooooX     ",
"     Xoooooo........................................................................................................................................................................................................................................................................................................................................................................................................................................................................................................................................................ooooooX     ",
"     Xoooooo........................................................................................................................................................................................................................................................................................................................................................................................................................................................................................................................................................ooooooX     ",
"     Xoooooo........................................................................................................................................................................................................................................................................................................................................................................................................................................................................................................................................................ooooooX     ",
"     Xoooooo........................................................................................................................................................................................................................................................................................................................................................................................................................................................................................................................................................ooooooX     ",
"     Xoooooo........................................................................................................................................................................................................................................................................................................................................................................................................................................................................................................................................................ooooooX     ",
"     Xoooooo........................................................................................................................................................................................................................................................................................................................................................................................................................................................................................................................................................ooooooX     ",
"     Xoooooo........................................................................................................................................................................................................................................................................................................................................................................................................................................................................................................................................................ooooooX     ",
"     Xoooooo........................................................................................................................................................................................................................................................................................................................................................................................................................................................................................................................................................ooooooX     ",
"     Xoooooo........................................................................................................................................................................................................................................................................................................................................................................................................................................................................................................................................................ooooooX     ",
"     Xoooooo........................................................................................................................................................................................................................................................................................................................................................................................................................................................................................................................................................ooooooX     ",
"     Xoooooo........................................................................................................................................................................................................................................................................................................................................................................................................................................................................................................................................................ooooooX     ",
"     Xoooooo........................................................................................................................................................................................................................................................................................................................................................................................................................................................................................................................................................ooooooX     ",
"     Xoooooo........................................................................................................................................................................................................................................................................................................................................................................................................................................................................................................................................................ooooooX     ",
"     Xoooooo........................................................................................................................................................................................................................................................................................................................................................................................................................................................................................................................................................ooooooX     ",
"     Xoooooo........................................................................................................................................................................................................................................................................................................................................................................................................................................................................................................................................................ooooooX     ",
"     Xoooooo........................................................................................................................................................................................................................................................................................................................................................................................................................................................................................................................................................ooooooX     ",
"     Xoooooo........................................................................................................................................................................................................................................................................................................................................................................................................................................................................................................................................................ooooooX     ",
"     Xoooooo........................................................................................................................................................................................................................................................................................................................................................................................................................................................................................................................................................ooooooX     ",
"     Xoooooo........................................................................................................................................................................................................................................................................................................................................................................................................................................................................................................................................................ooooooX     ",
"     Xoooooo........................................................................................................................................................................................................................................................................................................................................................................................................................................................................................................................................................ooooooX     ",
"     Xoooooo........................................................................................................................................................................................................................................................................................................................................................................................................................................................................................................................................................ooooooX     ",
"     Xoooooo........................................................................................................................................................................................................................................................................................................................................................................................................................................................................................................................................................ooooooX     ",
"     Xoooooo........................................................................................................................................................................................................................................................................................................................................................................................................................................................................................................................................................ooooooX     ",
"     Xoooooo........................................................................................................................................................................................................................................................................................................................................................................................................................................................................................................................................................ooooooX     ",
"     Xoooooo........................................................................................................................................................................................................................................................................................................................................................................................................................................................................................................................................................ooooooX     ",
"     Xoooooo........................................................................................................................................................................................................................................................................................................................................................................................................................................................................................................................................................ooooooX     ",
"     Xoooooo........................................................................................................................................................................................................................................................................................................................................................................................................................................................................................................................................................ooooooX     ",
"     Xoooooo........................................................................................................................................................................................................................................................................................................................................................................................................................................................................................................................................................ooooooX     ",
"     Xoooooo........................................................................................................................................................................................................................................................................................................................................................................................................................................................................................................................................................ooooooX     ",
"     Xoooooo........................................................................................................................................................................................................................................................................................................................................................................................................................................................................................................................................................ooooooX     ",
"     Xoooooo........................................................................................................................................................................................................................................................................................................................................................................................................................................................................................................................................................ooooooX     ",
"     Xoooooo........................................................................................................................................................................................................................................................................................................................................................................................................................................................................................................................................................ooooooX     ",
"     Xoooooo........................................................................................................................................................................................................................................................................................................................................................................................................................................................................................................................................................ooooooX     ",
"     Xoooooo........................................................................................................................................................................................................................................................................................................................................................................................................................................................................................................................................................ooooooX     ",
"     Xoooooo........................................................................................................................................................................................................................................................................................................................................................................................................................................................................................................................................................ooooooX     ",
"     Xoooooo........................................................................................................................................................................................................................................................................................................................................................................................................................................................................................................................................................ooooooX     ",
"     Xoooooo........................................................................................................................................................................................................................................................................................................................................................................................................................................................................................................................................................ooooooX     ",
"     Xoooooo........................................................................................................................................................................................................................................................................................................................................................................................................................................................................................................................................................ooooooX     ",
"     Xoooooo........................................................................................................................................................................................................................................................................................................................................................................................................................................................................................................................................................ooooooX     ",
"     Xoooooo........................................................................................................................................................................................................................................................................................................................................................................................................................................................................................................................................................ooooooX     ",
"     Xoooooo........................................................................................................................................................................................................................................................................................................................................................................................................................................................................................................................................................ooooooX     ",
"     Xoooooo........................................................................................................................................................................................................................................................................................................................................................................................................................................................................................................................................................ooooooX     ",
"     Xoooooo........................................................................................................................................................................................................................................................................................................................................................................................................................................................................................................................................................ooooooX     ",
"     Xoooooo........................................................................................................................................................................................................................................................................................................................................................................................................................................................................................................................................................ooooooX     ",
"     Xoooooo........................................................................................................................................................................................................................................................................................................................................................................................................................................................................................................................................................ooooooX     ",
"     Xoooooo........................................................................................................................................................................................................................................................................................................................................................................................................................................................................................................................................................ooooooX     ",
"     Xoooooo........................................................................................................................................................................................................................................................................................................................................................................................................................................................................................................................................................ooooooX     ",
"     Xoooooo........................................................................................................................................................................................................................................................................................................................................................................................................................................................................................................................................................ooooooX     ",
"     Xoooooo........................................................................................................................................................................................................................................................................................................................................................................................................................................................................................................................................................ooooooX     ",
"     Xoooooo........................................................................................................................................................................................................................................................................................................................................................................................................................................................................................................................................................ooooooX     ",
"     Xoooooo........................................................................................................................................................................................................................................................................................................................................................................................................................................................................................................................................................ooooooX     ",
"     Xoooooo........................................................................................................................................................................................................................................................................................................................................................................................................................................................................................................................................................ooooooX     ",
"     Xoooooo........................................................................................................................................................................................................................................................................................................................................................................................................................................................................................................................................................ooooooX     ",
"     Xoooooo........................................................................................................................................................................................................................................................................................................................................................................................................................................................................................................................................................ooooooX     ",
"     Xoooooo........................................................................................................................................................................................................................................................................................................................................................................................................................................................................................................................................................ooooooX     ",
"     Xoooooo........................................................................................................................................................................................................................................................................................................................................................................................................................................................................................................................................................ooooooX     ",
"     Xoooooo........................................................................................................................................................................................................................................................................................................................................................................................................................................................................................................................................................ooooooX     ",
"     Xoooooo........................................................................................................................................................................................................................................................................................................................................................................................................................................................................................................................................................ooooooX     ",
"     Xoooooo........................................................................................................................................................................................................................................................................................................................................................................................................................................................................................................................................................ooooooX     ",
"     Xoooooo........................................................................................................................................................................................................................................................................................................................................................................................................................................................................................................................................................ooooooX     ",
"     Xoooooo........................................................................................................................................................................................................................................................................................................................................................................................................................................................................................................................................................ooooooX     ",
"     Xoooooo........................................................................................................................................................................................................................................................................................................................................................................................................................................................................................................................................................ooooooX     ",
"     Xoooooo........................................................................................................................................................................................................................................................................................................................................................................................................................................................................................................................................................ooooooX     ",
"     Xoooooo........................................................................................................................................................................................................................................................................................................................................................................................................................................................................................................................................................ooooooX     ",
"     Xoooooo........................................................................................................................................................................................................................................................................................................................................................................................................................................................................................................................................................ooooooX     ",
"     Xoooooo........................................................................................................................................................................................................................................................................................................................................................................................................................................................................................................................................................ooooooX     ",
"OOO  Xooooooo......................................................................................................................................................................................................................................................................................................................................................................................................................................................................................................................................................oooooooX  OOO",
"OOO  X.oooooooooooooooooooooooooooooooooooooooooooooooooooooooooooooooooooooooooooooooooooooooooooooooooooooooooooooooooooooooooooooooooooooooooooooooooooooooooooooooooooooooooooooooooooooooooooooooooooooooooooooooooooooooooooooooooooooooooooooooooooooooooooooooooooooooooooooooooooooooooooooooooooooooooooooooooooooooooooooooooooooooooooooooooooooooooooooooooooooooooooooooooooooooooooooooooooooooooooooooooooooooooooooooooooooooooooooooooooooooooooooooooooooooooooooooooooooooooooooooooooooooooooooooooooooooooooooooooooooooooooooooooooooooooooooooooo.X  OOO",
"++OO  XX.oooooooooooooooooooooooooooooooooooooooooooooooooooooooooooooooooooooooooooooooooooooooooooooooooooooooooooooooooooooooooooooooooooooooooooooooooooooooooooooooooooooooooooooooooooooooooooooooooooooooooooooooooooooooooooooooooooooooooooooooooooooooooooooooooooooooooooooooooooooooooooooooooooooooooooooooooooooooooooooooooooooooooooooooooooooooooooooooooooooooooooooooooooooooooooooooooooooooooooooooooooooooooooooooooooooooooooooooooooooooooooooooooooooooooooooooooooooooooooooooooooooooooooooooooooooooooooooooooooooooooooooooooooooooooooooo.XX  OO++",
"+++O    X..oooooooooooooooooooooooooooooooooooooooooooooooooooooooooooooooooooooooooooooooooooooooooooooooooooooooooooooooooooooooooooooooooooooooooooooooooooooooooooooooooooooooooooooooooooooooooooooooooooooooooooooooooooooooooooooooooooooooooooooooooooooooooooooooooooooooooooooooooooooooooooooooooooooooooooooooooooooooooooooooooooooooooooooooooooooooooooooooooooooooooooooooooooooooooooooooooooooooooooooooooooooooooooooooooooooooooooooooooooooooooooooooooooooooooooooooooooooooooooooooooooooooooooooooooooooooooooooooooooooooooooooooooooooooooo..X    O+++",
"++++OO    XXXXXXXXXXXXXXXXXXXXXXXXXXXXXXXXXXXXXXXXXXXXXXXXXXXXXXXXXXXXXXXXXXXXXXXXXXXXXXXXXXXXXXXXXXXXXXXXXXXXXXXXXXXXXXXXXXXXXXXXXXXXXXXXXXXXXXXXXXXXXXXXXXXXXXXXXXXXXXXXXXXXXXXXXXXXXXXXXXXXXXXXXXXXXXXXXXXXXXXXXXXXXXXXXXXXXXXXXXXXXXXXXXXXXXXXXXXXXXXXXXXXXXXXXXXXXXXXXXXXXXXXXXXXXXXXXXXXXXXXXXXXXXXXXXXXXXXXXXXXXXXXXXXXXXXXXXXXXXXXXXXXXXXXXXXXXXXXXXXXXXXXXXXXXXXXXXXXXXXXXXXXXXXXXXXXXXXXXXXXXXXXXXXXXXXXXXXXXXXXXXXXXXXXXXXXXXXXXXXXXXXXXXXXXXXXXXXXXXXXXXXXXXXXXXXXXXXXXXXXXXXXXXXXXXXXXXXXXXXXXXXXXXXXXXXXXXXXXXXXXXXXXXXXXXXXXXXXXXXXXXXXXXXXXXXXXXXXXXXX    OO++++",
"+++++++OOO                                                                                                                                                                                                                                                                                                                                                                                                                                                                                                                                                            OOO+++++++",
"+++++++++OO                                                                                                                                                                                                                                                                                                                                                                                                                                                                                                                                                          OO+++++++++"
};
