/* XPM */
static xpm_row_t const button_gray[] = {
/* columns rows colors chars-per-pixel */
"192 64 6 1 ",
"  c None",
". c #DADCE7",
"X c #FFFFFF",
"o c #D1D3DD",
"O c #BEBFCD",
"+ c #989AAF",
/* pixels */
"++++++                                                                                                                                                                                    ++++++",
"++                                                                                                                                                                                            ++",
"+  O.XXXXXXXXXXXXXXXXXXXXXXXXXXXXXXXXXXXXXXXXXXXXXXXXXXXXXXXXXXXXXXXXXXXXXXXXXXXXXXXXXXXXXXXXXXXXXXXXXXXXXXXXXXXXXXXXXXXXXXXXXXXXXXXXXXXXXXXXXXXXXXXXXXXXXXXXXXXXXXXXXXXXXXXXXXXXXXXXXXXXXX.O  +",
"  oXXXXXXXXXXXXXXXXXXXXXXXXXXXXXXXXXXXXXXXXXXXXXXXXXXXXXXXXXXXXXXXXXXXXXXXXXXXXXXXXXXXXXXXXXXXXXXXXXXXXXXXXXXXXXXXXXXXXXXXXXXXXXXXXXXXXXXXXXXXXXXXXXXXXXXXXXXXXXXXXXXXXXXXXXXXXXXXXXXXXXXXXXXo  ",
"  XXX......................................................................................................................................................................................XXX  ",
"  XX........................................................................................................................................................................................XX  ",
"  XX........................................................................................................................................................................................XX  ",
"  XX........................................................................................................................................................................................XX  ",
"  XX........................................................................................................................................................................................XX  ",
"  XX........................................................................................................................................................................................XX  ",
"  XX........................................................................................................................................................................................XX  ",
"  XX........................................................................................................................................................................................XX  ",
"  XX........................................................................................................................................................................................XX  ",
"  XX........................................................................................................................................................................................XX  ",
"  XX........................................................................................................................................................................................XX  ",
"  XX........................................................................................................................................................................................XX  ",
"  XX........................................................................................................................................................................................XX  ",
"  XX........................................................................................................................................................................................XX  ",
"  XX........................................................................................................................................................................................XX  ",
"  XX........................................................................................................................................................................................XX  ",
"  XX........................................................................................................................................................................................XX  ",
"  XX........................................................................................................................................................................................XX  ",
"  XX........................................................................................................................................................................................XX  ",
"  XX........................................................................................................................................................................................XX  ",
"  XX........................................................................................................................................................................................XX  ",
"  XX........................................................................................................................................................................................XX  ",
"  XX........................................................................................................................................................................................XX  ",
"  XX........................................................................................................................................................................................XX  ",
"  XX........................................................................................................................................................................................XX  ",
"  XX........................................................................................................................................................................................XX  ",
"  XX........................................................................................................................................................................................XX  ",
"  XX........................................................................................................................................................................................XX  ",
"  XX........................................................................................................................................................................................XX  ",
"  XX........................................................................................................................................................................................XX  ",
"  XX........................................................................................................................................................................................XX  ",
"  XX........................................................................................................................................................................................XX  ",
"  XX........................................................................................................................................................................................XX  ",
"  XX........................................................................................................................................................................................XX  ",
"  XX........................................................................................................................................................................................XX  ",
"  XX........................................................................................................................................................................................XX  ",
"  XX........................................................................................................................................................................................XX  ",
"  XX........................................................................................................................................................................................XX  ",
"  XX........................................................................................................................................................................................XX  ",
"  XX........................................................................................................................................................................................XX  ",
"  XX........................................................................................................................................................................................XX  ",
"  XX........................................................................................................................................................................................XX  ",
"  XX........................................................................................................................................................................................XX  ",
"  XX........................................................................................................................................................................................XX  ",
"  XX........................................................................................................................................................................................XX  ",
"  XX........................................................................................................................................................................................XX  ",
"  XX........................................................................................................................................................................................XX  ",
"  XX........................................................................................................................................................................................XX  ",
"  XX........................................................................................................................................................................................XX  ",
"  XX........................................................................................................................................................................................XX  ",
"  XX........................................................................................................................................................................................XX  ",
"  XX........................................................................................................................................................................................XX  ",
"  XX........................................................................................................................................................................................XX  ",
"  XX........................................................................................................................................................................................XX  ",
"  XX........................................................................................................................................................................................XX  ",
"  XX........................................................................................................................................................................................XX  ",
"+ oXXXXXXXXXXXXXXXXXXXXXXXXXXXXXXXXXXXXXXXXXXXXXXXXXXXXXXXXXXXXXXXXXXXXXXXXXXXXXXXXXXXXXXXXXXXXXXXXXXXXXXXXXXXXXXXXXXXXXXXXXXXXXXXXXXXXXXXXXXXXXXXXXXXXXXXXXXXXXXXXXXXXXXXXXXXXXXXXXXXXXXXXXXo +",
"+  oXXXXXXXXXXXXXXXXXXXXXXXXXXXXXXXXXXXXXXXXXXXXXXXXXXXXXXXXXXXXXXXXXXXXXXXXXXXXXXXXXXXXXXXXXXXXXXXXXXXXXXXXXXXXXXXXXXXXXXXXXXXXXXXXXXXXXXXXXXXXXXXXXXXXXXXXXXXXXXXXXXXXXXXXXXXXXXXXXXXXXXXXo  +",
"++                                                                                                                                                                                            ++",
"+++                                                                                                                                                                                          +++"
};
