/* XPM */
static xpm_row_t const button_red_large[] = {
/* columns rows colors chars-per-pixel */
"420 80 6 1 ",
"  c None",
". c #EE2848",
"X c #DD2644",
"o c #FE5F78",
"O c #CC0A29",
"+ c #FA5D77",
/* pixels */
"OOOOOOOOOOOOOO                                                                                                                                                                                                                                                                                                                                                                                                        OOOOOOOOOOOOOO",
"OOOOOOOOOOOO                                                                                                                                                                                                                                                                                                                                                                                                            OOOOOOOOOOOO",
"OOOO    XXXX............................................................................................................................................................................................................................................................................................................................................................................................................XXXX    OOOO",
"OOO  XX.oooooooooooooooooooooooooooooooooooooooooooooooooooooooooooooooooooooooooooooooooooooooooooooooooooooooooooooooooooooooooooooooooooooooooooooooooooooooooooooooooooooooooooooooooooooooooooooooooooooooooooooooooooooooooooooooooooooooooooooooooooooooooooooooooooooooooooooooooooooooooooooooooooooooooooooooooooooooooooooooooooooooooooooooooooooooooooooooooooooooooooooooooooooooooooooooooooooooooooooooooooo.XX  OOO",
"OO  X.oooooooooooooooooooooooooooooooooooooooooooooooooooooooooooooooooooooooooooooooooooooooooooooooooooooooooooooooooooooooooooooooooooooooooooooooooooooooooooooooooooooooooooooooooooooooooooooooooooooooooooooooooooooooooooooooooooooooooooooooooooooooooooooooooooooooooooooooooooooooooooooooooooooooooooooooooooooooooooooooooooooooooooooooooooooooooooooooooooooooooooooooooooooooooooooooooooooooooooooooooooooooo.X  OO",
"    .oooooo..............................................................................................................................................................................................................................................................................................................................................................................................................oooooo.    ",
"    .oooo..................................................................................................................................................................................................................................................................................................................................................................................................................oooo.    ",
"    .oooo..................................................................................................................................................................................................................................................................................................................................................................................................................oooo.    ",
"    .oooo..................................................................................................................................................................................................................................................................................................................................................................................................................oooo.    ",
"    .oooo..................................................................................................................................................................................................................................................................................................................................................................................................................oooo.    ",
"    .oooo..................................................................................................................................................................................................................................................................................................................................................................................................................oooo.    ",
"    .oooo..................................................................................................................................................................................................................................................................................................................................................................................................................oooo.    ",
"    .oooo..................................................................................................................................................................................................................................................................................................................................................................................................................oooo.    ",
"    .oooo..................................................................................................................................................................................................................................................................................................................................................................................................................oooo.    ",
"    .oooo..................................................................................................................................................................................................................................................................................................................................................................................................................oooo.    ",
"    .oooo..................................................................................................................................................................................................................................................................................................................................................................................................................oooo.    ",
"    .oooo..................................................................................................................................................................................................................................................................................................................................................................................................................oooo.    ",
"    .oooo..................................................................................................................................................................................................................................................................................................................................................................................................................oooo.    ",
"    .oooo..................................................................................................................................................................................................................................................................................................................................................................................................................oooo.    ",
"    .oooo..................................................................................................................................................................................................................................................................................................................................................................................................................oooo.    ",
"    .oooo..................................................................................................................................................................................................................................................................................................................................................................................................................oooo.    ",
"    .oooo..................................................................................................................................................................................................................................................................................................................................................................................................................oooo.    ",
"    .oooo..................................................................................................................................................................................................................................................................................................................................................................................................................oooo.    ",
"    .oooo..................................................................................................................................................................................................................................................................................................................................................................................................................oooo.    ",
"    .oooo..................................................................................................................................................................................................................................................................................................................................................................................................................oooo.    ",
"    .oooo..................................................................................................................................................................................................................................................................................................................................................................................................................oooo.    ",
"    .oooo..................................................................................................................................................................................................................................................................................................................................................................................................................oooo.    ",
"    .oooo..................................................................................................................................................................................................................................................................................................................................................................................................................oooo.    ",
"    .oooo..................................................................................................................................................................................................................................................................................................................................................................................................................oooo.    ",
"    .oooo..................................................................................................................................................................................................................................................................................................................................................................................................................oooo.    ",
"    .oooo..................................................................................................................................................................................................................................................................................................................................................................................................................oooo.    ",
"    .oooo..................................................................................................................................................................................................................................................................................................................................................................................................................oooo.    ",
"    .oooo..................................................................................................................................................................................................................................................................................................................................................................................................................oooo.    ",
"    .oooo..................................................................................................................................................................................................................................................................................................................................................................................................................oooo.    ",
"    .oooo..................................................................................................................................................................................................................................................................................................................................................................................................................oooo.    ",
"    .oooo..................................................................................................................................................................................................................................................................................................................................................................................................................oooo.    ",
"    .oooo..................................................................................................................................................................................................................................................................................................................................................................................................................oooo.    ",
"    .oooo..................................................................................................................................................................................................................................................................................................................................................................................................................oooo.    ",
"    .oooo..................................................................................................................................................................................................................................................................................................................................................................................................................oooo.    ",
"    .oooo..................................................................................................................................................................................................................................................................................................................................................................................................................oooo.    ",
"    .oooo..................................................................................................................................................................................................................................................................................................................................................................................................................oooo.    ",
"    .oooo..................................................................................................................................................................................................................................................................................................................................................................................................................oooo.    ",
"    .oooo..................................................................................................................................................................................................................................................................................................................................................................................................................oooo.    ",
"    .oooo..................................................................................................................................................................................................................................................................................................................................................................................................................oooo.    ",
"    .oooo..................................................................................................................................................................................................................................................................................................................................................................................................................oooo.    ",
"    .oooo..................................................................................................................................................................................................................................................................................................................................................................................................................oooo.    ",
"    .oooo..................................................................................................................................................................................................................................................................................................................................................................................................................oooo.    ",
"    .oooo..................................................................................................................................................................................................................................................................................................................................................................................................................oooo.    ",
"    .oooo..................................................................................................................................................................................................................................................................................................................................................................................................................oooo.    ",
"    .oooo..................................................................................................................................................................................................................................................................................................................................................................................................................oooo.    ",
"    .oooo..................................................................................................................................................................................................................................................................................................................................................................................................................oooo.    ",
"    .oooo..................................................................................................................................................................................................................................................................................................................................................................................................................oooo.    ",
"    .oooo..................................................................................................................................................................................................................................................................................................................................................................................................................oooo.    ",
"    .oooo..................................................................................................................................................................................................................................................................................................................................................................................................................oooo.    ",
"    .oooo..................................................................................................................................................................................................................................................................................................................................................................................................................oooo.    ",
"    .oooo..................................................................................................................................................................................................................................................................................................................................................................................................................oooo.    ",
"    .oooo..................................................................................................................................................................................................................................................................................................................................................................................................................oooo.    ",
"    .oooo..................................................................................................................................................................................................................................................................................................................................................................................................................oooo.    ",
"    .oooo..................................................................................................................................................................................................................................................................................................................................................................................................................oooo.    ",
"    .oooo..................................................................................................................................................................................................................................................................................................................................................................................................................oooo.    ",
"    .oooo..................................................................................................................................................................................................................................................................................................................................................................................................................oooo.    ",
"    .oooo..................................................................................................................................................................................................................................................................................................................................................................................................................oooo.    ",
"    .oooo..................................................................................................................................................................................................................................................................................................................................................................................................................oooo.    ",
"    .oooo..................................................................................................................................................................................................................................................................................................................................................................................................................oooo.    ",
"    .oooo..................................................................................................................................................................................................................................................................................................................................................................................................................oooo.    ",
"    .oooo..................................................................................................................................................................................................................................................................................................................................................................................................................oooo.    ",
"    .oooo..................................................................................................................................................................................................................................................................................................................................................................................................................oooo.    ",
"    .oooo..................................................................................................................................................................................................................................................................................................................................................................................................................oooo.    ",
"    .oooo..................................................................................................................................................................................................................................................................................................................................................................................................................oooo.    ",
"    .oooo..................................................................................................................................................................................................................................................................................................................................................................................................................oooo.    ",
"    .oooo..................................................................................................................................................................................................................................................................................................................................................................................................................oooo.    ",
"    .oooo..................................................................................................................................................................................................................................................................................................................................................................................................................oooo.    ",
"    .oooo..................................................................................................................................................................................................................................................................................................................................................................................................................oooo.    ",
"    .oooo..................................................................................................................................................................................................................................................................................................................................................................................................................oooo.    ",
"OO  .ooooo................................................................................................................................................................................................................................................................................................................................................................................................................ooooo.  OO",
"OOO X.oooooooooooooooooooooooooooooooooooooooooooooooooooooooooooooooooooooooooooooooooooooooooooooooooooooooooooooooooooooooooooooooooooooooooooooooooooooooooooooooooooooooooooooooooooooooooooooooooooooooooooooooooooooooooooooooooooooooooooooooooooooooooooooooooooooooooooooooooooooooooooooooooooooooooooooooooooooooooooooooooooooooooooooooooooooooooooooooooooooooooooooooooooooooooooooooooooooooooooooooooooooooo.X OOO",
"OOO  XX.oooooooooooooooooooooooooooooooooooooooooooooooooooooooooooooooooooooooooooooooooooooooooooooooooooooooooooooooooooooooooooooooooooooooooooooooooooooooooooooooooooooooooooooooooooooooooooooooooooooooooooooooooooooooooooooooooooooooooooooooooooooooooooooooooooooooooooooooooooooooooooooooooooooooooooooooooooooooooooooooooooooooooooooooooooooooooooooooooooooooooooooooooooooooooooooooooooooooooooooooooooo.XX  OOO",
"OOOO   XX..................................................................................................................................................................................................................................................................................................................................................................................................................XX   OOOO",
"OOOOOOO                                                                                                                                                                                                                                                                                                                                                                                                                      OOOOOOO",
"OOOOOOOO                                                                                                                                                                                                                                                                                                                                                                                                                    OOOOOOOO"
};
