/* XPM */
static xpm_row_t const difficulty[] = {
/* columns rows colors chars-per-pixel */
"467 73 2 1 ",
"  c None",
". c #FFFFFF",
/* pixels */
"                                                                                                                                                                                                                                                                                                                                                                                                                                                                                   ",
"                                                                                                                                                                                                                                                                                                                                                                                                                                                                                   ",
"                                                                                                                                                                                                                                                                                                                                                                                                                                                                                   ",
"                                                                                                                                                                                                                                                                                                                                                                                                                                                                                   ",
"                                                                                                                                                                                                                                                                                                                                                                                                                                                                                   ",
"                                                                                                                                                                                                                                                                                                                                                                                                                                                                                   ",
"                                                                                                                                                                                                                                                                                                                                                                                                                                                                                   ",
"                                                                                                                                                                                                                                                                                                                                                                                                                                                                                   ",
"                                                                                                                                                                                                                                                                                                                                                                                                                                                                                   ",
"                                                                                                                                                                                                                                                                                                                                                                                                                                                                                   ",
"                                                                                                                                                                                                                                                                                                                                                                                                                                                                                   ",
"                                                                                                                                                                                                                                                                                                                                                                                                                                                                                   ",
"                                                                                                                                                                                                                                                                                                                                                                                                                                                                                   ",
"                                                                                                                                                                                                                                                                                                                                                                                                                                                                                   ",
"                                                                                                                                                                                                                                                                                                                                                                                                                                                                                   ",
"                                                                                                                                                                                                                                                                                                                                                                                                                                                                                   ",
"...................................                  ........                  ...................................                  ...................................             ........                  ..............................                  ........                        ........             ........                                             ........................................             ........                        ........              ",
".....................................                ........                .....................................                .....................................             ........                ..................................                ........                        ........             ........                                             ........................................             ........                        ........              ",
"......................................               ........               ......................................               ......................................             ........               ....................................               ........                        ........             ........                                             ........................................             ........                        ........              ",
".......................................              ........              .......................................              .......................................             ........              ......................................              ........                        ........             ........                                             ........................................             ........                        ........              ",
".......................................              ........              .......................................              .......................................             ........              ......................................              ........                        ........             ........                                             ........................................             ........                        ........              ",
"........................................             ........             ........................................             ........................................             ........             ........................................             ........                        ........             ........                                             ........................................             ........                        ........              ",
"........................................             ........             ........................................             ........................................             ........             ........................................             ........                        ........             ........                                             ........................................             ........                        ........              ",
"........................................             ........             ........................................             ........................................             ........             ........................................             ........                        ........             ........                                             ........................................             ........                        ........              ",
"........                        ........             ........             ........                                             ........                                             ........             ........                        ........             ........                        ........             ........                                                             ........                             ........                        ........              ",
"........                        ........             ........             ........                                             ........                                             ........             ........                        ........             ........                        ........             ........                                                             ........                             ........                        ........              ",
"........                        ........             ........             ........                                             ........                                             ........             ........                        ........             ........                        ........             ........                                                             ........                             ........                        ........              ",
"........                        ........             ........             ........                                             ........                                             ........             ........                        ........             ........                        ........             ........                                                             ........                             ........                        ........              ",
"........                        ........             ........             ........                                             ........                                             ........             ........                        ........             ........                        ........             ........                                                             ........                             ........                        ........              ",
"........                        ........             ........             ........                                             ........                                             ........             ........                        ........             ........                        ........             ........                                                             ........                             ........                        ........              ",
"........                        ........             ........             ........                                             ........                                             ........             ........                        ........             ........                        ........             ........                                                             ........                             ........                        ........              ",
"........                        ........             ........             ........                                             ........                                             ........             ........                        ........             ........                        ........             ........                                                             ........                             ........                        ........              ",
"........                        ........             ........             ........................................             ........................................             ........             ........                                             ........                        ........             ........                                                             ........                             ........................................              ",
"........                        ........             ........             ........................................             ........................................             ........             ........                                             ........                        ........             ........                                                             ........                             ........................................              ",
"........                        ........             ........             ........................................             ........................................             ........             ........                                             ........                        ........             ........                                                             ........                             ........................................              ",
"........                        ........             ........             ........................................             ........................................             ........             ........                                             ........                        ........             ........                                                             ........                              ......................................               ",
"........                        ........             ........             ........................................             ........................................             ........             ........                                             ........                        ........             ........                                                             ........                              ......................................               ",
"........                        ........             ........             ........................................             ........................................             ........             ........                                             ........                        ........             ........                                                             ........                               ....................................                ",
"........                        ........             ........             ........................................             ........................................             ........             ........                                             ........                        ........             ........                                                             ........                                ..................................                 ",
"........                        ........             ........             ........................................             ........................................             ........             ........                                             ........                        ........             ........                                                             ........                                  ..............................                   ",
"........                        ........             ........             ........                                             ........                                             ........             ........                        ........             ........                        ........             ........                                                             ........                                             ........                              ",
"........                        ........             ........             ........                                             ........                                             ........             ........                        ........             ........                        ........             ........                                                             ........                                             ........                              ",
"........                        ........             ........             ........                                             ........                                             ........             ........                        ........             ........                        ........             ........                                                             ........                                             ........                              ",
"........                        ........             ........             ........                                             ........                                             ........             ........                        ........             ........                        ........             ........                                                             ........                                             ........                              ",
"........                        ........             ........             ........                                             ........                                             ........             ........                        ........             ........                        ........             ........                                                             ........                                             ........                              ",
"........                        ........             ........             ........                                             ........                                             ........             ........                        ........             ........                        ........             ........                                                             ........                                             ........                              ",
"........                        ........             ........             ........                                             ........                                             ........             ........                        ........             ........                        ........             ........                                                             ........                                             ........                              ",
"........                        ........             ........             ........                                             ........                                             ........             ........                        ........             ........                        ........             ........                                                             ........                                             ........                              ",
"........................................             ........             ........                                             ........                                             ........             ........................................             ........................................             ........................................                             ........                                             ........                              ",
"........................................             ........             ........                                             ........                                             ........             ........................................             ........................................             ........................................                             ........                                             ........                              ",
"........................................             ........             ........                                             ........                                             ........             ........................................             ........................................             ........................................                             ........                                             ........                              ",
".......................................              ........             ........                                             ........                                             ........              ......................................               .......................................              .......................................                             ........                                             ........                              ",
".......................................              ........             ........                                             ........                                             ........              ......................................               .......................................              .......................................                             ........                                             ........                              ",
"......................................               ........             ........                                             ........                                             ........               ....................................                 ......................................               ......................................                             ........                                             ........                              ",
".....................................                ........             ........                                             ........                                             ........                ..................................                   .....................................                .....................................                             ........                                             ........                              ",
"...................................                  ........             ........                                             ........                                             ........                  ..............................                       ...................................                  ...................................                             ........                                             ........                              ",
"                                                                                                                                                                                                                                                                                                                                                                                                                                                                                   ",
"                                                                                                                                                                                                                                                                                                                                                                                                                                                                                   ",
"                                                                                                                                                                                                                                                                                                                                                                                                                                                                                   ",
"                                                                                                                                                                                                                                                                                                                                                                                                                                                                                   ",
"                                                                                                                                                                                                                                                                                                                                                                                                                                                                                   ",
"                                                                                                                                                                                                                                                                                                                                                                                                                                                                                   ",
"                                                                                                                                                                                                                                                                                                                                                                                                                                                                                   ",
"                                                                                                                                                                                                                                                                                                                                                                                                                                                                                   ",
"                                                                                                                                                                                                                                                                                                                                                                                                                                                                                   ",
"                                                                                                                                                                                                                                                                                                                                                                                                                                                                                   ",
"                                                                                                                                                                                                                                                                                                                                                                                                                                                                                   ",
"                                                                                                                                                                                                                                                                                                                                                                                                                                                                                   ",
"                                                                                                                                                                                                                                                                                                                                                                                                                                                                                   ",
"                                                                                                                                                                                                                                                                                                                                                                                                                                                                                   ",
"                                                                                                                                                                                                                                                                                                                                                                                                                                                                                   ",
"                                                                                                                                                                                                                                                                                                                                                                                                                                                                                   ",
"                                                                                                                                                                                                                                                                                                                                                                                                                                                                                   "
};
