/* XPM */
static char *easy[] = {
/* columns rows colors chars-per-pixel */
"213 73 2 1 ",
"  c None",
". c #FFFFFF",
/* pixels */
"                                                                                                                                                                                                                     ",
"                                                                                                                                                                                                                     ",
"                                                                                                                                                                                                                     ",
"                                                                                                                                                                                                                     ",
"                                                                                                                                                                                                                     ",
"                                                                                                                                                                                                                     ",
"                                                                                                                                                                                                                     ",
"                                                                                                                                                                                                                     ",
"                                                                                                                                                                                                                     ",
"                                                                                                                                                                                                                     ",
"                                                                                                                                                                                                                     ",
"                                                                                                                                                                                                                     ",
"                                                                                                                                                                                                                     ",
"                                                                                                                                                                                                                     ",
"                                                                                                                                                                                                                     ",
"                                                                                                                                                                                                                     ",
"     ...................................                  ..............................                       ...................................             ........                        ........              ",
"   .....................................                ..................................                   .....................................             ........                        ........              ",
"  ......................................               ....................................                 ......................................             ........                        ........              ",
" .......................................              ......................................               .......................................             ........                        ........              ",
" .......................................              ......................................               .......................................             ........                        ........              ",
"........................................             ........................................             ........................................             ........                        ........              ",
"........................................             ........................................             ........................................             ........                        ........              ",
"........................................             ........................................             ........................................             ........                        ........              ",
"........                                             ........                        ........             ........                                             ........                        ........              ",
"........                                             ........                        ........             ........                                             ........                        ........              ",
"........                                             ........                        ........             ........                                             ........                        ........              ",
"........                                             ........                        ........             ........                                             ........                        ........              ",
"........                                             ........                        ........             ........                                             ........                        ........              ",
"........                                             ........                        ........             ........                                             ........                        ........              ",
"........                                             ........                        ........             ........                                             ........                        ........              ",
"........                                             ........                        ........             ........                                             ........                        ........              ",
"........................................             ........................................             ...................................                  ........................................              ",
"........................................             ........................................             .....................................                ........................................              ",
"........................................             ........................................             ......................................               ........................................              ",
"........................................             ........................................              ......................................               ......................................               ",
"........................................             ........................................              ......................................               ......................................               ",
"........................................             ........................................               ......................................               ....................................                ",
"........................................             ........................................                .....................................                ..................................                 ",
"........................................             ........................................                  ...................................                  ..............................                   ",
"........                                             ........                        ........                                             ........                             ........                              ",
"........                                             ........                        ........                                             ........                             ........                              ",
"........                                             ........                        ........                                             ........                             ........                              ",
"........                                             ........                        ........                                             ........                             ........                              ",
"........                                             ........                        ........                                             ........                             ........                              ",
"........                                             ........                        ........                                             ........                             ........                              ",
"........                                             ........                        ........                                             ........                             ........                              ",
"........                                             ........                        ........                                             ........                             ........                              ",
"........................................             ........                        ........             ........................................                             ........                              ",
"........................................             ........                        ........             ........................................                             ........                              ",
"........................................             ........                        ........             ........................................                             ........                              ",
" .......................................             ........                        ........             .......................................                              ........                              ",
" .......................................             ........                        ........             .......................................                              ........                              ",
"  ......................................             ........                        ........             ......................................                               ........                              ",
"   .....................................             ........                        ........             .....................................                                ........                              ",
"     ...................................             ........                        ........             ...................................                                  ........                              ",
"                                                                                                                                                                                                                     ",
"                                                                                                                                                                                                                     ",
"                                                                                                                                                                                                                     ",
"                                                                                                                                                                                                                     ",
"                                                                                                                                                                                                                     ",
"                                                                                                                                                                                                                     ",
"                                                                                                                                                                                                                     ",
"                                                                                                                                                                                                                     ",
"                                                                                                                                                                                                                     ",
"                                                                                                                                                                                                                     ",
"                                                                                                                                                                                                                     ",
"                                                                                                                                                                                                                     ",
"                                                                                                                                                                                                                     ",
"                                                                                                                                                                                                                     ",
"                                                                                                                                                                                                                     ",
"                                                                                                                                                                                                                     ",
"                                                                                                                                                                                                                     "
};
