/* XPM */
static xpm_row_t const exit[] = {
/* columns rows colors chars-per-pixel */
"181 73 2 1 ",
"  c None",
". c #FFFFFF",
/* pixels */
"                                                                                                                                                                                     ",
"                                                                                                                                                                                     ",
"                                                                                                                                                                                     ",
"                                                                                                                                                                                     ",
"                                                                                                                                                                                     ",
"                                                                                                                                                                                     ",
"                                                                                                                                                                                     ",
"                                                                                                                                                                                     ",
"                                                                                                                                                                                     ",
"                                                                                                                                                                                     ",
"                                                                                                                                                                                     ",
"                                                                                                                                                                                     ",
"                                                                                                                                                                                     ",
"                                                                                                                                                                                     ",
"                                                                                                                                                                                     ",
"                                                                                                                                                                                     ",
"     ...................................             ........                        ........             ........             ........................................              ",
"   .....................................             ........                        ........             ........             ........................................              ",
"  ......................................             ........                        ........             ........             ........................................              ",
" .......................................             ........                        ........             ........             ........................................              ",
" .......................................             ........                        ........             ........             ........................................              ",
"........................................             ........                        ........             ........             ........................................              ",
"........................................             ........                        ........             ........             ........................................              ",
"........................................             ........                        ........             ........             ........................................              ",
"........                                             ........                        ........             ........                             ........                              ",
"........                                             ........                        ........             ........                             ........                              ",
"........                                             ........                        ........             ........                             ........                              ",
"........                                             ........                        ........             ........                             ........                              ",
"........                                             ........                        ........             ........                             ........                              ",
"........                                             ........                        ........             ........                             ........                              ",
"........                                             ........                        ........             ........                             ........                              ",
"........                                             ........                        ........             ........                             ........                              ",
"........................................             ........................................             ........                             ........                              ",
"........................................             ........................................             ........                             ........                              ",
"........................................              ......................................              ........                             ........                              ",
"........................................               ....................................               ........                             ........                              ",
"........................................               ....................................               ........                             ........                              ",
"........................................              ......................................              ........                             ........                              ",
"........................................             ........................................             ........                             ........                              ",
"........................................             ........................................             ........                             ........                              ",
"........                                             ........                        ........             ........                             ........                              ",
"........                                             ........                        ........             ........                             ........                              ",
"........                                             ........                        ........             ........                             ........                              ",
"........                                             ........                        ........             ........                             ........                              ",
"........                                             ........                        ........             ........                             ........                              ",
"........                                             ........                        ........             ........                             ........                              ",
"........                                             ........                        ........             ........                             ........                              ",
"........                                             ........                        ........             ........                             ........                              ",
"........................................             ........                        ........             ........                             ........                              ",
"........................................             ........                        ........             ........                             ........                              ",
"........................................             ........                        ........             ........                             ........                              ",
" .......................................             ........                        ........             ........                             ........                              ",
" .......................................             ........                        ........             ........                             ........                              ",
"  ......................................             ........                        ........             ........                             ........                              ",
"   .....................................             ........                        ........             ........                             ........                              ",
"     ...................................             ........                        ........             ........                             ........                              ",
"                                                                                                                                                                                     ",
"                                                                                                                                                                                     ",
"                                                                                                                                                                                     ",
"                                                                                                                                                                                     ",
"                                                                                                                                                                                     ",
"                                                                                                                                                                                     ",
"                                                                                                                                                                                     ",
"                                                                                                                                                                                     ",
"                                                                                                                                                                                     ",
"                                                                                                                                                                                     ",
"                                                                                                                                                                                     ",
"                                                                                                                                                                                     ",
"                                                                                                                                                                                     ",
"                                                                                                                                                                                     ",
"                                                                                                                                                                                     ",
"                                                                                                                                                                                     ",
"                                                                                                                                                                                     "
};
