/* XPM */
static char *game_over[] = {
/* columns rows colors chars-per-pixel */
"461 73 2 1 ",
"  c None",
". c #FFFFFF",
/* pixels */
"                                                                                                                                                                                                                                                                                                                                                                                                                                                                             ",
"                                                                                                                                                                                                                                                                                                                                                                                                                                                                             ",
"                                                                                                                                                                                                                                                                                                                                                                                                                                                                             ",
"                                                                                                                                                                                                                                                                                                                                                                                                                                                                             ",
"                                                                                                                                                                                                                                                                                                                                                                                                                                                                             ",
"                                                                                                                                                                                                                                                                                                                                                                                                                                                                             ",
"                                                                                                                                                                                                                                                                                                                                                                                                                                                                             ",
"                                                                                                                                                                                                                                                                                                                                                                                                                                                                             ",
"                                                                                                                                                                                                                                                                                                                                                                                                                                                                             ",
"                                                                                                                                                                                                                                                                                                                                                                                                                                                                             ",
"                                                                                                                                                                                                                                                                                                                                                                                                                                                                             ",
"                                                                                                                                                                                                                                                                                                                                                                                                                                                                             ",
"                                                                                                                                                                                                                                                                                                                                                                                                                                                                             ",
"                                                                                                                                                                                                                                                                                                                                                                                                                                                                             ",
"                                                                                                                                                                                                                                                                                                                                                                                                                                                                             ",
"                                                                                                                                                                                                                                                                                                                                                                                                                                                                             ",
"     ...................................                  ..............................                  ...................................................                       ...................................                                      ..............................                  ........                        ........                  ...................................             ...................................                   ",
"   .....................................                ..................................                .....................................................                   .....................................                                    ..................................                ........                        ........                .....................................             .....................................                 ",
"  ......................................               ....................................               ......................................................                 ......................................                                   ....................................               ........                        ........               ......................................             ......................................                ",
" .......................................              ......................................              .......................................................               .......................................                                  ......................................              ........                        ........              .......................................             .......................................               ",
" .......................................              ......................................              .......................................................               .......................................                                  ......................................              ........                        ........              .......................................             .......................................               ",
"........................................             ........................................             ........................................................             ........................................                                 ........................................             ........                        ........             ........................................             ........................................              ",
"........................................             ........................................             ........................................................             ........................................                                 ........................................             ........                        ........             ........................................             ........................................              ",
"........................................             ........................................             ........................................................             ........................................                                 ........................................             ........                        ........             ........................................             ........................................              ",
"........                                             ........                        ........             ........                ........                ........             ........                                                                 ........                        ........             ........                        ........             ........                                             ........                        ........              ",
"........                                             ........                        ........             ........                ........                ........             ........                                                                 ........                        ........             ........                        ........             ........                                             ........                        ........              ",
"........                                             ........                        ........             ........                ........                ........             ........                                                                 ........                        ........             ........                        ........             ........                                             ........                        ........              ",
"........                                             ........                        ........             ........                ........                ........             ........                                                                 ........                        ........             ........                        ........             ........                                             ........                        ........              ",
"........                                             ........                        ........             ........                ........                ........             ........                                                                 ........                        ........             ........                        ........             ........                                             ........                        ........              ",
"........                                             ........                        ........             ........                ........                ........             ........                                                                 ........                        ........             ........                        ........             ........                                             ........                        ........              ",
"........                                             ........                        ........             ........                ........                ........             ........                                                                 ........                        ........             ........                        ........             ........                                             ........                        ........              ",
"........                                             ........                        ........             ........                ........                ........             ........                                                                 ........                        ........             ........                        ........             ........                                             ........                        ........              ",
"........        ...................                  ........................................             ........                ........                ........             ........................................                                 ........                        ........             .........                       ........             ........................................             ........................................              ",
"........        .....................                ........................................             ........                ........                ........             ........................................                                 ........                        ........             ..........                     .........             ........................................             ........................................              ",
"........        ......................               ........................................             ........                ........                ........             ........................................                                 ........                        ........             ...........                   ..........             ........................................             .......................................               ",
"........        .......................              ........................................             ........                ........                ........             ........................................                                 ........                        ........             ............                 ...........             ........................................             ......................................                ",
"........        .......................              ........................................             ........                ........                ........             ........................................                                 ........                        ........             .............               ...........              ........................................             ......................................                ",
"........        ........................             ........................................             ........                ........                ........             ........................................                                 ........                        ........              .............             ...........               ........................................             .......................................               ",
"........        ........................             ........................................             ........                ........                ........             ........................................                                 ........                        ........               .............           ...........                ........................................             ........................................              ",
"........        ........................             ........................................             ........                ........                ........             ........................................                                 ........                        ........                .............         ...........                 ........................................             ........................................              ",
"........                        ........             ........                        ........             ........                ........                ........             ........                                                                 ........                        ........                 ............        ...........                  ........                                             ........                        ........              ",
"........                        ........             ........                        ........             ........                ........                ........             ........                                                                 ........                        ........                  ............      ...........                   ........                                             ........                        ........              ",
"........                        ........             ........                        ........             ........                ........                ........             ........                                                                 ........                        ........                   ............    ...........                    ........                                             ........                        ........              ",
"........                        ........             ........                        ........             ........                ........                ........             ........                                                                 ........                        ........                    ............  ...........                     ........                                             ........                        ........              ",
"........                        ........             ........                        ........             ........                ........                ........             ........                                                                 ........                        ........                     .......................                      ........                                             ........                        ........              ",
"........                        ........             ........                        ........             ........                ........                ........             ........                                                                 ........                        ........                      .....................                       ........                                             ........                        ........              ",
"........                        ........             ........                        ........             ........                ........                ........             ........                                                                 ........                        ........                       ...................                        ........                                             ........                        ........              ",
"........                        ........             ........                        ........             ........                ........                ........             ........                                                                 ........                        ........                        .................                         ........                                             ........                        ........              ",
"........................................             ........                        ........             ........                ........                ........             ........................................                                 ........................................                         ...............                          ........................................             ........                        ........              ",
"........................................             ........                        ........             ........                ........                ........             ........................................                                 ........................................                          .............                           ........................................             ........                        ........              ",
"........................................             ........                        ........             ........                ........                ........             ........................................                                 ........................................                           ...........                            ........................................             ........                        ........              ",
" ......................................              ........                        ........             ........                ........                ........              .......................................                                  ......................................                             .........                              .......................................             ........                        ........              ",
" ......................................              ........                        ........             ........                ........                ........              .......................................                                  ......................................                              .......                               .......................................             ........                        ........              ",
"  ....................................               ........                        ........             ........                ........                ........               ......................................                                   ....................................                                .....                                 ......................................             ........                        ........              ",
"   ..................................                ........                        ........             ........                ........                ........                .....................................                                    ..................................                                  ...                                   .....................................             ........                        ........              ",
"     ..............................                  ........                        ........             ........                ........                ........                  ...................................                                      ..............................                                     .                                      ...................................             ........                        ........              ",
"                                                                                                                                                                                                                                                                                                                                                                                                                                                                             ",
"                                                                                                                                                                                                                                                                                                                                                                                                                                                                             ",
"                                                                                                                                                                                                                                                                                                                                                                                                                                                                             ",
"                                                                                                                                                                                                                                                                                                                                                                                                                                                                             ",
"                                                                                                                                                                                                                                                                                                                                                                                                                                                                             ",
"                                                                                                                                                                                                                                                                                                                                                                                                                                                                             ",
"                                                                                                                                                                                                                                                                                                                                                                                                                                                                             ",
"                                                                                                                                                                                                                                                                                                                                                                                                                                                                             ",
"                                                                                                                                                                                                                                                                                                                                                                                                                                                                             ",
"                                                                                                                                                                                                                                                                                                                                                                                                                                                                             ",
"                                                                                                                                                                                                                                                                                                                                                                                                                                                                             ",
"                                                                                                                                                                                                                                                                                                                                                                                                                                                                             ",
"                                                                                                                                                                                                                                                                                                                                                                                                                                                                             ",
"                                                                                                                                                                                                                                                                                                                                                                                                                                                                             ",
"                                                                                                                                                                                                                                                                                                                                                                                                                                                                             ",
"                                                                                                                                                                                                                                                                                                                                                                                                                                                                             ",
"                                                                                                                                                                                                                                                                                                                                                                                                                                                                             "
};
