/* XPM */
static xpm_row_t const main_menu[] = {
/* columns rows colors chars-per-pixel */
"445 73 2 1 ",
"  c None",
". c #FFFFFF",
/* pixels */
"                                                                                                                                                                                                                                                                                                                                                                                                                                                             ",
"                                                                                                                                                                                                                                                                                                                                                                                                                                                             ",
"                                                                                                                                                                                                                                                                                                                                                                                                                                                             ",
"                                                                                                                                                                                                                                                                                                                                                                                                                                                             ",
"                                                                                                                                                                                                                                                                                                                                                                                                                                                             ",
"                                                                                                                                                                                                                                                                                                                                                                                                                                                             ",
"                                                                                                                                                                                                                                                                                                                                                                                                                                                             ",
"                                                                                                                                                                                                                                                                                                                                                                                                                                                             ",
"                                                                                                                                                                                                                                                                                                                                                                                                                                                             ",
"                                                                                                                                                                                                                                                                                                                                                                                                                                                             ",
"                                                                                                                                                                                                                                                                                                                                                                                                                                                             ",
"                                                                                                                                                                                                                                                                                                                                                                                                                                                             ",
"                                                                                                                                                                                                                                                                                                                                                                                                                                                             ",
"                                                                                                                                                                                                                                                                                                                                                                                                                                                             ",
"                                                                                                                                                                                                                                                                                                                                                                                                                                                             ",
"                                                                                                                                                                                                                                                                                                                                                                                                                                                             ",
"...................................................                       ..............................                  ........             ...................................                                      ...................................................                       ...................................             ...................................                  ........                        ........              ",
".....................................................                   ..................................                ........             .....................................                                    .....................................................                   .....................................             .....................................                ........                        ........              ",
"......................................................                 ....................................               ........             ......................................                                   ......................................................                 ......................................             ......................................               ........                        ........              ",
".......................................................               ......................................              ........             .......................................                                  .......................................................               .......................................             .......................................              ........                        ........              ",
".......................................................               ......................................              ........             .......................................                                  .......................................................               .......................................             .......................................              ........                        ........              ",
"........................................................             ........................................             ........             ........................................                                 ........................................................             ........................................             ........................................             ........                        ........              ",
"........................................................             ........................................             ........             ........................................                                 ........................................................             ........................................             ........................................             ........                        ........              ",
"........................................................             ........................................             ........             ........................................                                 ........................................................             ........................................             ........................................             ........                        ........              ",
"........                ........                ........             ........                        ........             ........             ........                        ........                                 ........                ........                ........             ........                                             ........                        ........             ........                        ........              ",
"........                ........                ........             ........                        ........             ........             ........                        ........                                 ........                ........                ........             ........                                             ........                        ........             ........                        ........              ",
"........                ........                ........             ........                        ........             ........             ........                        ........                                 ........                ........                ........             ........                                             ........                        ........             ........                        ........              ",
"........                ........                ........             ........                        ........             ........             ........                        ........                                 ........                ........                ........             ........                                             ........                        ........             ........                        ........              ",
"........                ........                ........             ........                        ........             ........             ........                        ........                                 ........                ........                ........             ........                                             ........                        ........             ........                        ........              ",
"........                ........                ........             ........                        ........             ........             ........                        ........                                 ........                ........                ........             ........                                             ........                        ........             ........                        ........              ",
"........                ........                ........             ........                        ........             ........             ........                        ........                                 ........                ........                ........             ........                                             ........                        ........             ........                        ........              ",
"........                ........                ........             ........                        ........             ........             ........                        ........                                 ........                ........                ........             ........                                             ........                        ........             ........                        ........              ",
"........                ........                ........             ........................................             ........             ........                        ........                                 ........                ........                ........             ........................................             ........                        ........             ........                        ........              ",
"........                ........                ........             ........................................             ........             ........                        ........                                 ........                ........                ........             ........................................             ........                        ........             ........                        ........              ",
"........                ........                ........             ........................................             ........             ........                        ........                                 ........                ........                ........             ........................................             ........                        ........             ........                        ........              ",
"........                ........                ........             ........................................             ........             ........                        ........                                 ........                ........                ........             ........................................             ........                        ........             ........                        ........              ",
"........                ........                ........             ........................................             ........             ........                        ........                                 ........                ........                ........             ........................................             ........                        ........             ........                        ........              ",
"........                ........                ........             ........................................             ........             ........                        ........                                 ........                ........                ........             ........................................             ........                        ........             ........                        ........              ",
"........                ........                ........             ........................................             ........             ........                        ........                                 ........                ........                ........             ........................................             ........                        ........             ........                        ........              ",
"........                ........                ........             ........................................             ........             ........                        ........                                 ........                ........                ........             ........................................             ........                        ........             ........                        ........              ",
"........                ........                ........             ........                        ........             ........             ........                        ........                                 ........                ........                ........             ........                                             ........                        ........             ........                        ........              ",
"........                ........                ........             ........                        ........             ........             ........                        ........                                 ........                ........                ........             ........                                             ........                        ........             ........                        ........              ",
"........                ........                ........             ........                        ........             ........             ........                        ........                                 ........                ........                ........             ........                                             ........                        ........             ........                        ........              ",
"........                ........                ........             ........                        ........             ........             ........                        ........                                 ........                ........                ........             ........                                             ........                        ........             ........                        ........              ",
"........                ........                ........             ........                        ........             ........             ........                        ........                                 ........                ........                ........             ........                                             ........                        ........             ........                        ........              ",
"........                ........                ........             ........                        ........             ........             ........                        ........                                 ........                ........                ........             ........                                             ........                        ........             ........                        ........              ",
"........                ........                ........             ........                        ........             ........             ........                        ........                                 ........                ........                ........             ........                                             ........                        ........             ........                        ........              ",
"........                ........                ........             ........                        ........             ........             ........                        ........                                 ........                ........                ........             ........                                             ........                        ........             ........                        ........              ",
"........                ........                ........             ........                        ........             ........             ........                        ........                                 ........                ........                ........             ........................................             ........                        ........             ........................................              ",
"........                ........                ........             ........                        ........             ........             ........                        ........                                 ........                ........                ........             ........................................             ........                        ........             ........................................              ",
"........                ........                ........             ........                        ........             ........             ........                        ........                                 ........                ........                ........             ........................................             ........                        ........             ........................................              ",
"........                ........                ........             ........                        ........             ........             ........                        ........                                 ........                ........                ........              .......................................             ........                        ........              .......................................              ",
"........                ........                ........             ........                        ........             ........             ........                        ........                                 ........                ........                ........              .......................................             ........                        ........              .......................................              ",
"........                ........                ........             ........                        ........             ........             ........                        ........                                 ........                ........                ........               ......................................             ........                        ........               ......................................              ",
"........                ........                ........             ........                        ........             ........             ........                        ........                                 ........                ........                ........                .....................................             ........                        ........                .....................................              ",
"........                ........                ........             ........                        ........             ........             ........                        ........                                 ........                ........                ........                  ...................................             ........                        ........                  ...................................              ",
"                                                                                                                                                                                                                                                                                                                                                                                                                                                             ",
"                                                                                                                                                                                                                                                                                                                                                                                                                                                             ",
"                                                                                                                                                                                                                                                                                                                                                                                                                                                             ",
"                                                                                                                                                                                                                                                                                                                                                                                                                                                             ",
"                                                                                                                                                                                                                                                                                                                                                                                                                                                             ",
"                                                                                                                                                                                                                                                                                                                                                                                                                                                             ",
"                                                                                                                                                                                                                                                                                                                                                                                                                                                             ",
"                                                                                                                                                                                                                                                                                                                                                                                                                                                             ",
"                                                                                                                                                                                                                                                                                                                                                                                                                                                             ",
"                                                                                                                                                                                                                                                                                                                                                                                                                                                             ",
"                                                                                                                                                                                                                                                                                                                                                                                                                                                             ",
"                                                                                                                                                                                                                                                                                                                                                                                                                                                             ",
"                                                                                                                                                                                                                                                                                                                                                                                                                                                             ",
"                                                                                                                                                                                                                                                                                                                                                                                                                                                             ",
"                                                                                                                                                                                                                                                                                                                                                                                                                                                             ",
"                                                                                                                                                                                                                                                                                                                                                                                                                                                             ",
"                                                                                                                                                                                                                                                                                                                                                                                                                                                             "
};
