/* XPM */
static xpm_row_t const medium[] = {
/* columns rows colors chars-per-pixel */
"319 73 2 1 ",
"  c None",
". c #FFFFFF",
/* pixels */
"                                                                                                                                                                                                                                                                                                                               ",
"                                                                                                                                                                                                                                                                                                                               ",
"                                                                                                                                                                                                                                                                                                                               ",
"                                                                                                                                                                                                                                                                                                                               ",
"                                                                                                                                                                                                                                                                                                                               ",
"                                                                                                                                                                                                                                                                                                                               ",
"                                                                                                                                                                                                                                                                                                                               ",
"                                                                                                                                                                                                                                                                                                                               ",
"                                                                                                                                                                                                                                                                                                                               ",
"                                                                                                                                                                                                                                                                                                                               ",
"                                                                                                                                                                                                                                                                                                                               ",
"                                                                                                                                                                                                                                                                                                                               ",
"                                                                                                                                                                                                                                                                                                                               ",
"                                                                                                                                                                                                                                                                                                                               ",
"                                                                                                                                                                                                                                                                                                                               ",
"                                                                                                                                                                                                                                                                                                                               ",
"...................................................                       ...................................             ...................................                  ........             ........                        ........             ...................................................                   ",
".....................................................                   .....................................             .....................................                ........             ........                        ........             .....................................................                 ",
"......................................................                 ......................................             ......................................               ........             ........                        ........             ......................................................                ",
".......................................................               .......................................             .......................................              ........             ........                        ........             .......................................................               ",
".......................................................               .......................................             .......................................              ........             ........                        ........             .......................................................               ",
"........................................................             ........................................             ........................................             ........             ........                        ........             ........................................................              ",
"........................................................             ........................................             ........................................             ........             ........                        ........             ........................................................              ",
"........................................................             ........................................             ........................................             ........             ........                        ........             ........................................................              ",
"........                ........                ........             ........                                             ........                        ........             ........             ........                        ........             ........                ........                ........              ",
"........                ........                ........             ........                                             ........                        ........             ........             ........                        ........             ........                ........                ........              ",
"........                ........                ........             ........                                             ........                        ........             ........             ........                        ........             ........                ........                ........              ",
"........                ........                ........             ........                                             ........                        ........             ........             ........                        ........             ........                ........                ........              ",
"........                ........                ........             ........                                             ........                        ........             ........             ........                        ........             ........                ........                ........              ",
"........                ........                ........             ........                                             ........                        ........             ........             ........                        ........             ........                ........                ........              ",
"........                ........                ........             ........                                             ........                        ........             ........             ........                        ........             ........                ........                ........              ",
"........                ........                ........             ........                                             ........                        ........             ........             ........                        ........             ........                ........                ........              ",
"........                ........                ........             ........................................             ........                        ........             ........             ........                        ........             ........                ........                ........              ",
"........                ........                ........             ........................................             ........                        ........             ........             ........                        ........             ........                ........                ........              ",
"........                ........                ........             ........................................             ........                        ........             ........             ........                        ........             ........                ........                ........              ",
"........                ........                ........             ........................................             ........                        ........             ........             ........                        ........             ........                ........                ........              ",
"........                ........                ........             ........................................             ........                        ........             ........             ........                        ........             ........                ........                ........              ",
"........                ........                ........             ........................................             ........                        ........             ........             ........                        ........             ........                ........                ........              ",
"........                ........                ........             ........................................             ........                        ........             ........             ........                        ........             ........                ........                ........              ",
"........                ........                ........             ........................................             ........                        ........             ........             ........                        ........             ........                ........                ........              ",
"........                ........                ........             ........                                             ........                        ........             ........             ........                        ........             ........                ........                ........              ",
"........                ........                ........             ........                                             ........                        ........             ........             ........                        ........             ........                ........                ........              ",
"........                ........                ........             ........                                             ........                        ........             ........             ........                        ........             ........                ........                ........              ",
"........                ........                ........             ........                                             ........                        ........             ........             ........                        ........             ........                ........                ........              ",
"........                ........                ........             ........                                             ........                        ........             ........             ........                        ........             ........                ........                ........              ",
"........                ........                ........             ........                                             ........                        ........             ........             ........                        ........             ........                ........                ........              ",
"........                ........                ........             ........                                             ........                        ........             ........             ........                        ........             ........                ........                ........              ",
"........                ........                ........             ........                                             ........                        ........             ........             ........                        ........             ........                ........                ........              ",
"........                ........                ........             ........................................             ........................................             ........             ........................................             ........                ........                ........              ",
"........                ........                ........             ........................................             ........................................             ........             ........................................             ........                ........                ........              ",
"........                ........                ........             ........................................             ........................................             ........             ........................................             ........                ........                ........              ",
"........                ........                ........              .......................................             .......................................              ........              .......................................             ........                ........                ........              ",
"........                ........                ........              .......................................             .......................................              ........              .......................................             ........                ........                ........              ",
"........                ........                ........               ......................................             ......................................               ........               ......................................             ........                ........                ........              ",
"........                ........                ........                .....................................             .....................................                ........                .....................................             ........                ........                ........              ",
"........                ........                ........                  ...................................             ...................................                  ........                  ...................................             ........                ........                ........              ",
"                                                                                                                                                                                                                                                                                                                               ",
"                                                                                                                                                                                                                                                                                                                               ",
"                                                                                                                                                                                                                                                                                                                               ",
"                                                                                                                                                                                                                                                                                                                               ",
"                                                                                                                                                                                                                                                                                                                               ",
"                                                                                                                                                                                                                                                                                                                               ",
"                                                                                                                                                                                                                                                                                                                               ",
"                                                                                                                                                                                                                                                                                                                               ",
"                                                                                                                                                                                                                                                                                                                               ",
"                                                                                                                                                                                                                                                                                                                               ",
"                                                                                                                                                                                                                                                                                                                               ",
"                                                                                                                                                                                                                                                                                                                               ",
"                                                                                                                                                                                                                                                                                                                               ",
"                                                                                                                                                                                                                                                                                                                               ",
"                                                                                                                                                                                                                                                                                                                               ",
"                                                                                                                                                                                                                                                                                                                               ",
"                                                                                                                                                                                                                                                                                                                               "
};
