/* XPM */
static char *options[] = {
/* columns rows colors chars-per-pixel */
"340 73 2 1 ",
"  c None",
". c #FFFFFF",
/* pixels */
"                                                                                                                                                                                                                                                                                                                                                    ",
"                                                                                                                                                                                                                                                                                                                                                    ",
"                                                                                                                                                                                                                                                                                                                                                    ",
"                                                                                                                                                                                                                                                                                                                                                    ",
"                                                                                                                                                                                                                                                                                                                                                    ",
"                                                                                                                                                                                                                                                                                                                                                    ",
"                                                                                                                                                                                                                                                                                                                                                    ",
"                                                                                                                                                                                                                                                                                                                                                    ",
"                                                                                                                                                                                                                                                                                                                                                    ",
"                                                                                                                                                                                                                                                                                                                                                    ",
"                                                                                                                                                                                                                                                                                                                                                    ",
"                                                                                                                                                                                                                                                                                                                                                    ",
"                                                                                                                                                                                                                                                                                                                                                    ",
"                                                                                                                                                                                                                                                                                                                                                    ",
"                                                                                                                                                                                                                                                                                                                                                    ",
"                                                                                                                                                                                                                                                                                                                                                    ",
"     ..............................                  ...................................                  ........................................             ........                  ..............................                  ...................................                       ...................................              ",
"   ..................................                .....................................                ........................................             ........                ..................................                .....................................                   .....................................              ",
"  ....................................               ......................................               ........................................             ........               ....................................               ......................................                 ......................................              ",
" ......................................              .......................................              ........................................             ........              ......................................              .......................................               .......................................              ",
" ......................................              .......................................              ........................................             ........              ......................................              .......................................               .......................................              ",
"........................................             ........................................             ........................................             ........             ........................................             ........................................             ........................................              ",
"........................................             ........................................             ........................................             ........             ........................................             ........................................             ........................................              ",
"........................................             ........................................             ........................................             ........             ........................................             ........................................             ........................................              ",
"........                        ........             ........                        ........                             ........                             ........             ........                        ........             ........                        ........             ........                                              ",
"........                        ........             ........                        ........                             ........                             ........             ........                        ........             ........                        ........             ........                                              ",
"........                        ........             ........                        ........                             ........                             ........             ........                        ........             ........                        ........             ........                                              ",
"........                        ........             ........                        ........                             ........                             ........             ........                        ........             ........                        ........             ........                                              ",
"........                        ........             ........                        ........                             ........                             ........             ........                        ........             ........                        ........             ........                                              ",
"........                        ........             ........                        ........                             ........                             ........             ........                        ........             ........                        ........             ........                                              ",
"........                        ........             ........                        ........                             ........                             ........             ........                        ........             ........                        ........             ........                                              ",
"........                        ........             ........                        ........                             ........                             ........             ........                        ........             ........                        ........             ........                                              ",
"........                        ........             ........................................                             ........                             ........             ........                        ........             ........                        ........             ...................................                   ",
"........                        ........             ........................................                             ........                             ........             ........                        ........             ........                        ........             .....................................                 ",
"........                        ........             ........................................                             ........                             ........             ........                        ........             ........                        ........             ......................................                ",
"........                        ........             .......................................                              ........                             ........             ........                        ........             ........                        ........              ......................................               ",
"........                        ........             .......................................                              ........                             ........             ........                        ........             ........                        ........              ......................................               ",
"........                        ........             ......................................                               ........                             ........             ........                        ........             ........                        ........               ......................................              ",
"........                        ........             .....................................                                ........                             ........             ........                        ........             ........                        ........                .....................................              ",
"........                        ........             ...................................                                  ........                             ........             ........                        ........             ........                        ........                  ...................................              ",
"........                        ........             ........                                                             ........                             ........             ........                        ........             ........                        ........                                             ........              ",
"........                        ........             ........                                                             ........                             ........             ........                        ........             ........                        ........                                             ........              ",
"........                        ........             ........                                                             ........                             ........             ........                        ........             ........                        ........                                             ........              ",
"........                        ........             ........                                                             ........                             ........             ........                        ........             ........                        ........                                             ........              ",
"........                        ........             ........                                                             ........                             ........             ........                        ........             ........                        ........                                             ........              ",
"........                        ........             ........                                                             ........                             ........             ........                        ........             ........                        ........                                             ........              ",
"........                        ........             ........                                                             ........                             ........             ........                        ........             ........                        ........                                             ........              ",
"........                        ........             ........                                                             ........                             ........             ........                        ........             ........                        ........                                             ........              ",
"........................................             ........                                                             ........                             ........             ........................................             ........                        ........             ........................................              ",
"........................................             ........                                                             ........                             ........             ........................................             ........                        ........             ........................................              ",
"........................................             ........                                                             ........                             ........             ........................................             ........                        ........             ........................................              ",
" ......................................              ........                                                             ........                             ........              ......................................              ........                        ........             .......................................               ",
" ......................................              ........                                                             ........                             ........              ......................................              ........                        ........             .......................................               ",
"  ....................................               ........                                                             ........                             ........               ....................................               ........                        ........             ......................................                ",
"   ..................................                ........                                                             ........                             ........                ..................................                ........                        ........             .....................................                 ",
"     ..............................                  ........                                                             ........                             ........                  ..............................                  ........                        ........             ...................................                   ",
"                                                                                                                                                                                                                                                                                                                                                    ",
"                                                                                                                                                                                                                                                                                                                                                    ",
"                                                                                                                                                                                                                                                                                                                                                    ",
"                                                                                                                                                                                                                                                                                                                                                    ",
"                                                                                                                                                                                                                                                                                                                                                    ",
"                                                                                                                                                                                                                                                                                                                                                    ",
"                                                                                                                                                                                                                                                                                                                                                    ",
"                                                                                                                                                                                                                                                                                                                                                    ",
"                                                                                                                                                                                                                                                                                                                                                    ",
"                                                                                                                                                                                                                                                                                                                                                    ",
"                                                                                                                                                                                                                                                                                                                                                    ",
"                                                                                                                                                                                                                                                                                                                                                    ",
"                                                                                                                                                                                                                                                                                                                                                    ",
"                                                                                                                                                                                                                                                                                                                                                    ",
"                                                                                                                                                                                                                                                                                                                                                    ",
"                                                                                                                                                                                                                                                                                                                                                    ",
"                                                                                                                                                                                                                                                                                                                                                    "
};
