/* XPM */
static xpm_row_t const pause_title_xpm[] = {
/* columns rows colors chars-per-pixel */
"266 73 2 1 ",
"  c None",
". c #FFFFFF",
/* pixels */
"                                                                                                                                                                                                                                                                          ",
"                                                                                                                                                                                                                                                                          ",
"                                                                                                                                                                                                                                                                          ",
"                                                                                                                                                                                                                                                                          ",
"                                                                                                                                                                                                                                                                          ",
"                                                                                                                                                                                                                                                                          ",
"                                                                                                                                                                                                                                                                          ",
"                                                                                                                                                                                                                                                                          ",
"                                                                                                                                                                                                                                                                          ",
"                                                                                                                                                                                                                                                                          ",
"                                                                                                                                                                                                                                                                          ",
"                                                                                                                                                                                                                                                                          ",
"                                                                                                                                                                                                                                                                          ",
"                                                                                                                                                                                                                                                                          ",
"                                                                                                                                                                                                                                                                          ",
"                                                                                                                                                                                                                                                                          ",
"...................................                       ..............................                  ........                        ........                  ...................................                  ...................................              ",
".....................................                   ..................................                ........                        ........                .....................................                .....................................              ",
"......................................                 ....................................               ........                        ........               ......................................               ......................................              ",
".......................................               ......................................              ........                        ........              .......................................              .......................................              ",
".......................................               ......................................              ........                        ........              .......................................              .......................................              ",
"........................................             ........................................             ........                        ........             ........................................             ........................................              ",
"........................................             ........................................             ........                        ........             ........................................             ........................................              ",
"........................................             ........................................             ........                        ........             ........................................             ........................................              ",
"........                        ........             ........                        ........             ........                        ........             ........                                             ........                                              ",
"........                        ........             ........                        ........             ........                        ........             ........                                             ........                                              ",
"........                        ........             ........                        ........             ........                        ........             ........                                             ........                                              ",
"........                        ........             ........                        ........             ........                        ........             ........                                             ........                                              ",
"........                        ........             ........                        ........             ........                        ........             ........                                             ........                                              ",
"........                        ........             ........                        ........             ........                        ........             ........                                             ........                                              ",
"........                        ........             ........                        ........             ........                        ........             ........                                             ........                                              ",
"........                        ........             ........                        ........             ........                        ........             ........                                             ........                                              ",
"........................................             ........................................             ........                        ........             ...................................                  ........................................              ",
"........................................             ........................................             ........                        ........             .....................................                ........................................              ",
"........................................             ........................................             ........                        ........             ......................................               ........................................              ",
".......................................              ........................................             ........                        ........              ......................................              ........................................              ",
".......................................              ........................................             ........                        ........              ......................................              ........................................              ",
"......................................               ........................................             ........                        ........               ......................................             ........................................              ",
".....................................                ........................................             ........                        ........                .....................................             ........................................              ",
"...................................                  ........................................             ........                        ........                  ...................................             ........................................              ",
"........                                             ........                        ........             ........                        ........                                             ........             ........                                              ",
"........                                             ........                        ........             ........                        ........                                             ........             ........                                              ",
"........                                             ........                        ........             ........                        ........                                             ........             ........                                              ",
"........                                             ........                        ........             ........                        ........                                             ........             ........                                              ",
"........                                             ........                        ........             ........                        ........                                             ........             ........                                              ",
"........                                             ........                        ........             ........                        ........                                             ........             ........                                              ",
"........                                             ........                        ........             ........                        ........                                             ........             ........                                              ",
"........                                             ........                        ........             ........                        ........                                             ........             ........                                              ",
"........                                             ........                        ........             ........................................             ........................................             ........................................              ",
"........                                             ........                        ........             ........................................             ........................................             ........................................              ",
"........                                             ........                        ........             ........................................             ........................................             ........................................              ",
"........                                             ........                        ........              .......................................             .......................................               .......................................              ",
"........                                             ........                        ........              .......................................             .......................................               .......................................              ",
"........                                             ........                        ........               ......................................             ......................................                 ......................................              ",
"........                                             ........                        ........                .....................................             .....................................                   .....................................              ",
"........                                             ........                        ........                  ...................................             ...................................                       ...................................              ",
"                                                                                                                                                                                                                                                                          ",
"                                                                                                                                                                                                                                                                          ",
"                                                                                                                                                                                                                                                                          ",
"                                                                                                                                                                                                                                                                          ",
"                                                                                                                                                                                                                                                                          ",
"                                                                                                                                                                                                                                                                          ",
"                                                                                                                                                                                                                                                                          ",
"                                                                                                                                                                                                                                                                          ",
"                                                                                                                                                                                                                                                                          ",
"                                                                                                                                                                                                                                                                          ",
"                                                                                                                                                                                                                                                                          ",
"                                                                                                                                                                                                                                                                          ",
"                                                                                                                                                                                                                                                                          ",
"                                                                                                                                                                                                                                                                          ",
"                                                                                                                                                                                                                                                                          ",
"                                                                                                                                                                                                                                                                          ",
"                                                                                                                                                                                                                                                                          "
};
