/* XPM */
static char *player1_wins[] = {
/* columns rows colors chars-per-pixel */
"584 73 2 1 ",
"  c None",
". c #FFFFFF",
/* pixels */
"                                                                                                                                                                                                                                                                                                                                                                                                                                                                                                                                                                                                        ",
"                                                                                                                                                                                                                                                                                                                                                                                                                                                                                                                                                                                                        ",
"                                                                                                                                                                                                                                                                                                                                                                                                                                                                                                                                                                                                        ",
"                                                                                                                                                                                                                                                                                                                                                                                                                                                                                                                                                                                                        ",
"                                                                                                                                                                                                                                                                                                                                                                                                                                                                                                                                                                                                        ",
"                                                                                                                                                                                                                                                                                                                                                                                                                                                                                                                                                                                                        ",
"                                                                                                                                                                                                                                                                                                                                                                                                                                                                                                                                                                                                        ",
"                                                                                                                                                                                                                                                                                                                                                                                                                                                                                                                                                                                                        ",
"                                                                                                                                                                                                                                                                                                                                                                                                                                                                                                                                                                                                        ",
"                                                                                                                                                                                                                                                                                                                                                                                                                                                                                                                                                                                                        ",
"                                                                                                                                                                                                                                                                                                                                                                                                                                                                                                                                                                                                        ",
"                                                                                                                                                                                                                                                                                                                                                                                                                                                                                                                                                                                                        ",
"                                                                                                                                                                                                                                                                                                                                                                                                                                                                                                                                                                                                        ",
"                                                                                                                                                                                                                                                                                                                                                                                                                                                                                                                                                                                                        ",
"                                                                                                                                                                                                                                                                                                                                                                                                                                                                                                                                                                                                        ",
"                                                                                                                                                                                                                                                                                                                                                                                                                                                                                                                                                                                                        ",
"...................................                  ........                                                  ..............................                  ........                        ........                  ...................................             ...................................                                      ...........                                      ........                ........                ........             ........             ...................................                       ...................................              ",
".....................................                ........                                                ..................................                ........                        ........                .....................................             .....................................                                    .............                                    ........                ........                ........             ........             .....................................                   .....................................              ",
"......................................               ........                                               ....................................               ........                        ........               ......................................             ......................................                                   ..............                                   ........                ........                ........             ........             ......................................                 ......................................              ",
".......................................              ........                                              ......................................              ........                        ........              .......................................             .......................................                                  ...............                                  ........                ........                ........             ........             .......................................               .......................................              ",
".......................................              ........                                              ......................................              ........                        ........              .......................................             .......................................                                  ...............                                  ........                ........                ........             ........             .......................................               .......................................              ",
"........................................             ........                                             ........................................             ........                        ........             ........................................             ........................................                                 ................                                 ........                ........                ........             ........             ........................................             ........................................              ",
"........................................             ........                                             ........................................             ........                        ........             ........................................             ........................................                                 ................                                 ........                ........                ........             ........             ........................................             ........................................              ",
"........................................             ........                                             ........................................             ........                        ........             ........................................             ........................................                                 ................                                 ........                ........                ........             ........             ........................................             ........................................              ",
"........                        ........             ........                                             ........                        ........             ........                        ........             ........                                             ........                        ........                                         ........                                 ........                ........                ........             ........             ........                        ........             ........                                              ",
"........                        ........             ........                                             ........                        ........             ........                        ........             ........                                             ........                        ........                                         ........                                 ........                ........                ........             ........             ........                        ........             ........                                              ",
"........                        ........             ........                                             ........                        ........             ........                        ........             ........                                             ........                        ........                                         ........                                 ........                ........                ........             ........             ........                        ........             ........                                              ",
"........                        ........             ........                                             ........                        ........             ........                        ........             ........                                             ........                        ........                                         ........                                 ........                ........                ........             ........             ........                        ........             ........                                              ",
"........                        ........             ........                                             ........                        ........             ........                        ........             ........                                             ........                        ........                                         ........                                 ........                ........                ........             ........             ........                        ........             ........                                              ",
"........                        ........             ........                                             ........                        ........             ........                        ........             ........                                             ........                        ........                                         ........                                 ........                ........                ........             ........             ........                        ........             ........                                              ",
"........                        ........             ........                                             ........                        ........             ........                        ........             ........                                             ........                        ........                                         ........                                 ........                ........                ........             ........             ........                        ........             ........                                              ",
"........                        ........             ........                                             ........                        ........             ........                        ........             ........                                             ........                        ........                                         ........                                 ........                ........                ........             ........             ........                        ........             ........                                              ",
"........................................             ........                                             ........................................             ........................................             ........................................             ........................................                                         ........                                 ........                ........                ........             ........             ........                        ........             ...................................                   ",
"........................................             ........                                             ........................................             ........................................             ........................................             ........................................                                         ........                                 ........                ........                ........             ........             ........                        ........             .....................................                 ",
"........................................             ........                                             ........................................             ........................................             ........................................             .......................................                                          ........                                 ........                ........                ........             ........             ........                        ........             ......................................                ",
".......................................              ........                                             ........................................              ......................................              ........................................             ......................................                                           ........                                 ........                ........                ........             ........             ........                        ........              ......................................               ",
".......................................              ........                                             ........................................              ......................................              ........................................             ......................................                                           ........                                 ........                ........                ........             ........             ........                        ........              ......................................               ",
"......................................               ........                                             ........................................               ....................................               ........................................             .......................................                                          ........                                 ........                ........                ........             ........             ........                        ........               ......................................              ",
".....................................                ........                                             ........................................                ..................................                ........................................             ........................................                                         ........                                 ........                ........                ........             ........             ........                        ........                .....................................              ",
"...................................                  ........                                             ........................................                  ..............................                  ........................................             ........................................                                         ........                                 ........                ........                ........             ........             ........                        ........                  ...................................              ",
"........                                             ........                                             ........                        ........                             ........                             ........                                             ........                        ........                                         ........                                 ........                ........                ........             ........             ........                        ........                                             ........              ",
"........                                             ........                                             ........                        ........                             ........                             ........                                             ........                        ........                                         ........                                 ........                ........                ........             ........             ........                        ........                                             ........              ",
"........                                             ........                                             ........                        ........                             ........                             ........                                             ........                        ........                                         ........                                 ........                ........                ........             ........             ........                        ........                                             ........              ",
"........                                             ........                                             ........                        ........                             ........                             ........                                             ........                        ........                                         ........                                 ........                ........                ........             ........             ........                        ........                                             ........              ",
"........                                             ........                                             ........                        ........                             ........                             ........                                             ........                        ........                                         ........                                 ........                ........                ........             ........             ........                        ........                                             ........              ",
"........                                             ........                                             ........                        ........                             ........                             ........                                             ........                        ........                                         ........                                 ........                ........                ........             ........             ........                        ........                                             ........              ",
"........                                             ........                                             ........                        ........                             ........                             ........                                             ........                        ........                                         ........                                 ........                ........                ........             ........             ........                        ........                                             ........              ",
"........                                             ........                                             ........                        ........                             ........                             ........                                             ........                        ........                                         ........                                 ........                ........                ........             ........             ........                        ........                                             ........              ",
"........                                             ........................................             ........                        ........                             ........                             ........................................             ........                        ........                                         ........                                 ........................................................             ........             ........                        ........             ........................................              ",
"........                                             ........................................             ........                        ........                             ........                             ........................................             ........                        ........                                         ........                                 ........................................................             ........             ........                        ........             ........................................              ",
"........                                             ........................................             ........                        ........                             ........                             ........................................             ........                        ........                                         ........                                 ........................................................             ........             ........                        ........             ........................................              ",
"........                                              .......................................             ........                        ........                             ........                              .......................................             ........                        ........                                         ........                                  ......................................................              ........             ........                        ........             .......................................               ",
"........                                              .......................................             ........                        ........                             ........                              .......................................             ........                        ........                                         ........                                  ......................................................              ........             ........                        ........             .......................................               ",
"........                                               ......................................             ........                        ........                             ........                               ......................................             ........                        ........                                         ........                                   ....................................................               ........             ........                        ........             ......................................                ",
"........                                                .....................................             ........                        ........                             ........                                .....................................             ........                        ........                                         ........                                    ..................................................                ........             ........                        ........             .....................................                 ",
"........                                                  ...................................             ........                        ........                             ........                                  ...................................             ........                        ........                                         ........                                      ..............................................                  ........             ........                        ........             ...................................                   ",
"                                                                                                                                                                                                                                                                                                                                                                                                                                                                                                                                                                                                        ",
"                                                                                                                                                                                                                                                                                                                                                                                                                                                                                                                                                                                                        ",
"                                                                                                                                                                                                                                                                                                                                                                                                                                                                                                                                                                                                        ",
"                                                                                                                                                                                                                                                                                                                                                                                                                                                                                                                                                                                                        ",
"                                                                                                                                                                                                                                                                                                                                                                                                                                                                                                                                                                                                        ",
"                                                                                                                                                                                                                                                                                                                                                                                                                                                                                                                                                                                                        ",
"                                                                                                                                                                                                                                                                                                                                                                                                                                                                                                                                                                                                        ",
"                                                                                                                                                                                                                                                                                                                                                                                                                                                                                                                                                                                                        ",
"                                                                                                                                                                                                                                                                                                                                                                                                                                                                                                                                                                                                        ",
"                                                                                                                                                                                                                                                                                                                                                                                                                                                                                                                                                                                                        ",
"                                                                                                                                                                                                                                                                                                                                                                                                                                                                                                                                                                                                        ",
"                                                                                                                                                                                                                                                                                                                                                                                                                                                                                                                                                                                                        ",
"                                                                                                                                                                                                                                                                                                                                                                                                                                                                                                                                                                                                        ",
"                                                                                                                                                                                                                                                                                                                                                                                                                                                                                                                                                                                                        ",
"                                                                                                                                                                                                                                                                                                                                                                                                                                                                                                                                                                                                        ",
"                                                                                                                                                                                                                                                                                                                                                                                                                                                                                                                                                                                                        ",
"                                                                                                                                                                                                                                                                                                                                                                                                                                                                                                                                                                                                        "
};
