/* XPM */
static char *play[] = {
/* columns rows colors chars-per-pixel */
"213 73 2 1 ",
"  c None",
". c #FFFFFF",
/* pixels */
"                                                                                                                                                                                                                     ",
"                                                                                                                                                                                                                     ",
"                                                                                                                                                                                                                     ",
"                                                                                                                                                                                                                     ",
"                                                                                                                                                                                                                     ",
"                                                                                                                                                                                                                     ",
"                                                                                                                                                                                                                     ",
"                                                                                                                                                                                                                     ",
"                                                                                                                                                                                                                     ",
"                                                                                                                                                                                                                     ",
"                                                                                                                                                                                                                     ",
"                                                                                                                                                                                                                     ",
"                                                                                                                                                                                                                     ",
"                                                                                                                                                                                                                     ",
"                                                                                                                                                                                                                     ",
"                                                                                                                                                                                                                     ",
"...................................                  ........                                                  ..............................                  ........                        ........              ",
".....................................                ........                                                ..................................                ........                        ........              ",
"......................................               ........                                               ....................................               ........                        ........              ",
".......................................              ........                                              ......................................              ........                        ........              ",
".......................................              ........                                              ......................................              ........                        ........              ",
"........................................             ........                                             ........................................             ........                        ........              ",
"........................................             ........                                             ........................................             ........                        ........              ",
"........................................             ........                                             ........................................             ........                        ........              ",
"........                        ........             ........                                             ........                        ........             ........                        ........              ",
"........                        ........             ........                                             ........                        ........             ........                        ........              ",
"........                        ........             ........                                             ........                        ........             ........                        ........              ",
"........                        ........             ........                                             ........                        ........             ........                        ........              ",
"........                        ........             ........                                             ........                        ........             ........                        ........              ",
"........                        ........             ........                                             ........                        ........             ........                        ........              ",
"........                        ........             ........                                             ........                        ........             ........                        ........              ",
"........                        ........             ........                                             ........                        ........             ........                        ........              ",
"........................................             ........                                             ........................................             ........................................              ",
"........................................             ........                                             ........................................             ........................................              ",
"........................................             ........                                             ........................................             ........................................              ",
".......................................              ........                                             ........................................              ......................................               ",
".......................................              ........                                             ........................................              ......................................               ",
"......................................               ........                                             ........................................               ....................................                ",
".....................................                ........                                             ........................................                ..................................                 ",
"...................................                  ........                                             ........................................                  ..............................                   ",
"........                                             ........                                             ........                        ........                             ........                              ",
"........                                             ........                                             ........                        ........                             ........                              ",
"........                                             ........                                             ........                        ........                             ........                              ",
"........                                             ........                                             ........                        ........                             ........                              ",
"........                                             ........                                             ........                        ........                             ........                              ",
"........                                             ........                                             ........                        ........                             ........                              ",
"........                                             ........                                             ........                        ........                             ........                              ",
"........                                             ........                                             ........                        ........                             ........                              ",
"........                                             ........................................             ........                        ........                             ........                              ",
"........                                             ........................................             ........                        ........                             ........                              ",
"........                                             ........................................             ........                        ........                             ........                              ",
"........                                              .......................................             ........                        ........                             ........                              ",
"........                                              .......................................             ........                        ........                             ........                              ",
"........                                               ......................................             ........                        ........                             ........                              ",
"........                                                .....................................             ........                        ........                             ........                              ",
"........                                                  ...................................             ........                        ........                             ........                              ",
"                                                                                                                                                                                                                     ",
"                                                                                                                                                                                                                     ",
"                                                                                                                                                                                                                     ",
"                                                                                                                                                                                                                     ",
"                                                                                                                                                                                                                     ",
"                                                                                                                                                                                                                     ",
"                                                                                                                                                                                                                     ",
"                                                                                                                                                                                                                     ",
"                                                                                                                                                                                                                     ",
"                                                                                                                                                                                                                     ",
"                                                                                                                                                                                                                     ",
"                                                                                                                                                                                                                     ",
"                                                                                                                                                                                                                     ",
"                                                                                                                                                                                                                     ",
"                                                                                                                                                                                                                     ",
"                                                                                                                                                                                                                     ",
"                                                                                                                                                                                                                     "
};
