/* XPM */
static char *player2_wins[] = {
/* columns rows colors chars-per-pixel */
"608 73 2 1 ",
"  c None",
". c #FFFFFF",
/* pixels */
"                                                                                                                                                                                                                                                                                                                                                                                                                                                                                                                                                                                                                                ",
"                                                                                                                                                                                                                                                                                                                                                                                                                                                                                                                                                                                                                                ",
"                                                                                                                                                                                                                                                                                                                                                                                                                                                                                                                                                                                                                                ",
"                                                                                                                                                                                                                                                                                                                                                                                                                                                                                                                                                                                                                                ",
"                                                                                                                                                                                                                                                                                                                                                                                                                                                                                                                                                                                                                                ",
"                                                                                                                                                                                                                                                                                                                                                                                                                                                                                                                                                                                                                                ",
"                                                                                                                                                                                                                                                                                                                                                                                                                                                                                                                                                                                                                                ",
"                                                                                                                                                                                                                                                                                                                                                                                                                                                                                                                                                                                                                                ",
"                                                                                                                                                                                                                                                                                                                                                                                                                                                                                                                                                                                                                                ",
"                                                                                                                                                                                                                                                                                                                                                                                                                                                                                                                                                                                                                                ",
"                                                                                                                                                                                                                                                                                                                                                                                                                                                                                                                                                                                                                                ",
"                                                                                                                                                                                                                                                                                                                                                                                                                                                                                                                                                                                                                                ",
"                                                                                                                                                                                                                                                                                                                                                                                                                                                                                                                                                                                                                                ",
"                                                                                                                                                                                                                                                                                                                                                                                                                                                                                                                                                                                                                                ",
"                                                                                                                                                                                                                                                                                                                                                                                                                                                                                                                                                                                                                                ",
"                                                                                                                                                                                                                                                                                                                                                                                                                                                                                                                                                                                                                                ",
"...................................                  ........                                                  ..............................                  ........                        ........                  ...................................             ...................................                                      ...................................                                      ........                ........                ........             ........             ...................................                       ...................................              ",
".....................................                ........                                                ..................................                ........                        ........                .....................................             .....................................                                    .....................................                                    ........                ........                ........             ........             .....................................                   .....................................              ",
"......................................               ........                                               ....................................               ........                        ........               ......................................             ......................................                                   ......................................                                   ........                ........                ........             ........             ......................................                 ......................................              ",
".......................................              ........                                              ......................................              ........                        ........              .......................................             .......................................                                  .......................................                                  ........                ........                ........             ........             .......................................               .......................................              ",
".......................................              ........                                              ......................................              ........                        ........              .......................................             .......................................                                  .......................................                                  ........                ........                ........             ........             .......................................               .......................................              ",
"........................................             ........                                             ........................................             ........                        ........             ........................................             ........................................                                 ........................................                                 ........                ........                ........             ........             ........................................             ........................................              ",
"........................................             ........                                             ........................................             ........                        ........             ........................................             ........................................                                 ........................................                                 ........                ........                ........             ........             ........................................             ........................................              ",
"........................................             ........                                             ........................................             ........                        ........             ........................................             ........................................                                 ........................................                                 ........                ........                ........             ........             ........................................             ........................................              ",
"........                        ........             ........                                             ........                        ........             ........                        ........             ........                                             ........                        ........                                                                 ........                                 ........                ........                ........             ........             ........                        ........             ........                                              ",
"........                        ........             ........                                             ........                        ........             ........                        ........             ........                                             ........                        ........                                                                 ........                                 ........                ........                ........             ........             ........                        ........             ........                                              ",
"........                        ........             ........                                             ........                        ........             ........                        ........             ........                                             ........                        ........                                                                 ........                                 ........                ........                ........             ........             ........                        ........             ........                                              ",
"........                        ........             ........                                             ........                        ........             ........                        ........             ........                                             ........                        ........                                                                 ........                                 ........                ........                ........             ........             ........                        ........             ........                                              ",
"........                        ........             ........                                             ........                        ........             ........                        ........             ........                                             ........                        ........                                                                 ........                                 ........                ........                ........             ........             ........                        ........             ........                                              ",
"........                        ........             ........                                             ........                        ........             ........                        ........             ........                                             ........                        ........                                                                 ........                                 ........                ........                ........             ........             ........                        ........             ........                                              ",
"........                        ........             ........                                             ........                        ........             ........                        ........             ........                                             ........                        ........                                                                 ........                                 ........                ........                ........             ........             ........                        ........             ........                                              ",
"........                        ........             ........                                             ........                        ........             ........                        ........             ........                                             ........                        ........                                                                 ........                                 ........                ........                ........             ........             ........                        ........             ........                                              ",
"........................................             ........                                             ........................................             ........................................             ........................................             ........................................                                      ...................................                                 ........                ........                ........             ........             ........                        ........             ...................................                   ",
"........................................             ........                                             ........................................             ........................................             ........................................             ........................................                                    .....................................                                 ........                ........                ........             ........             ........                        ........             .....................................                 ",
"........................................             ........                                             ........................................             ........................................             ........................................             .......................................                                    ......................................                                 ........                ........                ........             ........             ........                        ........             ......................................                ",
".......................................              ........                                             ........................................              ......................................              ........................................             ......................................                                    ......................................                                  ........                ........                ........             ........             ........                        ........              ......................................               ",
".......................................              ........                                             ........................................              ......................................              ........................................             ......................................                                    ......................................                                  ........                ........                ........             ........             ........                        ........              ......................................               ",
"......................................               ........                                             ........................................               ....................................               ........................................             .......................................                                  ......................................                                   ........                ........                ........             ........             ........                        ........               ......................................              ",
".....................................                ........                                             ........................................                ..................................                ........................................             ........................................                                 .....................................                                    ........                ........                ........             ........             ........                        ........                .....................................              ",
"...................................                  ........                                             ........................................                  ..............................                  ........................................             ........................................                                 ...................................                                      ........                ........                ........             ........             ........                        ........                  ...................................              ",
"........                                             ........                                             ........                        ........                             ........                             ........                                             ........                        ........                                 ........                                                                 ........                ........                ........             ........             ........                        ........                                             ........              ",
"........                                             ........                                             ........                        ........                             ........                             ........                                             ........                        ........                                 ........                                                                 ........                ........                ........             ........             ........                        ........                                             ........              ",
"........                                             ........                                             ........                        ........                             ........                             ........                                             ........                        ........                                 ........                                                                 ........                ........                ........             ........             ........                        ........                                             ........              ",
"........                                             ........                                             ........                        ........                             ........                             ........                                             ........                        ........                                 ........                                                                 ........                ........                ........             ........             ........                        ........                                             ........              ",
"........                                             ........                                             ........                        ........                             ........                             ........                                             ........                        ........                                 ........                                                                 ........                ........                ........             ........             ........                        ........                                             ........              ",
"........                                             ........                                             ........                        ........                             ........                             ........                                             ........                        ........                                 ........                                                                 ........                ........                ........             ........             ........                        ........                                             ........              ",
"........                                             ........                                             ........                        ........                             ........                             ........                                             ........                        ........                                 ........                                                                 ........                ........                ........             ........             ........                        ........                                             ........              ",
"........                                             ........                                             ........                        ........                             ........                             ........                                             ........                        ........                                 ........                                                                 ........                ........                ........             ........             ........                        ........                                             ........              ",
"........                                             ........................................             ........                        ........                             ........                             ........................................             ........                        ........                                 ........................................                                 ........................................................             ........             ........                        ........             ........................................              ",
"........                                             ........................................             ........                        ........                             ........                             ........................................             ........                        ........                                 ........................................                                 ........................................................             ........             ........                        ........             ........................................              ",
"........                                             ........................................             ........                        ........                             ........                             ........................................             ........                        ........                                 ........................................                                 ........................................................             ........             ........                        ........             ........................................              ",
"........                                              .......................................             ........                        ........                             ........                              .......................................             ........                        ........                                  .......................................                                  ......................................................              ........             ........                        ........             .......................................               ",
"........                                              .......................................             ........                        ........                             ........                              .......................................             ........                        ........                                  .......................................                                  ......................................................              ........             ........                        ........             .......................................               ",
"........                                               ......................................             ........                        ........                             ........                               ......................................             ........                        ........                                   ......................................                                   ....................................................               ........             ........                        ........             ......................................                ",
"........                                                .....................................             ........                        ........                             ........                                .....................................             ........                        ........                                    .....................................                                    ..................................................                ........             ........                        ........             .....................................                 ",
"........                                                  ...................................             ........                        ........                             ........                                  ...................................             ........                        ........                                      ...................................                                      ..............................................                  ........             ........                        ........             ...................................                   ",
"                                                                                                                                                                                                                                                                                                                                                                                                                                                                                                                                                                                                                                ",
"                                                                                                                                                                                                                                                                                                                                                                                                                                                                                                                                                                                                                                ",
"                                                                                                                                                                                                                                                                                                                                                                                                                                                                                                                                                                                                                                ",
"                                                                                                                                                                                                                                                                                                                                                                                                                                                                                                                                                                                                                                ",
"                                                                                                                                                                                                                                                                                                                                                                                                                                                                                                                                                                                                                                ",
"                                                                                                                                                                                                                                                                                                                                                                                                                                                                                                                                                                                                                                ",
"                                                                                                                                                                                                                                                                                                                                                                                                                                                                                                                                                                                                                                ",
"                                                                                                                                                                                                                                                                                                                                                                                                                                                                                                                                                                                                                                ",
"                                                                                                                                                                                                                                                                                                                                                                                                                                                                                                                                                                                                                                ",
"                                                                                                                                                                                                                                                                                                                                                                                                                                                                                                                                                                                                                                ",
"                                                                                                                                                                                                                                                                                                                                                                                                                                                                                                                                                                                                                                ",
"                                                                                                                                                                                                                                                                                                                                                                                                                                                                                                                                                                                                                                ",
"                                                                                                                                                                                                                                                                                                                                                                                                                                                                                                                                                                                                                                ",
"                                                                                                                                                                                                                                                                                                                                                                                                                                                                                                                                                                                                                                ",
"                                                                                                                                                                                                                                                                                                                                                                                                                                                                                                                                                                                                                                ",
"                                                                                                                                                                                                                                                                                                                                                                                                                                                                                                                                                                                                                                ",
"                                                                                                                                                                                                                                                                                                                                                                                                                                                                                                                                                                                                                                "
};
