/* XPM */
static char *press_esc_to_exit[] = {
/* columns rows colors chars-per-pixel */
"582 55 2 1 ",
"  c None",
". c #FFFFFF",
/* pixels */
"                                                                                                                                                                                                                                                                                                                                                                                                                                                                                                                                                                                                      ",
"                                                                                                                                                                                                                                                                                                                                                                                                                                                                                                                                                                                                      ",
"                                                                                                                                                                                                                                                                                                                                                                                                                                                                                                                                                                                                      ",
"                                                                                                                                                                                                                                                                                                                                                                                                                                                                                                                                                                                                      ",
"                                                                                                                                                                                                                                                                                                                                                                                                                                                                                                                                                                                                      ",
"                                                                                                                                                                                                                                                                                                                                                                                                                                                                                                                                                                                                      ",
"                                                                                                                                                                                                                                                                                                                                                                                                                                                                                                                                                                                                      ",
"                                                                                                                                                                                                                                                                                                                                                                                                                                                                                                                                                                                                      ",
"                                                                                                                                                                                                                                                                                                                                                                                                                                                                                                                                                                                                      ",
"                                                                                                                                                                                                                                                                                                                                                                                                                                                                                                                                                                                                      ",
"                                                                                                                                                                                                                                                                                                                                                                                                                                                                                                                                                                                                      ",
"                                                                                                                                                                                                                                                                                                                                                                                                                                                                                                                                                                                                      ",
"..........................              ..........................                  ..........................              ..........................              ..........................                             ..........................              ..........................              ......................                             ..............................              ......................                                 ..........................          ......                  ......          ......          ..............................           ",
"............................            ............................              ............................            ............................            ............................                           ............................            ............................            ..........................                           ..............................            ..........................                             ............................          ......                  ......          ......          ..............................           ",
".............................           .............................            .............................           .............................           .............................                          .............................           .............................           ............................                          ..............................           ............................                           .............................          ......                  ......          ......          ..............................           ",
".............................           .............................            .............................           .............................           .............................                          .............................           .............................           ............................                          ..............................           ............................                           .............................          ......                  ......          ......          ..............................           ",
"..............................          ..............................          ..............................          ..............................          ..............................                         ..............................          ..............................          ..............................                         ..............................          ..............................                         ..............................          ......                  ......          ......          ..............................           ",
"..............................          ..............................          ..............................          ..............................          ..............................                         ..............................          ..............................          ..............................                         ..............................          ..............................                         ..............................          ......                  ......          ......          ..............................           ",
"......                  ......          ......                  ......          ......                                  ......                                  ......                                                 ......                                  ......                                  ......                  ......                                     ......                      ......                  ......                         ......                                  ......                  ......          ......                      ......                       ",
"......                  ......          ......                  ......          ......                                  ......                                  ......                                                 ......                                  ......                                  ......                  ......                                     ......                      ......                  ......                         ......                                  ......                  ......          ......                      ......                       ",
"......                  ......          ......                  ......          ......                                  ......                                  ......                                                 ......                                  ......                                  ......                  ......                                     ......                      ......                  ......                         ......                                  ......                  ......          ......                      ......                       ",
"......                  ......          ......                  ......          ......                                  ......                                  ......                                                 ......                                  ......                                  ......                  ......                                     ......                      ......                  ......                         ......                                  ......                  ......          ......                      ......                       ",
"......                  ......          ......                  ......          ......                                  ......                                  ......                                                 ......                                  ......                                  ......                  ......                                     ......                      ......                  ......                         ......                                  ......                  ......          ......                      ......                       ",
"......                  ......          ......                  ......          ......                                  ......                                  ......                                                 ......                                  ......                                  ......                  ......                                     ......                      ......                  ......                         ......                                  ......                  ......          ......                      ......                       ",
"..............................          ..............................          ..............................          ..........................              ..........................                             ..............................          ..........................              ......                                                             ......                      ......                  ......                         ..............................          ..............................          ......                      ......                       ",
"..............................          ..............................          ..............................          ............................            ............................                           ..............................          ............................            ......                                                             ......                      ......                  ......                         ..............................          ..............................          ......                      ......                       ",
".............................           .............................           ..............................           ............................            ............................                          ..............................           ............................           ......                                                             ......                      ......                  ......                         ..............................           ............................           ......                      ......                       ",
".............................           .............................           ..............................           ............................            ............................                          ..............................           ............................           ......                                                             ......                      ......                  ......                         ..............................           ............................           ......                      ......                       ",
"............................            ..............................          ..............................            ............................            ............................                         ..............................            ............................          ......                                                             ......                      ......                  ......                         ..............................          ..............................          ......                      ......                       ",
"..........................              ..............................          ..............................              ..........................              ..........................                         ..............................              ..........................          ......                                                             ......                      ......                  ......                         ..............................          ..............................          ......                      ......                       ",
"......                                  ......                  ......          ......                                                          ......                                  ......                         ......                                                          ......          ......                  ......                                     ......                      ......                  ......                         ......                                  ......                  ......          ......                      ......                       ",
"......                                  ......                  ......          ......                                                          ......                                  ......                         ......                                                          ......          ......                  ......                                     ......                      ......                  ......                         ......                                  ......                  ......          ......                      ......                       ",
"......                                  ......                  ......          ......                                                          ......                                  ......                         ......                                                          ......          ......                  ......                                     ......                      ......                  ......                         ......                                  ......                  ......          ......                      ......                       ",
"......                                  ......                  ......          ......                                                          ......                                  ......                         ......                                                          ......          ......                  ......                                     ......                      ......                  ......                         ......                                  ......                  ......          ......                      ......                       ",
"......                                  ......                  ......          ......                                                          ......                                  ......                         ......                                                          ......          ......                  ......                                     ......                      ......                  ......                         ......                                  ......                  ......          ......                      ......                       ",
"......                                  ......                  ......          ......                                                          ......                                  ......                         ......                                                          ......          ......                  ......                                     ......                      ......                  ......                         ......                                  ......                  ......          ......                      ......                       ",
"......                                  ......                  ......          ..............................          ..............................          ..............................                         ..............................          ..............................          ..............................                                     ......                      ..............................                         ..............................          ......                  ......          ......                      ......                       ",
"......                                  ......                  ......          ..............................          ..............................          ..............................                         ..............................          ..............................          ..............................                                     ......                      ..............................                         ..............................          ......                  ......          ......                      ......                       ",
"......                                  ......                  ......           .............................          .............................           .............................                           .............................          .............................            ............................                                      ......                       ............................                           .............................          ......                  ......          ......                      ......                       ",
"......                                  ......                  ......           .............................          .............................           .............................                           .............................          .............................            ............................                                      ......                       ............................                           .............................          ......                  ......          ......                      ......                       ",
"......                                  ......                  ......            ............................          ............................            ............................                             ............................          ............................              ..........................                                       ......                        ..........................                             ............................          ......                  ......          ......                      ......                       ",
"......                                  ......                  ......              ..........................          ..........................              ..........................                                 ..........................          ..........................                  ......................                                         ......                          ......................                                 ..........................          ......                  ......          ......                      ......                       ",
"                                                                                                                                                                                                                                                                                                                                                                                                                                                                                                                                                                                                      ",
"                                                                                                                                                                                                                                                                                                                                                                                                                                                                                                                                                                                                      ",
"                                                                                                                                                                                                                                                                                                                                                                                                                                                                                                                                                                                                      ",
"                                                                                                                                                                                                                                                                                                                                                                                                                                                                                                                                                                                                      ",
"                                                                                                                                                                                                                                                                                                                                                                                                                                                                                                                                                                                                      ",
"                                                                                                                                                                                                                                                                                                                                                                                                                                                                                                                                                                                                      ",
"                                                                                                                                                                                                                                                                                                                                                                                                                                                                                                                                                                                                      ",
"                                                                                                                                                                                                                                                                                                                                                                                                                                                                                                                                                                                                      ",
"                                                                                                                                                                                                                                                                                                                                                                                                                                                                                                                                                                                                      ",
"                                                                                                                                                                                                                                                                                                                                                                                                                                                                                                                                                                                                      ",
"                                                                                                                                                                                                                                                                                                                                                                                                                                                                                                                                                                                                      ",
"                                                                                                                                                                                                                                                                                                                                                                                                                                                                                                                                                                                                      ",
"                                                                                                                                                                                                                                                                                                                                                                                                                                                                                                                                                                                                      "
};
