/* XPM */
static char *press_enter[] = {
/* columns rows colors chars-per-pixel */
"416 55 2 1 ",
"  c None",
". c #FFFFFF",
/* pixels */
"                                                                                                                                                                                                                                                                                                                                                                                                                                ",
"                                                                                                                                                                                                                                                                                                                                                                                                                                ",
"                                                                                                                                                                                                                                                                                                                                                                                                                                ",
"                                                                                                                                                                                                                                                                                                                                                                                                                                ",
"                                                                                                                                                                                                                                                                                                                                                                                                                                ",
"                                                                                                                                                                                                                                                                                                                                                                                                                                ",
"                                                                                                                                                                                                                                                                                                                                                                                                                                ",
"                                                                                                                                                                                                                                                                                                                                                                                                                                ",
"                                                                                                                                                                                                                                                                                                                                                                                                                                ",
"                                                                                                                                                                                                                                                                                                                                                                                                                                ",
"                                                                                                                                                                                                                                                                                                                                                                                                                                ",
"                                                                                                                                                                                                                                                                                                                                                                                                                                ",
"..........................              ..........................                  ..........................              ..........................              ..........................                             ..........................          ..........................              ..............................              ..........................          ..........................               ",
"............................            ............................              ............................            ............................            ............................                           ............................          ............................            ..............................            ............................          ............................             ",
".............................           .............................            .............................           .............................           .............................                          .............................          .............................           ..............................           .............................          .............................            ",
".............................           .............................            .............................           .............................           .............................                          .............................          .............................           ..............................           .............................          .............................            ",
"..............................          ..............................          ..............................          ..............................          ..............................                         ..............................          ..............................          ..............................          ..............................          ..............................           ",
"..............................          ..............................          ..............................          ..............................          ..............................                         ..............................          ..............................          ..............................          ..............................          ..............................           ",
"......                  ......          ......                  ......          ......                                  ......                                  ......                                                 ......                                  ......                  ......                      ......                      ......                                  ......                  ......           ",
"......                  ......          ......                  ......          ......                                  ......                                  ......                                                 ......                                  ......                  ......                      ......                      ......                                  ......                  ......           ",
"......                  ......          ......                  ......          ......                                  ......                                  ......                                                 ......                                  ......                  ......                      ......                      ......                                  ......                  ......           ",
"......                  ......          ......                  ......          ......                                  ......                                  ......                                                 ......                                  ......                  ......                      ......                      ......                                  ......                  ......           ",
"......                  ......          ......                  ......          ......                                  ......                                  ......                                                 ......                                  ......                  ......                      ......                      ......                                  ......                  ......           ",
"......                  ......          ......                  ......          ......                                  ......                                  ......                                                 ......                                  ......                  ......                      ......                      ......                                  ......                  ......           ",
"..............................          ..............................          ..............................          ..........................              ..........................                             ..............................          ......                  ......                      ......                      ..............................          ..............................           ",
"..............................          ..............................          ..............................          ............................            ............................                           ..............................          ......                  ......                      ......                      ..............................          ..............................           ",
".............................           .............................           ..............................           ............................            ............................                          ..............................          ......                  ......                      ......                      ..............................          .............................            ",
".............................           .............................           ..............................           ............................            ............................                          ..............................          ......                  ......                      ......                      ..............................          .............................            ",
"............................            ..............................          ..............................            ............................            ............................                         ..............................          ......                  ......                      ......                      ..............................          ..............................           ",
"..........................              ..............................          ..............................              ..........................              ..........................                         ..............................          ......                  ......                      ......                      ..............................          ..............................           ",
"......                                  ......                  ......          ......                                                          ......                                  ......                         ......                                  ......                  ......                      ......                      ......                                  ......                  ......           ",
"......                                  ......                  ......          ......                                                          ......                                  ......                         ......                                  ......                  ......                      ......                      ......                                  ......                  ......           ",
"......                                  ......                  ......          ......                                                          ......                                  ......                         ......                                  ......                  ......                      ......                      ......                                  ......                  ......           ",
"......                                  ......                  ......          ......                                                          ......                                  ......                         ......                                  ......                  ......                      ......                      ......                                  ......                  ......           ",
"......                                  ......                  ......          ......                                                          ......                                  ......                         ......                                  ......                  ......                      ......                      ......                                  ......                  ......           ",
"......                                  ......                  ......          ......                                                          ......                                  ......                         ......                                  ......                  ......                      ......                      ......                                  ......                  ......           ",
"......                                  ......                  ......          ..............................          ..............................          ..............................                         ..............................          ......                  ......                      ......                      ..............................          ......                  ......           ",
"......                                  ......                  ......          ..............................          ..............................          ..............................                         ..............................          ......                  ......                      ......                      ..............................          ......                  ......           ",
"......                                  ......                  ......           .............................          .............................           .............................                           .............................          ......                  ......                      ......                       .............................          ......                  ......           ",
"......                                  ......                  ......           .............................          .............................           .............................                           .............................          ......                  ......                      ......                       .............................          ......                  ......           ",
"......                                  ......                  ......            ............................          ............................            ............................                             ............................          ......                  ......                      ......                        ............................          ......                  ......           ",
"......                                  ......                  ......              ..........................          ..........................              ..........................                                 ..........................          ......                  ......                      ......                          ..........................          ......                  ......           ",
"                                                                                                                                                                                                                                                                                                                                                                                                                                ",
"                                                                                                                                                                                                                                                                                                                                                                                                                                ",
"                                                                                                                                                                                                                                                                                                                                                                                                                                ",
"                                                                                                                                                                                                                                                                                                                                                                                                                                ",
"                                                                                                                                                                                                                                                                                                                                                                                                                                ",
"                                                                                                                                                                                                                                                                                                                                                                                                                                ",
"                                                                                                                                                                                                                                                                                                                                                                                                                                ",
"                                                                                                                                                                                                                                                                                                                                                                                                                                ",
"                                                                                                                                                                                                                                                                                                                                                                                                                                ",
"                                                                                                                                                                                                                                                                                                                                                                                                                                ",
"                                                                                                                                                                                                                                                                                                                                                                                                                                ",
"                                                                                                                                                                                                                                                                                                                                                                                                                                ",
"                                                                                                                                                                                                                                                                                                                                                                                                                                "
};
