/* XPM */
static char *resume[] = {
/* columns rows colors chars-per-pixel */
"335 73 2 1 ",
"  c None",
". c #FFFFFF",
/* pixels */
"                                                                                                                                                                                                                                                                                                                                               ",
"                                                                                                                                                                                                                                                                                                                                               ",
"                                                                                                                                                                                                                                                                                                                                               ",
"                                                                                                                                                                                                                                                                                                                                               ",
"                                                                                                                                                                                                                                                                                                                                               ",
"                                                                                                                                                                                                                                                                                                                                               ",
"                                                                                                                                                                                                                                                                                                                                               ",
"                                                                                                                                                                                                                                                                                                                                               ",
"                                                                                                                                                                                                                                                                                                                                               ",
"                                                                                                                                                                                                                                                                                                                                               ",
"                                                                                                                                                                                                                                                                                                                                               ",
"                                                                                                                                                                                                                                                                                                                                               ",
"                                                                                                                                                                                                                                                                                                                                               ",
"                                                                                                                                                                                                                                                                                                                                               ",
"                                                                                                                                                                                                                                                                                                                                               ",
"                                                                                                                                                                                                                                                                                                                                               ",
"...................................                       ...................................                  ...................................             ........                        ........             ...................................................                       ...................................              ",
".....................................                   .....................................                .....................................             ........                        ........             .....................................................                   .....................................              ",
"......................................                 ......................................               ......................................             ........                        ........             ......................................................                 ......................................              ",
".......................................               .......................................              .......................................             ........                        ........             .......................................................               .......................................              ",
".......................................               .......................................              .......................................             ........                        ........             .......................................................               .......................................              ",
"........................................             ........................................             ........................................             ........                        ........             ........................................................             ........................................              ",
"........................................             ........................................             ........................................             ........                        ........             ........................................................             ........................................              ",
"........................................             ........................................             ........................................             ........                        ........             ........................................................             ........................................              ",
"........                        ........             ........                                             ........                                             ........                        ........             ........                ........                ........             ........                                              ",
"........                        ........             ........                                             ........                                             ........                        ........             ........                ........                ........             ........                                              ",
"........                        ........             ........                                             ........                                             ........                        ........             ........                ........                ........             ........                                              ",
"........                        ........             ........                                             ........                                             ........                        ........             ........                ........                ........             ........                                              ",
"........                        ........             ........                                             ........                                             ........                        ........             ........                ........                ........             ........                                              ",
"........                        ........             ........                                             ........                                             ........                        ........             ........                ........                ........             ........                                              ",
"........                        ........             ........                                             ........                                             ........                        ........             ........                ........                ........             ........                                              ",
"........                        ........             ........                                             ........                                             ........                        ........             ........                ........                ........             ........                                              ",
"........................................             ........................................             ...................................                  ........                        ........             ........                ........                ........             ........................................              ",
"........................................             ........................................             .....................................                ........                        ........             ........                ........                ........             ........................................              ",
".......................................              ........................................             ......................................               ........                        ........             ........                ........                ........             ........................................              ",
"......................................               ........................................              ......................................              ........                        ........             ........                ........                ........             ........................................              ",
"......................................               ........................................              ......................................              ........                        ........             ........                ........                ........             ........................................              ",
".......................................              ........................................               ......................................             ........                        ........             ........                ........                ........             ........................................              ",
"........................................             ........................................                .....................................             ........                        ........             ........                ........                ........             ........................................              ",
"........................................             ........................................                  ...................................             ........                        ........             ........                ........                ........             ........................................              ",
"........                        ........             ........                                                                             ........             ........                        ........             ........                ........                ........             ........                                              ",
"........                        ........             ........                                                                             ........             ........                        ........             ........                ........                ........             ........                                              ",
"........                        ........             ........                                                                             ........             ........                        ........             ........                ........                ........             ........                                              ",
"........                        ........             ........                                                                             ........             ........                        ........             ........                ........                ........             ........                                              ",
"........                        ........             ........                                                                             ........             ........                        ........             ........                ........                ........             ........                                              ",
"........                        ........             ........                                                                             ........             ........                        ........             ........                ........                ........             ........                                              ",
"........                        ........             ........                                                                             ........             ........                        ........             ........                ........                ........             ........                                              ",
"........                        ........             ........                                                                             ........             ........                        ........             ........                ........                ........             ........                                              ",
"........                        ........             ........................................             ........................................             ........................................             ........                ........                ........             ........................................              ",
"........                        ........             ........................................             ........................................             ........................................             ........                ........                ........             ........................................              ",
"........                        ........             ........................................             ........................................             ........................................             ........                ........                ........             ........................................              ",
"........                        ........              .......................................             .......................................               .......................................             ........                ........                ........              .......................................              ",
"........                        ........              .......................................             .......................................               .......................................             ........                ........                ........              .......................................              ",
"........                        ........               ......................................             ......................................                 ......................................             ........                ........                ........               ......................................              ",
"........                        ........                .....................................             .....................................                   .....................................             ........                ........                ........                .....................................              ",
"........                        ........                  ...................................             ...................................                       ...................................             ........                ........                ........                  ...................................              ",
"                                                                                                                                                                                                                                                                                                                                               ",
"                                                                                                                                                                                                                                                                                                                                               ",
"                                                                                                                                                                                                                                                                                                                                               ",
"                                                                                                                                                                                                                                                                                                                                               ",
"                                                                                                                                                                                                                                                                                                                                               ",
"                                                                                                                                                                                                                                                                                                                                               ",
"                                                                                                                                                                                                                                                                                                                                               ",
"                                                                                                                                                                                                                                                                                                                                               ",
"                                                                                                                                                                                                                                                                                                                                               ",
"                                                                                                                                                                                                                                                                                                                                               ",
"                                                                                                                                                                                                                                                                                                                                               ",
"                                                                                                                                                                                                                                                                                                                                               ",
"                                                                                                                                                                                                                                                                                                                                               ",
"                                                                                                                                                                                                                                                                                                                                               ",
"                                                                                                                                                                                                                                                                                                                                               ",
"                                                                                                                                                                                                                                                                                                                                               ",
"                                                                                                                                                                                                                                                                                                                                               "
};
