/* XPM */
static xpm_row_t const select_difficulty[] = {
/* columns rows colors chars-per-pixel */
"608 55 2 1 ",
"  c None",
". c #FFFFFF",
/* pixels */
"                                                                                                                                                                                                                                                                                                                                                                                                                                                                                                                                                                                                                                ",
"                                                                                                                                                                                                                                                                                                                                                                                                                                                                                                                                                                                                                                ",
"                                                                                                                                                                                                                                                                                                                                                                                                                                                                                                                                                                                                                                ",
"                                                                                                                                                                                                                                                                                                                                                                                                                                                                                                                                                                                                                                ",
"                                                                                                                                                                                                                                                                                                                                                                                                                                                                                                                                                                                                                                ",
"                                                                                                                                                                                                                                                                                                                                                                                                                                                                                                                                                                                                                                ",
"                                                                                                                                                                                                                                                                                                                                                                                                                                                                                                                                                                                                                                ",
"                                                                                                                                                                                                                                                                                                                                                                                                                                                                                                                                                                                                                                ",
"                                                                                                                                                                                                                                                                                                                                                                                                                                                                                                                                                                                                                                ",
"                                                                                                                                                                                                                                                                                                                                                                                                                                                                                                                                                                                                                                ",
"                                                                                                                                                                                                                                                                                                                                                                                                                                                                                                                                                                                                                                ",
"                                                                                                                                                                                                                                                                                                                                                                                                                                                                                                                                                                                                                                ",
"    ..........................              ..........................          ......                                      ..........................              ......................              ..............................                         ..........................              ......              ..........................              ..........................          ......              ......................              ......                  ......          ......                                  ..............................          ......                  ......           ",
"  ............................            ............................          ......                                    ............................            ..........................            ..............................                         ............................            ......            ............................            ............................          ......            ..........................            ......                  ......          ......                                  ..............................          ......                  ......           ",
" .............................           .............................          ......                                   .............................           ............................           ..............................                         .............................           ......           .............................           .............................          ......           ............................           ......                  ......          ......                                  ..............................          ......                  ......           ",
" .............................           .............................          ......                                   .............................           ............................           ..............................                         .............................           ......           .............................           .............................          ......           ............................           ......                  ......          ......                                  ..............................          ......                  ......           ",
"..............................          ..............................          ......                                  ..............................          ..............................          ..............................                         ..............................          ......          ..............................          ..............................          ......          ..............................          ......                  ......          ......                                  ..............................          ......                  ......           ",
"..............................          ..............................          ......                                  ..............................          ..............................          ..............................                         ..............................          ......          ..............................          ..............................          ......          ..............................          ......                  ......          ......                                  ..............................          ......                  ......           ",
"......                                  ......                                  ......                                  ......                                  ......                  ......                      ......                                     ......                  ......          ......          ......                                  ......                                  ......          ......                  ......          ......                  ......          ......                                              ......                      ......                  ......           ",
"......                                  ......                                  ......                                  ......                                  ......                  ......                      ......                                     ......                  ......          ......          ......                                  ......                                  ......          ......                  ......          ......                  ......          ......                                              ......                      ......                  ......           ",
"......                                  ......                                  ......                                  ......                                  ......                  ......                      ......                                     ......                  ......          ......          ......                                  ......                                  ......          ......                  ......          ......                  ......          ......                                              ......                      ......                  ......           ",
"......                                  ......                                  ......                                  ......                                  ......                  ......                      ......                                     ......                  ......          ......          ......                                  ......                                  ......          ......                  ......          ......                  ......          ......                                              ......                      ......                  ......           ",
"......                                  ......                                  ......                                  ......                                  ......                  ......                      ......                                     ......                  ......          ......          ......                                  ......                                  ......          ......                  ......          ......                  ......          ......                                              ......                      ......                  ......           ",
"......                                  ......                                  ......                                  ......                                  ......                  ......                      ......                                     ......                  ......          ......          ......                                  ......                                  ......          ......                  ......          ......                  ......          ......                                              ......                      ......                  ......           ",
"..........................              ..............................          ......                                  ..............................          ......                                              ......                                     ......                  ......          ......          ..............................          ..............................          ......          ......                                  ......                  ......          ......                                              ......                      ..............................           ",
"............................            ..............................          ......                                  ..............................          ......                                              ......                                     ......                  ......          ......          ..............................          ..............................          ......          ......                                  ......                  ......          ......                                              ......                      ..............................           ",
" ............................           ..............................          ......                                  ..............................          ......                                              ......                                     ......                  ......          ......          ..............................          ..............................          ......          ......                                  ......                  ......          ......                                              ......                       ............................            ",
" ............................           ..............................          ......                                  ..............................          ......                                              ......                                     ......                  ......          ......          ..............................          ..............................          ......          ......                                  ......                  ......          ......                                              ......                       ............................            ",
"  ............................          ..............................          ......                                  ..............................          ......                                              ......                                     ......                  ......          ......          ..............................          ..............................          ......          ......                                  ......                  ......          ......                                              ......                        ..........................             ",
"    ..........................          ..............................          ......                                  ..............................          ......                                              ......                                     ......                  ......          ......          ..............................          ..............................          ......          ......                                  ......                  ......          ......                                              ......                          ......................               ",
"                        ......          ......                                  ......                                  ......                                  ......                  ......                      ......                                     ......                  ......          ......          ......                                  ......                                  ......          ......                  ......          ......                  ......          ......                                              ......                                  ......                       ",
"                        ......          ......                                  ......                                  ......                                  ......                  ......                      ......                                     ......                  ......          ......          ......                                  ......                                  ......          ......                  ......          ......                  ......          ......                                              ......                                  ......                       ",
"                        ......          ......                                  ......                                  ......                                  ......                  ......                      ......                                     ......                  ......          ......          ......                                  ......                                  ......          ......                  ......          ......                  ......          ......                                              ......                                  ......                       ",
"                        ......          ......                                  ......                                  ......                                  ......                  ......                      ......                                     ......                  ......          ......          ......                                  ......                                  ......          ......                  ......          ......                  ......          ......                                              ......                                  ......                       ",
"                        ......          ......                                  ......                                  ......                                  ......                  ......                      ......                                     ......                  ......          ......          ......                                  ......                                  ......          ......                  ......          ......                  ......          ......                                              ......                                  ......                       ",
"                        ......          ......                                  ......                                  ......                                  ......                  ......                      ......                                     ......                  ......          ......          ......                                  ......                                  ......          ......                  ......          ......                  ......          ......                                              ......                                  ......                       ",
"..............................          ..............................          ..............................          ..............................          ..............................                      ......                                     ..............................          ......          ......                                  ......                                  ......          ..............................          ..............................          ..............................                      ......                                  ......                       ",
"..............................          ..............................          ..............................          ..............................          ..............................                      ......                                     ..............................          ......          ......                                  ......                                  ......          ..............................          ..............................          ..............................                      ......                                  ......                       ",
".............................            .............................           .............................           .............................           ............................                       ......                                     .............................           ......          ......                                  ......                                  ......           ............................            .............................           .............................                      ......                                  ......                       ",
".............................            .............................           .............................           .............................           ............................                       ......                                     .............................           ......          ......                                  ......                                  ......           ............................            .............................           .............................                      ......                                  ......                       ",
"............................              ............................            ............................            ............................            ..........................                        ......                                     ............................            ......          ......                                  ......                                  ......            ..........................              ............................            ............................                      ......                                  ......                       ",
"..........................                  ..........................              ..........................              ..........................              ......................                          ......                                     ..........................              ......          ......                                  ......                                  ......              ......................                  ..........................              ..........................                      ......                                  ......                       ",
"                                                                                                                                                                                                                                                                                                                                                                                                                                                                                                                                                                                                                                ",
"                                                                                                                                                                                                                                                                                                                                                                                                                                                                                                                                                                                                                                ",
"                                                                                                                                                                                                                                                                                                                                                                                                                                                                                                                                                                                                                                ",
"                                                                                                                                                                                                                                                                                                                                                                                                                                                                                                                                                                                                                                ",
"                                                                                                                                                                                                                                                                                                                                                                                                                                                                                                                                                                                                                                ",
"                                                                                                                                                                                                                                                                                                                                                                                                                                                                                                                                                                                                                                ",
"                                                                                                                                                                                                                                                                                                                                                                                                                                                                                                                                                                                                                                ",
"                                                                                                                                                                                                                                                                                                                                                                                                                                                                                                                                                                                                                                ",
"                                                                                                                                                                                                                                                                                                                                                                                                                                                                                                                                                                                                                                ",
"                                                                                                                                                                                                                                                                                                                                                                                                                                                                                                                                                                                                                                ",
"                                                                                                                                                                                                                                                                                                                                                                                                                                                                                                                                                                                                                                ",
"                                                                                                                                                                                                                                                                                                                                                                                                                                                                                                                                                                                                                                ",
"                                                                                                                                                                                                                                                                                                                                                                                                                                                                                                                                                                                                                                "
};
