/* XPM */
static xpm_row_t const start[] = {
/* columns rows colors chars-per-pixel */
"266 73 2 1 ",
"  c None",
". c #FFFFFF",
/* pixels */
"                                                                                                                                                                                                                                                                          ",
"                                                                                                                                                                                                                                                                          ",
"                                                                                                                                                                                                                                                                          ",
"                                                                                                                                                                                                                                                                          ",
"                                                                                                                                                                                                                                                                          ",
"                                                                                                                                                                                                                                                                          ",
"                                                                                                                                                                                                                                                                          ",
"                                                                                                                                                                                                                                                                          ",
"                                                                                                                                                                                                                                                                          ",
"                                                                                                                                                                                                                                                                          ",
"                                                                                                                                                                                                                                                                          ",
"                                                                                                                                                                                                                                                                          ",
"                                                                                                                                                                                                                                                                          ",
"                                                                                                                                                                                                                                                                          ",
"                                                                                                                                                                                                                                                                          ",
"                                                                                                                                                                                                                                                                          ",
"     ...................................             ........................................                  ..............................                  ...................................                  ........................................              ",
"   .....................................             ........................................                ..................................                .....................................                ........................................              ",
"  ......................................             ........................................               ....................................               ......................................               ........................................              ",
" .......................................             ........................................              ......................................              .......................................              ........................................              ",
" .......................................             ........................................              ......................................              .......................................              ........................................              ",
"........................................             ........................................             ........................................             ........................................             ........................................              ",
"........................................             ........................................             ........................................             ........................................             ........................................              ",
"........................................             ........................................             ........................................             ........................................             ........................................              ",
"........                                                             ........                             ........                        ........             ........                        ........                             ........                              ",
"........                                                             ........                             ........                        ........             ........                        ........                             ........                              ",
"........                                                             ........                             ........                        ........             ........                        ........                             ........                              ",
"........                                                             ........                             ........                        ........             ........                        ........                             ........                              ",
"........                                                             ........                             ........                        ........             ........                        ........                             ........                              ",
"........                                                             ........                             ........                        ........             ........                        ........                             ........                              ",
"........                                                             ........                             ........                        ........             ........                        ........                             ........                              ",
"........                                                             ........                             ........                        ........             ........                        ........                             ........                              ",
"...................................                                  ........                             ........................................             ........................................                             ........                              ",
".....................................                                ........                             ........................................             ........................................                             ........                              ",
"......................................                               ........                             ........................................             .......................................                              ........                              ",
" ......................................                              ........                             ........................................             ......................................                               ........                              ",
" ......................................                              ........                             ........................................             ......................................                               ........                              ",
"  ......................................                             ........                             ........................................             .......................................                              ........                              ",
"   .....................................                             ........                             ........................................             ........................................                             ........                              ",
"     ...................................                             ........                             ........................................             ........................................                             ........                              ",
"                                ........                             ........                             ........                        ........             ........                        ........                             ........                              ",
"                                ........                             ........                             ........                        ........             ........                        ........                             ........                              ",
"                                ........                             ........                             ........                        ........             ........                        ........                             ........                              ",
"                                ........                             ........                             ........                        ........             ........                        ........                             ........                              ",
"                                ........                             ........                             ........                        ........             ........                        ........                             ........                              ",
"                                ........                             ........                             ........                        ........             ........                        ........                             ........                              ",
"                                ........                             ........                             ........                        ........             ........                        ........                             ........                              ",
"                                ........                             ........                             ........                        ........             ........                        ........                             ........                              ",
"........................................                             ........                             ........                        ........             ........                        ........                             ........                              ",
"........................................                             ........                             ........                        ........             ........                        ........                             ........                              ",
"........................................                             ........                             ........                        ........             ........                        ........                             ........                              ",
".......................................                              ........                             ........                        ........             ........                        ........                             ........                              ",
".......................................                              ........                             ........                        ........             ........                        ........                             ........                              ",
"......................................                               ........                             ........                        ........             ........                        ........                             ........                              ",
".....................................                                ........                             ........                        ........             ........                        ........                             ........                              ",
"...................................                                  ........                             ........                        ........             ........                        ........                             ........                              ",
"                                                                                                                                                                                                                                                                          ",
"                                                                                                                                                                                                                                                                          ",
"                                                                                                                                                                                                                                                                          ",
"                                                                                                                                                                                                                                                                          ",
"                                                                                                                                                                                                                                                                          ",
"                                                                                                                                                                                                                                                                          ",
"                                                                                                                                                                                                                                                                          ",
"                                                                                                                                                                                                                                                                          ",
"                                                                                                                                                                                                                                                                          ",
"                                                                                                                                                                                                                                                                          ",
"                                                                                                                                                                                                                                                                          ",
"                                                                                                                                                                                                                                                                          ",
"                                                                                                                                                                                                                                                                          ",
"                                                                                                                                                                                                                                                                          ",
"                                                                                                                                                                                                                                                                          ",
"                                                                                                                                                                                                                                                                          ",
"                                                                                                                                                                                                                                                                          "
};
