/* XPM */
static xpm_row_t const menu_button_selected_xpm[] = {
/* columns rows colors chars-per-pixel */
"228 60 2 1 ",
"  c None",
". c #B71515",
/* pixels */
"                                                                                                                                                                                                                                    ",
"                                                                                                                                                                                                                                    ",
"                                                                                                                                                                                                                                    ",
"                                                                                                                                                                                                                                    ",
"                                                                                                                                                                                                                                    ",
"                                                                                                                                                                                                                                    ",
"         ...................................................................................................................................................................................................................        ",
"      .........................................................................................................................................................................................................................     ",
"      .........................................................................................................................................................................................................................     ",
"      .........................................................................................................................................................................................................................     ",
"      .........................................................................................................................................................................................................................     ",
"      .........................................................................................................................................................................................................................     ",
"      .........................................................................................................................................................................................................................     ",
"      .........................................................................................................................................................................................................................     ",
"      .........................................................................................................................................................................................................................     ",
"      .........................................................................................................................................................................................................................     ",
"      .........................................................................................................................................................................................................................     ",
"      .........................................................................................................................................................................................................................     ",
"      .........................................................................................................................................................................................................................     ",
"      .........................................................................................................................................................................................................................     ",
"      .........................................................................................................................................................................................................................     ",
"      .........................................................................................................................................................................................................................     ",
"      .........................................................................................................................................................................................................................     ",
"      .........................................................................................................................................................................................................................     ",
"      .........................................................................................................................................................................................................................     ",
"      .........................................................................................................................................................................................................................     ",
"      .........................................................................................................................................................................................................................     ",
"      .........................................................................................................................................................................................................................     ",
"      .........................................................................................................................................................................................................................     ",
"      .........................................................................................................................................................................................................................     ",
"      .........................................................................................................................................................................................................................     ",
"      .........................................................................................................................................................................................................................     ",
"      .........................................................................................................................................................................................................................     ",
"      .........................................................................................................................................................................................................................     ",
"      .........................................................................................................................................................................................................................     ",
"      .........................................................................................................................................................................................................................     ",
"      .........................................................................................................................................................................................................................     ",
"      .........................................................................................................................................................................................................................     ",
"      .........................................................................................................................................................................................................................     ",
"      .........................................................................................................................................................................................................................     ",
"      .........................................................................................................................................................................................................................     ",
"      .........................................................................................................................................................................................................................     ",
"      .........................................................................................................................................................................................................................     ",
"      .........................................................................................................................................................................................................................     ",
"      .........................................................................................................................................................................................................................     ",
"      .........................................................................................................................................................................................................................     ",
"      .........................................................................................................................................................................................................................     ",
"      .........................................................................................................................................................................................................................     ",
"      .........................................................................................................................................................................................................................     ",
"      .........................................................................................................................................................................................................................     ",
"      .........................................................................................................................................................................................................................     ",
"      .........................................................................................................................................................................................................................     ",
"      .........................................................................................................................................................................................................................     ",
"      .........................................................................................................................................................................................................................     ",
"         ...................................................................................................................................................................................................................        ",
"                                                                                                                                                                                                                                    ",
"                                                                                                                                                                                                                                    ",
"                                                                                                                                                                                                                                    ",
"                                                                                                                                                                                                                                    ",
"                                                                                                                                                                                                                                    "
};
