/* XPM */
static xpm_row_t const menu_button_xpm[] = {
/* columns rows colors chars-per-pixel */
"228 60 2 1 ",
"  c None",
". c #4B4B4B",
/* pixels */
"                                                                                                                                                                                                                                    ",
"                                                                                                                                                                                                                                    ",
"                                                                                                                                                                                                                                    ",
"                                                                                                                                                                                                                                    ",
"                                                                                                                                                                                                                                    ",
"                                                                                                                                                                                                                                    ",
"         ...................................................................................................................................................................................................................        ",
"      .........................................................................................................................................................................................................................     ",
"      .........................................................................................................................................................................................................................     ",
"      .........................................................................................................................................................................................................................     ",
"      .........................................................................................................................................................................................................................     ",
"      .........................................................................................................................................................................................................................     ",
"      .........................................................................................................................................................................................................................     ",
"      .........................................................................................................................................................................................................................     ",
"      .........................................................................................................................................................................................................................     ",
"      .........................................................................................................................................................................................................................     ",
"      .........................................................................................................................................................................................................................     ",
"      .........................................................................................................................................................................................................................     ",
"      .........................................................................................................................................................................................................................     ",
"      .........................................................................................................................................................................................................................     ",
"      .........................................................................................................................................................................................................................     ",
"      .........................................................................................................................................................................................................................     ",
"      .........................................................................................................................................................................................................................     ",
"      .........................................................................................................................................................................................................................     ",
"      .........................................................................................................................................................................................................................     ",
"      .........................................................................................................................................................................................................................     ",
"      .........................................................................................................................................................................................................................     ",
"      .........................................................................................................................................................................................................................     ",
"      .........................................................................................................................................................................................................................     ",
"      .........................................................................................................................................................................................................................     ",
"      .........................................................................................................................................................................................................................     ",
"      .........................................................................................................................................................................................................................     ",
"      .........................................................................................................................................................................................................................     ",
"      .........................................................................................................................................................................................................................     ",
"      .........................................................................................................................................................................................................................     ",
"      .........................................................................................................................................................................................................................     ",
"      .........................................................................................................................................................................................................................     ",
"      .........................................................................................................................................................................................................................     ",
"      .........................................................................................................................................................................................................................     ",
"      .........................................................................................................................................................................................................................     ",
"      .........................................................................................................................................................................................................................     ",
"      .........................................................................................................................................................................................................................     ",
"      .........................................................................................................................................................................................................................     ",
"      .........................................................................................................................................................................................................................     ",
"      .........................................................................................................................................................................................................................     ",
"      .........................................................................................................................................................................................................................     ",
"      .........................................................................................................................................................................................................................     ",
"      .........................................................................................................................................................................................................................     ",
"      .........................................................................................................................................................................................................................     ",
"      .........................................................................................................................................................................................................................     ",
"      .........................................................................................................................................................................................................................     ",
"      .........................................................................................................................................................................................................................     ",
"      .........................................................................................................................................................................................................................     ",
"      .........................................................................................................................................................................................................................     ",
"         ...................................................................................................................................................................................................................        ",
"                                                                                                                                                                                                                                    ",
"                                                                                                                                                                                                                                    ",
"                                                                                                                                                                                                                                    ",
"                                                                                                                                                                                                                                    ",
"                                                                                                                                                                                                                                    "
};
