/* XPM */
static xpm_row_t const pause_icon_xpm[] = {
/* columns rows colors chars-per-pixel */
"126 126 56 1 ",
"  c None",
". c #000000",
"X c #010000",
"o c #060101",
"O c #060606",
"+ c #090909",
"@ c #0B0B0B",
"# c #0F0F0F",
"$ c #120202",
"% c #180303",
"& c #1E0303",
"* c #141414",
"= c #151515",
"- c #171717",
"; c #181818",
": c #191919",
"> c #1A1A1A",
", c #1C1C1C",
"< c #1E1E1E",
"1 c #1E1E1E",
"2 c #200404",
"3 c #220404",
"4 c #282828",
"5 c #2A2A2A",
"6 c #2B2B2B",
"7 c #2E2E2E",
"8 c #333333",
"9 c #343434",
"0 c #353535",
"q c #383838",
"w c #393939",
"e c #3D3D3D",
"r c #3E3E3E",
"t c #3F3F3F",
"y c #6C0C0C",
"u c #6F0D0D",
"i c #780E0E",
"p c #7A0E0E",
"a c #7E0E0E",
"s c #414141",
"d c #434343",
"f c #444444",
"g c #454545",
"h c #484848",
"j c #494949",
"k c #4A4A4A",
"l c #4B4B4B",
"z c #800F0F",
"x c #911111",
"c c #921111",
"v c #9C1212",
"b c #A11313",
"n c #AE1414",
"m c #AF1414",
"M c #B61515",
"N c #B71515",
/* pixels */
"                                                                                                                              ",
"                                                                                                                              ",
"           llllllllllllllllllllllllllllllllllllllllllllllllllllllllllllllllllllllllllllllllllllllllllllllllllllllll           ",
"        llllllllllllllllllllllllllllllllllllllllllllllllllllllllllllllllllllllllllllllllllllllllllllllllllllllllllllll        ",
"       llllllllllllllllllllllllllllllllllllllllllllllllllllllllllllllllllllllllllllllllllllllllllllllllllllllllllllllll       ",
"      llllllllllllllllllllllllllllllllllllllllllllllllllllllllllllllllllllllllllllllllllllllllllllllllllllllllllllllllll      ",
"     llllllllllllllllllllllllllllllllllllllllllllllllllllllllllllllllllllllllllllllllllllllllllllllllllllllllllllllllllll     ",
"    llllllllllllllllllllllllllllllllllllllllllllllllllllllllllllllllllllllllllllllllllllllllllllllllllllllllllllllllllllll    ",
"   llllllllllllllllllllllllllllllllllllllllllllllllllllllllllllllllllllllllllllllllllllllllllllllllllllllllllllllllllllllls   ",
"   llllllllllllllllllllllllllllllllllllllllllllllllllllllllllllllllllllllllllllllllllllllllllllllllllllllllllllllllllllllll   ",
"   llllllllllllllllllllllllllllllllllllllllllllllllllllllllllllllllllllllllllllllllllllllllllllllllllllllllllllllllllllllll0  ",
"  llllllllllllllllllllllllllllllllllllllllllllllllllllllllllllllllllllllllllllllllllllllllllllllllllllllllllllllllllllllllle  ",
"  llllllllllllllllllllllllllllllllllllllllllllllllllllllllllllllllllllllllllllllllllllllllllllllllllllllllllllllllllllllllls  ",
"  llllllllllllllllllllllllllllllllllllllllllllllllllllllllllllllllllllllllllllllllllllllllllllllllllllllllllllllllllllllllll  ",
"  llllllllllllllllllllllllllllllllllllllllllllllllllllllllllllllllllllllllllllllllllllllllllllllllllllllllllllllllllllllllll. ",
"  llllllllllllllllllllllllllllllllllllllllllllllllllllllllllllllllllllllllllllllllllllllllllllllllllllllllllllllllllllllllll. ",
"  llllllllllllllllllllllllllllllllllllllllllllllllllllllllllllllllllllllllllllllllllllllllllllllllllllllllllllllllllllllllll. ",
"  llllllllllllllllllllllllllllllllllllllllllllllllllllllllllllllllllllllllllllllllllllllllllllllllllllllllllllllllllllllllll. ",
"  llllllllllllllllllllllllllllllllllllllllllllllllllllllllllllllllllllllllllllllllllllllllllllllllllllllllllllllllllllllllll. ",
"  llllllllllllllllllllllllllllllllllllllllllllllllllllllllllllllllllllllllllllllllllllllllllllllllllllllllllllllllllllllllll. ",
"  llllllllllllllllllllllllllllllllllllllllllllllllllllllllllllllllllllllllllllllllllllllllllllllllllllllllllllllllllllllllll. ",
"  llllllllllllllllllllllllllllllllllllllllllllllllllllllllllllllllllllllllllllllllllllllllllllllllllllllllllllllllllllllllll. ",
"  llllllllllllllllllllllllllllllllllllllllllllllllllllllllllllllllllllllllllllllllllllllllllllllllllllllllllllllllllllllllll. ",
"  llllllllllllllllllllllllllll0-........................@5lllllllllllq<........................@5lllllllllllllllllllllllllll. ",
"  lllllllllllllllllllllllllll0-zNNNNNNNNNNNNNNNNNNNNNNNNv.5llllllllle<aNNNNNNNNNNNNNNNNNNNNNNNNb.5llllllllllllllllllllllllll. ",
"  lllllllllllllllllllllllllle<amNNNNNNNNNNNNNNNNNNNNNNNNNx&sllllllle<amNNNNNNNNNNNNNNNNNNNNNNNNNx@llllllllllllllllllllllllll. ",
"  llllllllllllllllllllllllll<uNNNNNNNNNNNNNNNNNNNNNNNNNNNN2elllllls$uNNNNNNNNNNNNNNNNNNNNNNNNNNNN.llllllllllllllllllllllllll. ",
"  llllllllllllllllllllllllll.NNNNNNNNNNNNNNNNNNNNNNNNNNNNN&elllllle2NNNNNNNNNNNNNNNNNNNNNNNNNNNNN.llllllllllllllllllllllllll. ",
"  llllllllllllllllllllllllll.NNNNNNNNNNNNNNNNNNNNNNNNNNNNN&elllllle&NNNNNNNNNNNNNNNNNNNNNNNNNNNNN.llllllllllllllllllllllllll. ",
"  llllllllllllllllllllllllll.NNNNNNNNNNNNNNNNNNNNNNNNNNNNN&elllllle&NNNNNNNNNNNNNNNNNNNNNNNNNNNNN.llllllllllllllllllllllllll. ",
"  llllllllllllllllllllllllll.NNNNNNNNNNNNNNNNNNNNNNNNNNNNN&elllllle&NNNNNNNNNNNNNNNNNNNNNNNNNNNNN.llllllllllllllllllllllllll. ",
"  llllllllllllllllllllllllll.NNNNNNNNNNNNNNNNNNNNNNNNNNNNN&elllllle&NNNNNNNNNNNNNNNNNNNNNNNNNNNNN.llllllllllllllllllllllllll. ",
"  llllllllllllllllllllllllll.NNNNNNNNNNNNNNNNNNNNNNNNNNNNN&elllllle&NNNNNNNNNNNNNNNNNNNNNNNNNNNNN.llllllllllllllllllllllllll. ",
"  llllllllllllllllllllllllll.NNNNNNNNNNNNNNNNNNNNNNNNNNNNN&elllllle&NNNNNNNNNNNNNNNNNNNNNNNNNNNNN.llllllllllllllllllllllllll. ",
"  llllllllllllllllllllllllll.NNNNNNNNNNNNNNNNNNNNNNNNNNNNN&elllllle&NNNNNNNNNNNNNNNNNNNNNNNNNNNNN.llllllllllllllllllllllllll. ",
"  llllllllllllllllllllllllll.NNNNNNNNNNNNNNNNNNNNNNNNNNNNN&elllllle&NNNNNNNNNNNNNNNNNNNNNNNNNNNNN.llllllllllllllllllllllllll. ",
"  llllllllllllllllllllllllll.NNNNNNNNNNNNNNNNNNNNNNNNNNNNN&elllllle&NNNNNNNNNNNNNNNNNNNNNNNNNNNNN.llllllllllllllllllllllllll. ",
"  llllllllllllllllllllllllll.NNNNNNNNNNNNNNNNNNNNNNNNNNNNN&elllllle&NNNNNNNNNNNNNNNNNNNNNNNNNNNNN.llllllllllllllllllllllllll. ",
"  llllllllllllllllllllllllll.NNNNNNNNNNNNNNNNNNNNNNNNNNNNN&elllllle&NNNNNNNNNNNNNNNNNNNNNNNNNNNNN.llllllllllllllllllllllllll. ",
"  llllllllllllllllllllllllll.NNNNNNNNNNNNNNNNNNNNNNNNNNNNN&elllllle&NNNNNNNNNNNNNNNNNNNNNNNNNNNNN.llllllllllllllllllllllllll. ",
"  llllllllllllllllllllllllll.NNNNNNNNNNNNNNNNNNNNNNNNNNNNN&elllllle&NNNNNNNNNNNNNNNNNNNNNNNNNNNNN.llllllllllllllllllllllllll. ",
"  llllllllllllllllllllllllll.NNNNNNNNNNNNNNNNNNNNNNNNNNNNN&elllllle&NNNNNNNNNNNNNNNNNNNNNNNNNNNNN.llllllllllllllllllllllllll. ",
"  llllllllllllllllllllllllll.NNNNNNNNNNNNNNNNNNNNNNNNNNNNN&elllllle&NNNNNNNNNNNNNNNNNNNNNNNNNNNNN.llllllllllllllllllllllllll. ",
"  llllllllllllllllllllllllll.NNNNNNNNNNNNNNNNNNNNNNNNNNNNN&elllllle&NNNNNNNNNNNNNNNNNNNNNNNNNNNNN.llllllllllllllllllllllllll. ",
"  llllllllllllllllllllllllll.NNNNNNNNNNNNNNNNNNNNNNNNNNNNN&elllllle&NNNNNNNNNNNNNNNNNNNNNNNNNNNNN.llllllllllllllllllllllllll. ",
"  llllllllllllllllllllllllll.NNNNNNNNNNNNNNNNNNNNNNNNNNNNN&elllllle&NNNNNNNNNNNNNNNNNNNNNNNNNNNNN.llllllllllllllllllllllllll. ",
"  llllllllllllllllllllllllll.NNNNNNNNNNNNNNNNNNNNNNNNNNNNN&elllllle&NNNNNNNNNNNNNNNNNNNNNNNNNNNNN.llllllllllllllllllllllllll. ",
"  llllllllllllllllllllllllll.NNNNNNNNNNNNNNNNNNNNNNNNNNNNN&elllllle&NNNNNNNNNNNNNNNNNNNNNNNNNNNNN.llllllllllllllllllllllllll. ",
"  llllllllllllllllllllllllll.NNNNNNNNNNNNNNNNNNNNNNNNNNNNN&elllllle&NNNNNNNNNNNNNNNNNNNNNNNNNNNNN.llllllllllllllllllllllllll. ",
"  llllllllllllllllllllllllll.NNNNNNNNNNNNNNNNNNNNNNNNNNNNN&elllllle&NNNNNNNNNNNNNNNNNNNNNNNNNNNNN.llllllllllllllllllllllllll. ",
"  llllllllllllllllllllllllll.NNNNNNNNNNNNNNNNNNNNNNNNNNNNN&elllllle&NNNNNNNNNNNNNNNNNNNNNNNNNNNNN.llllllllllllllllllllllllll. ",
"  llllllllllllllllllllllllll.NNNNNNNNNNNNNNNNNNNNNNNNNNNNN&elllllle&NNNNNNNNNNNNNNNNNNNNNNNNNNNNN.llllllllllllllllllllllllll. ",
"  llllllllllllllllllllllllll.NNNNNNNNNNNNNNNNNNNNNNNNNNNNN&elllllle&NNNNNNNNNNNNNNNNNNNNNNNNNNNNN.llllllllllllllllllllllllll. ",
"  llllllllllllllllllllllllll.NNNNNNNNNNNNNNNNNNNNNNNNNNNNN&elllllle&NNNNNNNNNNNNNNNNNNNNNNNNNNNNN.llllllllllllllllllllllllll. ",
"  llllllllllllllllllllllllll.NNNNNNNNNNNNNNNNNNNNNNNNNNNNN&elllllle&NNNNNNNNNNNNNNNNNNNNNNNNNNNNN.llllllllllllllllllllllllll. ",
"  llllllllllllllllllllllllll.NNNNNNNNNNNNNNNNNNNNNNNNNNNNN&elllllle&NNNNNNNNNNNNNNNNNNNNNNNNNNNNN.llllllllllllllllllllllllll. ",
"  llllllllllllllllllllllllll.NNNNNNNNNNNNNNNNNNNNNNNNNNNNN&elllllle&NNNNNNNNNNNNNNNNNNNNNNNNNNNNN.llllllllllllllllllllllllll. ",
"  llllllllllllllllllllllllll.NNNNNNNNNNNNNNNNNNNNNNNNNNNNN&elllllle&NNNNNNNNNNNNNNNNNNNNNNNNNNNNN.llllllllllllllllllllllllll. ",
"  llllllllllllllllllllllllll.NNNNNNNNNNNNNNNNNNNNNNNNNNNNN&elllllle&NNNNNNNNNNNNNNNNNNNNNNNNNNNNN.llllllllllllllllllllllllll. ",
"  llllllllllllllllllllllllll.NNNNNNNNNNNNNNNNNNNNNNNNNNNNN&elllllle&NNNNNNNNNNNNNNNNNNNNNNNNNNNNN.llllllllllllllllllllllllll. ",
"  llllllllllllllllllllllllll.NNNNNNNNNNNNNNNNNNNNNNNNNNNNN&elllllle&NNNNNNNNNNNNNNNNNNNNNNNNNNNNN.llllllllllllllllllllllllll. ",
"  llllllllllllllllllllllllll.NNNNNNNNNNNNNNNNNNNNNNNNNNNNN&elllllle&NNNNNNNNNNNNNNNNNNNNNNNNNNNNN.llllllllllllllllllllllllll. ",
"  llllllllllllllllllllllllll.NNNNNNNNNNNNNNNNNNNNNNNNNNNNN&elllllle&NNNNNNNNNNNNNNNNNNNNNNNNNNNNN.llllllllllllllllllllllllll. ",
"  llllllllllllllllllllllllll.NNNNNNNNNNNNNNNNNNNNNNNNNNNNN&elllllle&NNNNNNNNNNNNNNNNNNNNNNNNNNNNN.llllllllllllllllllllllllll. ",
"  llllllllllllllllllllllllll.NNNNNNNNNNNNNNNNNNNNNNNNNNNNN&elllllle&NNNNNNNNNNNNNNNNNNNNNNNNNNNNN.llllllllllllllllllllllllll. ",
"  llllllllllllllllllllllllll.NNNNNNNNNNNNNNNNNNNNNNNNNNNNN&elllllle&NNNNNNNNNNNNNNNNNNNNNNNNNNNNN.llllllllllllllllllllllllll. ",
"  llllllllllllllllllllllllll.NNNNNNNNNNNNNNNNNNNNNNNNNNNNN&elllllle&NNNNNNNNNNNNNNNNNNNNNNNNNNNNN.llllllllllllllllllllllllll. ",
"  llllllllllllllllllllllllll.NNNNNNNNNNNNNNNNNNNNNNNNNNNNN&elllllle&NNNNNNNNNNNNNNNNNNNNNNNNNNNNN.llllllllllllllllllllllllll. ",
"  llllllllllllllllllllllllll.NNNNNNNNNNNNNNNNNNNNNNNNNNNNN&elllllle&NNNNNNNNNNNNNNNNNNNNNNNNNNNNN.llllllllllllllllllllllllll. ",
"  llllllllllllllllllllllllll.NNNNNNNNNNNNNNNNNNNNNNNNNNNNN&elllllle&NNNNNNNNNNNNNNNNNNNNNNNNNNNNN.llllllllllllllllllllllllll. ",
"  llllllllllllllllllllllllll.NNNNNNNNNNNNNNNNNNNNNNNNNNNNN&elllllle&NNNNNNNNNNNNNNNNNNNNNNNNNNNNN.llllllllllllllllllllllllll. ",
"  llllllllllllllllllllllllll.NNNNNNNNNNNNNNNNNNNNNNNNNNNNN&elllllle&NNNNNNNNNNNNNNNNNNNNNNNNNNNNN.llllllllllllllllllllllllll. ",
"  llllllllllllllllllllllllll.NNNNNNNNNNNNNNNNNNNNNNNNNNNNN&elllllle&NNNNNNNNNNNNNNNNNNNNNNNNNNNNN.llllllllllllllllllllllllll. ",
"  llllllllllllllllllllllllll.NNNNNNNNNNNNNNNNNNNNNNNNNNNNN&elllllle&NNNNNNNNNNNNNNNNNNNNNNNNNNNNN.llllllllllllllllllllllllll. ",
"  llllllllllllllllllllllllll.NNNNNNNNNNNNNNNNNNNNNNNNNNNNN&elllllle&NNNNNNNNNNNNNNNNNNNNNNNNNNNNN.llllllllllllllllllllllllll. ",
"  llllllllllllllllllllllllll.NNNNNNNNNNNNNNNNNNNNNNNNNNNNN&elllllle&NNNNNNNNNNNNNNNNNNNNNNNNNNNNN.llllllllllllllllllllllllll. ",
"  llllllllllllllllllllllllll.NNNNNNNNNNNNNNNNNNNNNNNNNNNNN&elllllle&NNNNNNNNNNNNNNNNNNNNNNNNNNNNN.llllllllllllllllllllllllll. ",
"  llllllllllllllllllllllllll.NNNNNNNNNNNNNNNNNNNNNNNNNNNNN&elllllle&NNNNNNNNNNNNNNNNNNNNNNNNNNNNN.llllllllllllllllllllllllll. ",
"  llllllllllllllllllllllllll.NNNNNNNNNNNNNNNNNNNNNNNNNNNNN&elllllle&NNNNNNNNNNNNNNNNNNNNNNNNNNNNN.llllllllllllllllllllllllll. ",
"  llllllllllllllllllllllllll.NNNNNNNNNNNNNNNNNNNNNNNNNNNNN&elllllle&NNNNNNNNNNNNNNNNNNNNNNNNNNNNN.llllllllllllllllllllllllll. ",
"  llllllllllllllllllllllllll.NNNNNNNNNNNNNNNNNNNNNNNNNNNNN&elllllle&NNNNNNNNNNNNNNNNNNNNNNNNNNNNN.llllllllllllllllllllllllll. ",
"  llllllllllllllllllllllllll.NNNNNNNNNNNNNNNNNNNNNNNNNNNNN&elllllle&NNNNNNNNNNNNNNNNNNNNNNNNNNNNN.llllllllllllllllllllllllll. ",
"  llllllllllllllllllllllllll.NNNNNNNNNNNNNNNNNNNNNNNNNNNNN&elllllle&NNNNNNNNNNNNNNNNNNNNNNNNNNNNN.llllllllllllllllllllllllll. ",
"  llllllllllllllllllllllllll.NNNNNNNNNNNNNNNNNNNNNNNNNNNNN&elllllle&NNNNNNNNNNNNNNNNNNNNNNNNNNNNN.llllllllllllllllllllllllll. ",
"  llllllllllllllllllllllllll.NNNNNNNNNNNNNNNNNNNNNNNNNNNNN&elllllle&NNNNNNNNNNNNNNNNNNNNNNNNNNNNN.llllllllllllllllllllllllll. ",
"  llllllllllllllllllllllllll.NNNNNNNNNNNNNNNNNNNNNNNNNNNNN&elllllle&NNNNNNNNNNNNNNNNNNNNNNNNNNNNN.llllllllllllllllllllllllll. ",
"  llllllllllllllllllllllllll.NNNNNNNNNNNNNNNNNNNNNNNNNNNNN&elllllle&NNNNNNNNNNNNNNNNNNNNNNNNNNNNN.llllllllllllllllllllllllll. ",
"  llllllllllllllllllllllllll.NNNNNNNNNNNNNNNNNNNNNNNNNNNNN&elllllle&NNNNNNNNNNNNNNNNNNNNNNNNNNNNN.llllllllllllllllllllllllll. ",
"  llllllllllllllllllllllllll.NNNNNNNNNNNNNNNNNNNNNNNNNNNNN&elllllle&NNNNNNNNNNNNNNNNNNNNNNNNNNNNN.llllllllllllllllllllllllll. ",
"  llllllllllllllllllllllllll.NNNNNNNNNNNNNNNNNNNNNNNNNNNNN&elllllle&NNNNNNNNNNNNNNNNNNNNNNNNNNNNN.llllllllllllllllllllllllll. ",
"  llllllllllllllllllllllllll.NNNNNNNNNNNNNNNNNNNNNNNNNNNNN&elllllle&NNNNNNNNNNNNNNNNNNNNNNNNNNNNN.llllllllllllllllllllllllll. ",
"  llllllllllllllllllllllllll.NNNNNNNNNNNNNNNNNNNNNNNNNNNNN&elllllle&NNNNNNNNNNNNNNNNNNNNNNNNNNNNN.llllllllllllllllllllllllll. ",
"  llllllllllllllllllllllllll.NNNNNNNNNNNNNNNNNNNNNNNNNNNNN&elllllle&NNNNNNNNNNNNNNNNNNNNNNNNNNNNN.llllllllllllllllllllllllll. ",
"  llllllllllllllllllllllllll.NNNNNNNNNNNNNNNNNNNNNNNNNNNNN&elllllle&NNNNNNNNNNNNNNNNNNNNNNNNNNNNN.llllllllllllllllllllllllll. ",
"  llllllllllllllllllllllllll.NNNNNNNNNNNNNNNNNNNNNNNNNNNNN&elllllle&NNNNNNNNNNNNNNNNNNNNNNNNNNNNN.llllllllllllllllllllllllll. ",
"  llllllllllllllllllllllllll.NNNNNNNNNNNNNNNNNNNNNNNNNNNNN&elllllle&NNNNNNNNNNNNNNNNNNNNNNNNNNNNN.llllllllllllllllllllllllll. ",
"  llllllllllllllllllllllllll.NNNNNNNNNNNNNNNNNNNNNNNNNNNNN&elllllle&NNNNNNNNNNNNNNNNNNNNNNNNNNNNN.llllllllllllllllllllllllll. ",
"  llllllllllllllllllllllllll.NNNNNNNNNNNNNNNNNNNNNNNNNNNNN&elllllle&NNNNNNNNNNNNNNNNNNNNNNNNNNNNN.llllllllllllllllllllllllll. ",
"  llllllllllllllllllllllllll.NNNNNNNNNNNNNNNNNNNNNNNNNNNNN&elllllle&NNNNNNNNNNNNNNNNNNNNNNNNNNNNN.llllllllllllllllllllllllll. ",
"  llllllllllllllllllllllllll.NNNNNNNNNNNNNNNNNNNNNNNNNNNNN2elllllle2NNNNNNNNNNNNNNNNNNNNNNNNNNNNN.llllllllllllllllllllllllll. ",
"  llllllllllllllllllllllllll@xNNNNNNNNNNNNNNNNNNNNNNNNNNNx&slllllls&xNNNNNNNNNNNNNNNNNNNNNNNNNNNx@llllllllllllllllllllllllll. ",
"  llllllllllllllllllllllllll5.bNNNNNNNNNNNNNNNNNNNNNNNNNv.5llllllll5.vNNNNNNNNNNNNNNNNNNNNNNNNNb.5llllllllllllllllllllllllll. ",
"  lllllllllllllllllllllllllll5@.........................@5llllllllll5@.........................@5lllllllllllllllllllllllllll. ",
"  llllllllllllllllllllllllllllllllllllllllllllllllllllllllllllllllllllllllllllllllllllllllllllllllllllllllllllllllllllllllll. ",
"  llllllllllllllllllllllllllllllllllllllllllllllllllllllllllllllllllllllllllllllllllllllllllllllllllllllllllllllllllllllllll. ",
"  llllllllllllllllllllllllllllllllllllllllllllllllllllllllllllllllllllllllllllllllllllllllllllllllllllllllllllllllllllllllll. ",
"  llllllllllllllllllllllllllllllllllllllllllllllllllllllllllllllllllllllllllllllllllllllllllllllllllllllllllllllllllllllllll. ",
"  llllllllllllllllllllllllllllllllllllllllllllllllllllllllllllllllllllllllllllllllllllllllllllllllllllllllllllllllllllllllll. ",
"  llllllllllllllllllllllllllllllllllllllllllllllllllllllllllllllllllllllllllllllllllllllllllllllllllllllllllllllllllllllllll. ",
"  llllllllllllllllllllllllllllllllllllllllllllllllllllllllllllllllllllllllllllllllllllllllllllllllllllllllllllllllllllllllll. ",
"  llllllllllllllllllllllllllllllllllllllllllllllllllllllllllllllllllllllllllllllllllllllllllllllllllllllllllllllllllllllllll. ",
"  llllllllllllllllllllllllllllllllllllllllllllllllllllllllllllllllllllllllllllllllllllllllllllllllllllllllllllllllllllllllll. ",
"  llllllllllllllllllllllllllllllllllllllllllllllllllllllllllllllllllllllllllllllllllllllllllllllllllllllllllllllllllllllllll. ",
"  llllllllllllllllllllllllllllllllllllllllllllllllllllllllllllllllllllllllllllllllllllllllllllllllllllllllllllllllllllllllls. ",
"  sllllllllllllllllllllllllllllllllllllllllllllllllllllllllllllllllllllllllllllllllllllllllllllllllllllllllllllllllllllllll0. ",
"  ellllllllllllllllllllllllllllllllllllllllllllllllllllllllllllllllllllllllllllllllllllllllllllllllllllllllllllllllllllllll<. ",
"   llllllllllllllllllllllllllllllllllllllllllllllllllllllllllllllllllllllllllllllllllllllllllllllllllllllllllllllllllllllll.. ",
"   0llllllllllllllllllllllllllllllllllllllllllllllllllllllllllllllllllllllllllllllllllllllllllllllllllllllllllllllllllllll5.. ",
"    slllllllllllllllllllllllllllllllllllllllllllllllllllllllllllllllllllllllllllllllllllllllllllllllllllllllllllllllllllls..  ",
"    <llllllllllllllllllllllllllllllllllllllllllllllllllllllllllllllllllllllllllllllllllllllllllllllllllllllllllllllllllll-..  ",
"    .<llllllllllllllllllllllllllllllllllllllllllllllllllllllllllllllllllllllllllllllllllllllllllllllllllllllllllllllllll<...  ",
"     .-slllllllllllllllllllllllllllllllllllllllllllllllllllllllllllllllllllllllllllllllllllllllllllllllllllllllllllllls-...   ",
"      ..5llllllllllllllllllllllllllllllllllllllllllllllllllllllllllllllllllllllllllllllllllllllllllllllllllllllllllll5....    ",
"       ...<0slllllllllllllllllllllllllllllllllllllllllllllllllllllllllllllllllllllllllllllllllllllllllllllllllllls0<.....     ",
"        ................................................................................................................      ",
"         ..............................................................................................................       "
};
