/* XPM */
static xpm_row_t const player_reload_xpm[] = {
/* columns rows colors chars-per-pixel */
"39 43 218 2 ",
"   c None",
".  c #2B2B2B",
"X  c #2C2C2C",
"o  c #2D2D2D",
"O  c #2E2E2E",
"+  c #2F2F2F",
"@  c #282E32",
"#  c #2E3133",
"$  c #2F3133",
"%  c #2B3236",
"&  c #2C3235",
"*  c #2C3236",
"=  c #2D3236",
"-  c #2C3337",
";  c #2E3237",
":  c #2D3435",
">  c #2E3436",
",  c #2E3438",
"<  c #2F3438",
"1  c #2F3539",
"2  c #303030",
"3  c #313131",
"4  c #323232",
"5  c #333333",
"6  c #353331",
"7  c #353535",
"8  c #363636",
"9  c #373737",
"0  c #30363B",
"q  c #31373B",
"w  c #343739",
"e  c #36393B",
"r  c #32393E",
"t  c #343A3F",
"y  c #383838",
"u  c #393939",
"i  c #393A3B",
"p  c #3B3B3B",
"a  c #3B3D3E",
"s  c #3C3C3C",
"d  c #3D3D3D",
"f  c #3C3E3E",
"g  c #3E3E3E",
"h  c #3F3F3F",
"j  c #4C453B",
"k  c #353C40",
"l  c #373E42",
"z  c #373F44",
"x  c #383F44",
"c  c #3A4146",
"v  c #3A4247",
"b  c #3B4347",
"n  c #3D4449",
"m  c #3C454B",
"M  c #3E464B",
"N  c #3F484E",
"B  c #414141",
"V  c #464646",
"C  c #494542",
"Z  c #484745",
"A  c #4C4947",
"S  c #40484D",
"D  c #41494E",
"F  c #4B4B4B",
"G  c #55514C",
"H  c #58524D",
"J  c #414B51",
"K  c #434B50",
"L  c #444D52",
"P  c #434E54",
"I  c #464F54",
"U  c #464F55",
"Y  c #465055",
"T  c #475156",
"R  c #465157",
"E  c #495459",
"W  c #48545B",
"Q  c #49555B",
"!  c #4A555B",
"~  c #4C575E",
"^  c #575957",
"/  c #50585C",
"(  c #5B5B5B",
")  c #5D5C59",
"_  c #61574D",
"`  c #635B52",
"'  c #645B53",
"]  c #685C50",
"[  c #6B6055",
"{  c #6E665C",
"}  c #706459",
"|  c #7E6B59",
" . c #7C6D5F",
".. c #4D5A61",
"X. c #4F5B62",
"o. c #505C63",
"O. c #505D64",
"+. c #525F66",
"@. c #526067",
"#. c #5F6162",
"$. c #546169",
"%. c #55636B",
"&. c #59666D",
"*. c #616161",
"=. c #6B6B6B",
"-. c #656F75",
";. c #6F7477",
":. c #846F5B",
">. c #8D755F",
",. c #92765D",
"<. c #95795E",
"1. c #807060",
"2. c #857461",
"3. c #887665",
"4. c #897866",
"5. c #947A60",
"6. c #947A62",
"7. c #977C60",
"8. c #9A7D61",
"9. c #9B7F64",
"0. c #9C7F64",
"q. c #9D7F64",
"w. c #957E68",
"e. c #9D8166",
"r. c #9F8366",
"t. c #9A846F",
"y. c #8F8579",
"u. c #9E8A76",
"i. c #9D8B78",
"p. c #9C8C7B",
"a. c #9C8D7E",
"s. c #A08266",
"d. c #A18366",
"f. c #A18367",
"g. c #A28366",
"h. c #A18466",
"j. c #A38568",
"k. c #A2866A",
"l. c #A7886A",
"z. c #A8896B",
"x. c #AE8E6F",
"c. c #A08872",
"v. c #AB9178",
"b. c #B49373",
"n. c #B79575",
"m. c #BA9776",
"M. c #B0957A",
"N. c #BF9C7A",
"B. c #C5A17E",
"V. c #7C7F80",
"C. c #818181",
"Z. c #8B8B8B",
"A. c #978D84",
"S. c #9A8F84",
"D. c #95908D",
"F. c #929292",
"G. c #939393",
"H. c #959595",
"J. c #9F9F9F",
"K. c #A0A0A0",
"L. c #A1A1A1",
"P. c #B0B0B0",
"I. c #B5B5B5",
"U. c #BBBBBB",
"Y. c #C7A483",
"T. c #C3A384",
"R. c #CBA581",
"E. c #CCA682",
"W. c #C2A588",
"Q. c #CAA988",
"!. c #CFAC8A",
"~. c #D1AA85",
"^. c #D4AC87",
"/. c #D0AB88",
"(. c #D6AF89",
"). c #DCB38C",
"_. c #DDB48D",
"`. c #DBB590",
"'. c #E2B890",
"]. c #E4BC95",
"[. c #E7BE96",
"{. c #E8BD94",
"}. c #EDC097",
"|. c #F2C59A",
" X c #F3C69B",
".X c #F1C69C",
"XX c #F9CB9F",
"oX c #D7C7B7",
"OX c #DFC9B3",
"+X c #FFD0A3",
"@X c #FDD1A7",
"#X c #FFD1A6",
"$X c #FFD2A7",
"%X c #FCD3AC",
"&X c #FFD5AD",
"*X c #FBD5B0",
"=X c #FFD6B0",
"-X c #FFD7B2",
";X c #FAD7B5",
":X c #FFD9B6",
">X c #F7DABE",
",X c #FFDBB9",
"<X c #FFDCBB",
"1X c #C0C0C0",
"2X c #C1C1C1",
"3X c #C5C5C5",
"4X c #D0D0D0",
"5X c #D6D6D6",
"6X c #F4DFCC",
"7X c #E4DCD5",
"8X c #E2DFDC",
"9X c #EBE0D6",
"0X c #F3E1D0",
"qX c #F1E3D5",
"wX c #F0E5D9",
"eX c #E1E1E1",
"rX c #EEE8E2",
"tX c #ECECEC",
/* pixels */
"                    O O O O O O O O O                                         ",
"                O O O O O O O O O O O O O O O O                               ",
"                O O 3 h h B B B h h 3 O O O O O O O C.H.H.                    ",
"              O O h B B B B B B B B B h O O 3 3 3 3 H.H.H.A.                  ",
"            O O h B B B B B B B B B B B 3 O O B B F tXU.S.j.d.d.              ",
"            O 3 B B B B B B B B B B B B B 3 O h B =.tX7XR.m.j.j.>.:.          ",
"            O 3 B B B B B B B B B B B B B 3 O 3 B Z.tXwX+X+X+X' , , & &       ",
"            O 3 B B B B B B B B B B B B B 3 O 3 B L.tX6X+X+X.Xh , 0 , , , &   ",
"          O O h B B B B B B B B B B B B B h O B B 2XtX>X+X+XM., l P D l , , & ",
"          O O h B B B B B B B B B B B B B h B H.B eXtX&X+X+XG , M P P P M , & ",
"          O O h B B B B B B B B B B B B B *.L.H.( tXqX+X+X[., , P P P P r ,   ",
"          O O B B B B B ' } }  .c.} H B *.eXU.H.Z.tX-X+X+X4., l P P P P , &   ",
"          O 3 B B ' v.[.+X+X+X+X+X+X+XW.8XtX2XH.I.5X/.{.XXh , M P P P c , &   ",
"          O 3 A Y.+X+X+X+X+X+X+X+X+X+X+X+XqX2XH.H.H.i.j.j.h , c Y P P 0 ,     ",
"        j 3 3 Y.+X+X+X+X+X+X+X+X+X+X+X+X+X+XOXi.j.D.y.9.j._ , c %.W l , &     ",
"        j.9.Y.+X&X<X<X-X+X+X+X+X+X+X+X+X+X+X+XB.j.7.      & , W %.M , ,       ",
"      9.j.N.+X+X:X<X<X<X+X+X+X+X+X+X+X+X+X+X+X+Xx.j.      , 0 %.@., ,         ",
"      j.j..X+X+X<X<X<X<X+X+X+X+X+X+X+X+X+X+X+X+X).j.9.  @ , N %.Y , &         ",
"      j.B.+X+X+X+X<X<X-X+X+X+X+X+X+X+X+X+X+X+X+X+Xl.j.9.0 , ..%.l ,           ",
"    9.j./.+X+X+X+X+X+X+X+X+X+X+X+X+X+X+X+X+X+X+X+X).l.j.] r %.O., &           ",
"    9.j.{.+X+X+X+X+X+X+X+X+X+X+X+X+X+X+X+X+X+X+X+X}.R.j.7.P %.P , &           ",
"    9.j.{.+X+X+X+X+X+X+X+X+X+X+X+X+X+X+X+X+X+X+X+X.X^.j.e.W ..r , ,           ",
"    9.j.{.+X+X+X+X+X+X+X+X+X+X+X+X+X+X+X+X+X+X+X+X.Xn.j.2.P P P l , &         ",
"    9.j.{.+X+X+X+X+X+X+X+X+X+X+X+X+X+X+X+X+X+X+X+XR.j.j.^ P P P c , &         ",
"    <.j.^.+X+X+X+X+X+X+X+X+X+X+X+X+X+X+X+X+X+X+X+Xn.j.{ P P P P 0 ,           ",
"      j.m.+X+X+X+X+X+X+X+X+X+X+X+X+X+X+X+X+X+X+X.Xj.j.P P P P D , ,           ",
"      e.j.{.+X+X+X+X+X+X+X+X+X+X+X+X+X+X+X+X+X+X).j.2.P P P P l , &           ",
"      ,.j.m.+X+X+X+X+X+X+X+X+X+X+X+X+X+X+X+X+XXXx.j.( P P P P 0 ,             ",
"        e.7.w.+X+X+X+X+X+X+X+X+X+X+X+X+X+X+X+XN.j.2.P P P P M , &             ",
"          3 3 3.[.+X+X+X+X+X+X+X+X+X+X+X+X+XoXS.t./ O.W T P l , Z             ",
"          O 3 B A Y.+X+X+X+X+X+X+X+X+X+X-XrX2XH.V.P P W O.T 0 ,  .            ",
"          O O B B B H v.`.+X+X+X+X+X!.u.5XtXI.H.;.P P P P M , h j.d.          ",
"          O O B B B B B B B B B B B B B F 2XJ.H.-.%...Y P l , [ j.d.          ",
"          O O h B B B B B B B B B B B B B B C.H.&.%.%.%.P , , !.x.j.          ",
"          O O h B B B B B B B B B B B B B h O #.W O.%...M , Z +XR.j.          ",
"          O O h B B B B B B B B B B B B B h O & l D Y Y r , 4.+X{.j.d.        ",
"            O 3 B B B B B B B B B B B B B 3 O & , , , , , , [.+X[.j.d.        ",
"            O 3 B B B B B B B B B B B B B 3 O h r , , , , M.+X[.x.j.d.        ",
"            O O h B B B B B B B B B B B h O 3 B B =.tX9X).B.x.j.j.d.          ",
"              O O h B B B B B B B B B h O O h B B F tX5Xi.j.j.d.              ",
"              O O O 3 h B B B B B h 3 O O 3 h 3 3 3 H.H.H.A.                  ",
"                  O O O O O O O O O O O O O O O O O C.H.H.                    ",
"                    O O O O O O O O O O O O O O                               "
};
