/* XPM */
static xpm_row_t const player_gun_xpm[] = {
/* columns rows colors chars-per-pixel */
"49 43 153 2 ",
"   c None",
".  c #2B2B2B",
"X  c #2C2C2C",
"o  c #2D2D2D",
"O  c #2E2E2E",
"+  c #2F2F2F",
"@  c #2B3135",
"#  c #2B3337",
"$  c #2D3236",
"%  c #2C3337",
"&  c #2E3236",
"*  c #2E3237",
"=  c #2D3435",
"-  c #2E3438",
";  c #2F3539",
":  c #303030",
">  c #313131",
",  c #323232",
"<  c #333333",
"1  c #353331",
"2  c #353535",
"3  c #363636",
"4  c #373737",
"5  c #343A3F",
"6  c #383838",
"7  c #393939",
"8  c #3B3B3B",
"9  c #3B3D3E",
"0  c #3C3C3C",
"q  c #3D3D3D",
"w  c #3E3E3E",
"e  c #3F3F3F",
"r  c #4C453B",
"t  c #373E42",
"y  c #3A4146",
"u  c #414141",
"i  c #454545",
"p  c #4B4844",
"a  c #4C4947",
"s  c #40484D",
"d  c #4B4B4B",
"f  c #58524D",
"g  c #434B50",
"h  c #444D52",
"j  c #464F54",
"k  c #495459",
"l  c #4D595F",
"z  c #505050",
"x  c #5E5E5E",
"c  c #625B52",
"v  c #645B53",
"b  c #706459",
"n  c #7C6D5F",
"m  c #55636B",
"M  c #616161",
"N  c #6B6B6B",
"B  c #7C6E60",
"V  c #92765D",
"C  c #95795E",
"Z  c #887665",
"A  c #947A60",
"S  c #977C60",
"D  c #9A7D61",
"F  c #9B7F64",
"G  c #9C7F64",
"H  c #9D7F64",
"J  c #957E68",
"K  c #9F8065",
"L  c #9F8366",
"P  c #8E8175",
"I  c #9F8973",
"U  c #9E8A76",
"Y  c #9C8C7B",
"T  c #9C8D7E",
"R  c #A08266",
"E  c #A18367",
"W  c #A18466",
"Q  c #A38568",
"!  c #A2866A",
"~  c #A7886A",
"^  c #A8896B",
"/  c #AE8E6F",
"(  c #A08872",
")  c #AB9178",
"_  c #B49373",
"`  c #B79575",
"'  c #BA9776",
"]  c #BF9C7A",
"[  c #BE9D7D",
"{  c #C5A17E",
"}  c #808080",
"|  c #818181",
" . c #858585",
".. c #8E8E8E",
"X. c #978D84",
"o. c #9A8F84",
"O. c #929292",
"+. c #959492",
"@. c #959595",
"#. c #969696",
"$. c #9F9F9F",
"%. c #BD9F81",
"&. c #A0A0A0",
"*. c #A1A1A1",
"=. c #B0B0B0",
"-. c #BBBBBB",
";. c #C7A483",
":. c #C3A384",
">. c #CCA682",
",. c #C2A588",
"<. c #CAA988",
"1. c #CFAC8A",
"2. c #D1AA85",
"3. c #D4AC87",
"4. c #D6AF89",
"5. c #DCB38C",
"6. c #DDB48D",
"7. c #DBB590",
"8. c #E2B890",
"9. c #E7BE96",
"0. c #E8BD94",
"q. c #EDC097",
"w. c #F2C59A",
"e. c #F3C69B",
"r. c #F9CB9F",
"t. c #D7C7B7",
"y. c #DFC9B3",
"u. c #FFD0A3",
"i. c #FDD1A7",
"p. c #FFD1A6",
"a. c #FFD2A7",
"s. c #FCD3AC",
"d. c #FFD5AD",
"f. c #FBD5B0",
"g. c #FFD6B0",
"h. c #FFD7B2",
"j. c #FAD7B5",
"k. c #FFD9B6",
"l. c #FFDBB9",
"z. c #FFDCBB",
"x. c #C0C0C0",
"c. c #C1C1C1",
"v. c #C5C5C5",
"b. c #D0D0D0",
"n. c #D6D6D6",
"m. c #F6DCC2",
"M. c #E2DFDC",
"N. c #EBE0D6",
"B. c #F3E1D0",
"V. c #F0E5D9",
"C. c #E1E1E1",
"Z. c #EEE8E2",
"A. c #ECECEC",
/* pixels */
"                    O O O O O O O O O                                                             ",
"                O O O O O O O O O O O O O                                                         ",
"                O O > e e u u u e e > O O                                                         ",
"              O O e u u u u u u u u u e O O                                                       ",
"            O O e u u u u u u u u u u u > O O                                                     ",
"            O > u u u u u u u u u u u u u > O                                                     ",
"            O > u u u u u u u u u u u u u > O                                                     ",
"            O > u u u u u u u u u u u u u > O O                                                   ",
"          O O e u u u u u u u u u u u u u e O u                                                   ",
"          O O e u u u u u u u u u u u u u e u @.                                                  ",
"          O O e u u u u u u u u u u u u u M &.@.                                                  ",
"          O O u u u u u v b b n ( b f u M C.-.@.                                                  ",
"          O > u u v ) 9.u.u.u.u.u.u.u.,.M.A.x.@. .                                                ",
"          O > a ;.u.u.u.u.u.u.u.u.u.u.u.u.B.x.@...                                                ",
"        r > > ;.u.u.u.u.u.u.u.u.u.u.u.u.u.u.y.T Q                                                 ",
"        Q F ;.u.d.z.z.h.u.u.u.u.u.u.u.u.u.u.u.{ Q S                                               ",
"      F Q [ u.u.k.z.z.z.u.u.u.u.u.u.u.u.u.u.u.u./ Q                                               ",
"      Q Q w.u.u.z.z.z.z.u.u.u.u.u.u.u.u.u.u.u.u.5.Q F                                             ",
"      Q { u.u.u.u.z.z.h.u.u.u.u.u.u.u.u.u.u.u.u.u.~ Q F                                           ",
"    F Q 4.u.u.u.u.u.u.u.u.u.u.u.u.u.u.u.u.u.u.u.u.5.~ Q V                                         ",
"    F Q 0.u.u.u.u.u.u.u.u.u.u.u.u.u.u.u.u.u.u.u.u.q.>.Q K                                         ",
"    F Q 0.u.u.u.u.u.u.u.u.u.u.u.u.u.u.u.u.u.u.u.u.w.3.Q K                                         ",
"    F Q 0.u.u.u.u.u.u.u.u.u.u.u.u.u.u.u.u.u.u.u.u.w.` Q F                                         ",
"    F Q 0.u.u.u.u.u.u.u.u.u.u.u.u.u.u.u.u.u.u.u.u.>.Q Q                                           ",
"    C Q 3.u.u.u.u.u.u.u.u.u.u.u.u.u.u.u.u.u.u.u.u.` Q                                             ",
"      Q ' u.u.u.u.u.u.u.u.u.u.u.u.u.u.u.u.u.u.u.w.Q Q                                             ",
"      K Q 0.u.u.u.u.u.u.u.u.u.u.u.u.u.u.u.u.u.u.5.Q S         # # - - - - - - - - - - - # #       ",
"      V Q ' u.u.u.u.u.u.u.u.u.u.u.u.u.u.u.u.u.r./ Q         # - - - - - - - - - - - - - - - -     ",
"        K S J u.u.u.u.u.u.u.u.u.u.u.u.u.u.u.u.[ Q F       # - 5 j j j j j j j j j j j j j y - #   ",
"          > > Z 9.u.u.u.u.u.u.u.u.u.u.u.u.u.t.o.U @.P F Q a - s l m m m m m m j j j j j j j 5 -   ",
"          O > u a ;.u.u.u.u.u.u.u.u.u.u.h.Z.x.@.@.@.U Q Q a - s l m m m m m m j j j j j j j 5 -   ",
"          O O u u u f ) 7.u.u.u.u.u.1.U b.A.=.@.x.b.[ 5.w.v - s l m m m m m m j j j j j j j 5 -   ",
"          O O u u u u u u u u u u u u u d x.$.@. .A.h.u.u.v - s k l l l l l l j j j j j j j 5 -   ",
"          O O e u u u u u u u u u u u u u u  .@.z A.V.u.u.B - t j j j j j j j j j j j j j s - -   ",
"          O O e u u u u u u u u u u u u u e O x u A.A.d.u.1.- - - - - - - - - - - - - - - - - #   ",
"          O O e u u u u u u u u u u u u u e O > u x.A.m.u.u.%.e - - - - - - - - - - - - - - #     ",
"            O > u u u u u u u u u u u u u > O > u &.A.B.u.u.u.u.9.Q E                             ",
"            O > u u u u u u u u u u u u u > O e u @.A.V.u.u.u.9./ Q E                             ",
"            O O e u u u u u u u u u u u e O > u u N A.N.5.{ / Q Q E                               ",
"              O O e u u u u u u u u u e O O e u u d A.b.T Q Q E                                   ",
"              O O O > e u u u u u e > O O > e > > > @.@.@.X.                                      ",
"                  O O O O O O O O O O O O O O O O O  .@.@.                                        ",
"                    O O O O O O O O O O O O O O                                                   "
};
