/* XPM */
static xpm_row_t const player_stand_xpm[] = {
/* columns rows colors chars-per-pixel */
"33 43 108 2 ",
"   c None",
".  c #292929",
"X  c #2B2B2B",
"o  c #2C2C2C",
"O  c #2D2D2D",
"+  c #2E2E2E",
"@  c #2F2F2F",
"#  c #303030",
"$  c #313131",
"%  c #323232",
"&  c #333333",
"*  c #353331",
"=  c #353535",
"-  c #363636",
";  c #373737",
":  c #383838",
">  c #393939",
",  c #3B3B3B",
"<  c #3C3C3C",
"1  c #3D3D3D",
"2  c #3E3E3E",
"3  c #3F3F3F",
"4  c #4C453B",
"5  c #414141",
"6  c #454545",
"7  c #4C4947",
"8  c #4B4B4B",
"9  c #58524D",
"0  c #645B53",
"q  c #706459",
"w  c #7C6D5F",
"e  c #616161",
"r  c #92765D",
"t  c #95795E",
"y  c #887665",
"u  c #947A60",
"i  c #977C60",
"p  c #9A7D61",
"a  c #9B7F64",
"s  c #9C7F64",
"d  c #9D7F64",
"f  c #957E68",
"g  c #9F8065",
"h  c #9F8366",
"j  c #9E8670",
"k  c #9E8A76",
"l  c #9C8D7E",
"z  c #A38568",
"x  c #A2866A",
"c  c #A7886A",
"v  c #A8896B",
"b  c #AE8E6F",
"n  c #A08872",
"m  c #AB9178",
"M  c #B49373",
"N  c #B79575",
"B  c #BA9776",
"V  c #BF9C7A",
"C  c #C5A17E",
"Z  c #818181",
"A  c #858585",
"S  c #8B8B8B",
"D  c #8E8E8E",
"F  c #9A8F84",
"G  c #959595",
"H  c #9F9F9F",
"J  c #A0A0A0",
"K  c #B0B0B0",
"L  c #BBBBBB",
"P  c #C7A483",
"I  c #C3A384",
"U  c #CCA682",
"Y  c #C2A588",
"T  c #CFAC8A",
"R  c #D1AA85",
"E  c #D4AC87",
"W  c #D6AF89",
"Q  c #DCB38C",
"!  c #DDB48D",
"~  c #DBB590",
"^  c #E7BE96",
"/  c #E8BD94",
"(  c #EDC097",
")  c #F2C59A",
"_  c #F3C69B",
"`  c #F9CB9F",
"'  c #D7C7B7",
"]  c #DFC9B3",
"[  c #FFD0A3",
"{  c #FDD1A7",
"}  c #FFD1A6",
"|  c #FFD2A7",
" . c #FFD5AD",
".. c #FBD5B0",
"X. c #FFD6B0",
"o. c #FFD7B2",
"O. c #FFD9B6",
"+. c #FFDBB9",
"@. c #FFDCBB",
"#. c #C0C0C0",
"$. c #C1C1C1",
"%. c #C5C5C5",
"&. c #D6D6D6",
"*. c #E2DFDC",
"=. c #F3E1D0",
"-. c #E1E1E1",
";. c #EEE8E2",
":. c #ECECEC",
/* pixels */
"                    + + + + + + + + +                             ",
"                + + + + + + + + + + + + +                         ",
"                + + $ 3 3 5 5 5 3 3 $ + +                         ",
"              + + 3 5 5 5 5 5 5 5 5 5 3 + +                       ",
"            + + 3 5 5 5 5 5 5 5 5 5 5 5 $ + +                     ",
"            + $ 5 5 5 5 5 5 5 5 5 5 5 5 5 $ +                     ",
"            + $ 5 5 5 5 5 5 5 5 5 5 5 5 5 $ +                     ",
"            + $ 5 5 5 5 5 5 5 5 5 5 5 5 5 $ + +                   ",
"          + + 3 5 5 5 5 5 5 5 5 5 5 5 5 5 3 + 5                   ",
"          + + 3 5 5 5 5 5 5 5 5 5 5 5 5 5 3 5 G                   ",
"          + + 3 5 5 5 5 5 5 5 5 5 5 5 5 5 e J G                   ",
"          + + 5 5 5 5 5 0 q q w n q 9 5 e -.L G                   ",
"          + $ 5 5 0 m ^ [ [ [ [ [ [ [ Y *.:.#.G A                 ",
"          + $ 7 P [ [ [ [ [ [ [ [ [ [ [ [ =.#.G D                 ",
"        4 $ $ P [ [ [ [ [ [ [ [ [ [ [ [ [ [ ] l z                 ",
"        z a P [  .@.@.o.[ [ [ [ [ [ [ [ [ [ [ C z i               ",
"      a z V [ [ O.@.@.@.[ [ [ [ [ [ [ [ [ [ [ [ b z               ",
"      z z ) [ [ @.@.@.@.[ [ [ [ [ [ [ [ [ [ [ [ Q z a             ",
"      z C [ [ [ [ @.@.o.[ [ [ [ [ [ [ [ [ [ [ [ [ c z a           ",
"    a z W [ [ [ [ [ [ [ [ [ [ [ [ [ [ [ [ [ [ [ [ Q c z r         ",
"    a z / [ [ [ [ [ [ [ [ [ [ [ [ [ [ [ [ [ [ [ [ ( U z g         ",
"    a z / [ [ [ [ [ [ [ [ [ [ [ [ [ [ [ [ [ [ [ [ ) E z g         ",
"    a z / [ [ [ [ [ [ [ [ [ [ [ [ [ [ [ [ [ [ [ [ ) N z a         ",
"    a z / [ [ [ [ [ [ [ [ [ [ [ [ [ [ [ [ [ [ [ [ U z z           ",
"    t z E [ [ [ [ [ [ [ [ [ [ [ [ [ [ [ [ [ [ [ [ N z             ",
"      z B [ [ [ [ [ [ [ [ [ [ [ [ [ [ [ [ [ [ [ ) z z             ",
"      g z / [ [ [ [ [ [ [ [ [ [ [ [ [ [ [ [ [ [ Q z i             ",
"      r z B [ [ [ [ [ [ [ [ [ [ [ [ [ [ [ [ [ ` b z               ",
"        g i f [ [ [ [ [ [ [ [ [ [ [ [ [ [ [ [ V z a               ",
"          $ $ y ^ [ [ [ [ [ [ [ [ [ [ [ [ [ ' F j                 ",
"          + $ 5 7 P [ [ [ [ [ [ [ [ [ [ o.;.#.G D                 ",
"          + + 5 5 5 9 m ~ [ [ [ [ [ T k &.:.K G A                 ",
"          + + 5 5 5 5 5 5 5 5 5 5 5 5 5 8 #.H G                   ",
"          + + 3 5 5 5 5 5 5 5 5 5 5 5 5 5 5 A G                   ",
"          + + 3 5 5 5 5 5 5 5 5 5 5 5 5 5 3 + e                   ",
"          + + 3 5 5 5 5 5 5 5 5 5 5 5 5 5 3 + +                   ",
"            + $ 5 5 5 5 5 5 5 5 5 5 5 5 5 $ + +                   ",
"            + $ 5 5 5 5 5 5 5 5 5 5 5 5 5 $ +                     ",
"            + + 3 5 5 5 5 5 5 5 5 5 5 5 3 + +                     ",
"              + + 3 5 5 5 5 5 5 5 5 5 3 + +                       ",
"              + + + $ 3 5 5 5 5 5 3 $ + + +                       ",
"                  + + + + + + + + + + +                           ",
"                    + + + + + + + + +                             "
};
