/* XPM */
static xpm_row_t const player_silencer_xpm[] = {
/* columns rows colors chars-per-pixel */
"54 43 154 2 ",
"   c None",
".  c #2B2B2B",
"X  c #2C2C2C",
"o  c #2D2D2D",
"O  c #2E2E2E",
"+  c #2F2F2F",
"@  c #282E31",
"#  c #2A3133",
"$  c #2B3135",
"%  c #2B3236",
"&  c #2C3236",
"*  c #2C3337",
"=  c #2E3236",
"-  c #2E3436",
";  c #2E3438",
":  c #2F3539",
">  c #303030",
",  c #313131",
"<  c #323232",
"1  c #333333",
"2  c #353331",
"3  c #353535",
"4  c #363636",
"5  c #373737",
"6  c #32393D",
"7  c #343A3F",
"8  c #383838",
"9  c #393939",
"0  c #3B3B3B",
"q  c #3C3C3C",
"w  c #3D3D3D",
"e  c #3E3E3E",
"r  c #3F3F3F",
"t  c #4C453B",
"y  c #373F44",
"u  c #383F44",
"i  c #3D4449",
"p  c #414141",
"a  c #454545",
"s  c #4B4844",
"d  c #4C4947",
"f  c #40484D",
"g  c #41494E",
"h  c #4B4B4B",
"j  c #58524D",
"k  c #5C564F",
"l  c #444D52",
"z  c #464F54",
"x  c #505050",
"c  c #5E5E5E",
"v  c #625B52",
"b  c #645B53",
"n  c #706459",
"m  c #7C6D5F",
"M  c #515E65",
"N  c #55636B",
"B  c #616161",
"V  c #6B6B6B",
"C  c #92765D",
"Z  c #95795E",
"A  c #887665",
"S  c #947A60",
"D  c #977C60",
"F  c #9A7D61",
"G  c #9B7F64",
"H  c #9C7F64",
"J  c #9D7F64",
"K  c #957E68",
"L  c #9F8065",
"P  c #9F8366",
"I  c #96826D",
"U  c #8E8175",
"Y  c #9F8973",
"T  c #9E8A76",
"R  c #9C8C7B",
"E  c #9C8D7E",
"W  c #A08266",
"Q  c #A18367",
"!  c #A18466",
"~  c #A38568",
"^  c #A2866A",
"/  c #A7886A",
"(  c #A8896B",
")  c #AE8E6F",
"_  c #A08872",
"`  c #A38B74",
"'  c #AB9178",
"]  c #B49373",
"[  c #B79575",
"{  c #BA9776",
"}  c #BF9C7A",
"|  c #BE9D7D",
" . c #C5A17E",
".. c #808080",
"X. c #818181",
"o. c #858585",
"O. c #8E8E8E",
"+. c #978D84",
"@. c #9A8F84",
"#. c #929292",
"$. c #959492",
"%. c #959595",
"&. c #969696",
"*. c #9F9F9F",
"=. c #A0A0A0",
"-. c #A1A1A1",
";. c #B0B0B0",
":. c #BBBBBB",
">. c #C7A483",
",. c #C3A384",
"<. c #CCA682",
"1. c #C2A588",
"2. c #CFAC8A",
"3. c #D1AA85",
"4. c #D4AC87",
"5. c #D6AF89",
"6. c #DCB38C",
"7. c #DDB48D",
"8. c #DBB590",
"9. c #E2B890",
"0. c #E7BE96",
"q. c #E8BD94",
"w. c #EDC097",
"e. c #F2C59A",
"r. c #F3C69B",
"t. c #F9CB9F",
"y. c #D7C7B7",
"u. c #DFC9B3",
"i. c #FFD0A3",
"p. c #FDD1A7",
"a. c #FFD1A6",
"s. c #FFD2A7",
"d. c #FCD3AC",
"f. c #FFD5AD",
"g. c #FBD5B0",
"h. c #FFD6B0",
"j. c #FFD7B2",
"k. c #FAD7B5",
"l. c #FFD9B6",
"z. c #FFDBB9",
"x. c #FFDCBB",
"c. c #C0C0C0",
"v. c #C1C1C1",
"b. c #C5C5C5",
"n. c #D0D0D0",
"m. c #D6D6D6",
"M. c #F6DCC2",
"N. c #E2DFDC",
"B. c #EBE0D6",
"V. c #F3E1D0",
"C. c #F0E5D9",
"Z. c #E1E1E1",
"A. c #EEE8E2",
"S. c #ECECEC",
/* pixels */
"                    O O O O O O O O O                                                                       ",
"                O O O O O O O O O O O O O                                                                   ",
"                O O , r r p p p r r , O O                                                                   ",
"              O O r p p p p p p p p p r O O                                                                 ",
"            O O r p p p p p p p p p p p , O O                                                               ",
"            O , p p p p p p p p p p p p p , O                                                               ",
"            O , p p p p p p p p p p p p p , O                                                               ",
"            O , p p p p p p p p p p p p p , O O                                                             ",
"          O O r p p p p p p p p p p p p p r O p                                                             ",
"          O O r p p p p p p p p p p p p p r p %.                                                            ",
"          O O r p p p p p p p p p p p p p B =.%.                                                            ",
"          O O p p p p p b n n m _ n j p B Z.:.%.                                                            ",
"          O , p p b ' 0.i.i.i.i.i.i.i.1.N.S.c.%.o.                                                          ",
"          O , d >.i.i.i.i.i.i.i.i.i.i.i.i.V.c.%.O.                                                          ",
"        t , , >.i.i.i.i.i.i.i.i.i.i.i.i.i.i.u.E ~                                                           ",
"        ~ G >.i.f.x.x.j.i.i.i.i.i.i.i.i.i.i.i. .~ D                                                         ",
"      G ~ | i.i.l.x.x.x.i.i.i.i.i.i.i.i.i.i.i.i.) ~                                                         ",
"      ~ ~ e.i.i.x.x.x.x.i.i.i.i.i.i.i.i.i.i.i.i.6.~ G                                                       ",
"      ~  .i.i.i.i.x.x.j.i.i.i.i.i.i.i.i.i.i.i.i.i./ ~ G                                                     ",
"    G ~ 5.i.i.i.i.i.i.i.i.i.i.i.i.i.i.i.i.i.i.i.i.6./ ~ C                                                   ",
"    G ~ q.i.i.i.i.i.i.i.i.i.i.i.i.i.i.i.i.i.i.i.i.w.<.~ L                                                   ",
"    G ~ q.i.i.i.i.i.i.i.i.i.i.i.i.i.i.i.i.i.i.i.i.e.4.~ L                                                   ",
"    G ~ q.i.i.i.i.i.i.i.i.i.i.i.i.i.i.i.i.i.i.i.i.e.[ ~ G                                                   ",
"    G ~ q.i.i.i.i.i.i.i.i.i.i.i.i.i.i.i.i.i.i.i.i.<.~ ~                                                     ",
"    Z ~ 4.i.i.i.i.i.i.i.i.i.i.i.i.i.i.i.i.i.i.i.i.[ ~                                                       ",
"      ~ { i.i.i.i.i.i.i.i.i.i.i.i.i.i.i.i.i.i.i.e.~ ~                                                       ",
"      L ~ q.i.i.i.i.i.i.i.i.i.i.i.i.i.i.i.i.i.i.6.~ D     @ $ $ ; ; ; ; ; ; ; ; ; $ $                       ",
"      C ~ { i.i.i.i.i.i.i.i.i.i.i.i.i.i.i.i.i.t.) ~       ; ; ; ; ; ; ; ; ; ; ; ; ; ;                       ",
"        L D K i.i.i.i.i.i.i.i.i.i.i.i.i.i.i.i.| ~ G     $ ; 7 l l l l l z l l l l i ; ; ; ; ; ; ; ; ; $     ",
"          , , A 0.i.i.i.i.i.i.i.i.i.i.i.i.i.y.@.T %.U G d ; f M N M l l z l l l l l 7 ; ; ; ; ; ; ; ; ; ;   ",
"          O , p d >.i.i.i.i.i.i.i.i.i.i.j.A.c.%.%.%.T ~ d ; f M N M z z z z l l l l M N N N N N N N N y ;   ",
"          O O p p p j ' 8.i.i.i.i.i.2.T n.S.;.%.c.n.| 6.j ; f M N M z z z z l l l l M N N N N N N N N y ;   ",
"          O O p p p p p p p p p p p p p h c.*.%.o.S.j.i.b ; f M N M l l l l l l l l y ; ; ; ; ; ; ; ; ; ;   ",
"          O O r p p p p p p p p p p p p p p o.%.x S.C.i.b ; u l l l l l l l l l l f : ; ; ; ; ; ; ; ; ; $   ",
"          O O r p p p p p p p p p p p p p r O c p S.S.f._ ; ; ; ; ; ; ; ; ; ; ; ; ; ; $                     ",
"          O O r p p p p p p p p p p p p p r O , p c.S.M.i.I ; ; ; ; ; ; ; ; ; ; ; ; $                       ",
"            O , p p p p p p p p p p p p p , O , p =.S.V.i.i.i.i.0.~ Q                                       ",
"            O , p p p p p p p p p p p p p , O r p %.S.C.i.i.i.0.) ~ Q                                       ",
"            O O r p p p p p p p p p p p r O , p p V S.B.6. .) ~ ~ Q                                         ",
"              O O r p p p p p p p p p r O O r p p h S.n.E ~ ~ Q                                             ",
"              O O O , r p p p p p r , O O , r , , , %.%.%.+.                                                ",
"                  O O O O O O O O O O O O O O O O O o.%.%.                                                  ",
"                    O O O O O O O O O O O O O O                                                             "
};
