/* XPM */
static xpm_row_t const pointer_a_xpm[] = {
/* columns rows colors chars-per-pixel */
"32 32 2 1 ",
"  c None",
". c #FFFFFF",
/* pixels */
"                                ",
"                                ",
"                                ",
"                                ",
"                                ",
"                                ",
"                                ",
"                                ",
"          ..                    ",
"          ...                   ",
"          ....                  ",
"          .....                 ",
"          .......               ",
"          ........              ",
"          .........             ",
"          ...........           ",
"          ............          ",
"          ..........            ",
"          .........             ",
"          .........             ",
"          ... ......            ",
"              ......            ",
"               .....            ",
"               ...              ",
"                                ",
"                                ",
"                                ",
"                                ",
"                                ",
"                                ",
"                                ",
"                                "
};
