/* XPM */
static xpm_row_t const pointer_b_shaded_xpm[] = {
/* columns rows colors chars-per-pixel */
"32 32 26 1 ",
"  c None",
". c #D1D1D1",
"X c #D2D2D2",
"o c #D4D4D4",
"O c #D5D5D5",
"+ c #D8D8D8",
"@ c #DBDBDB",
"# c #DEDEDE",
"$ c #E1E1E1",
"% c #E4E4E4",
"& c #E7E7E7",
"* c #E8E8E8",
"= c #EAEAEA",
"- c #EBEBEB",
"; c #EEEEEE",
": c #F0F0F0",
"> c #F1F1F1",
", c #F4F4F4",
"< c #F7F7F7",
"1 c #F8F8F8",
"2 c #F9F9F9",
"3 c #FAFAFA",
"4 c #FCFCFC",
"5 c #FDFDFD",
"6 c #FEFEFE",
"7 c #FFFFFF",
/* pixels */
"                                ",
"                                ",
"                                ",
"                                ",
"                                ",
"                                ",
"                                ",
"                                ",
"          55                    ",
"          555                   ",
"          5555                  ",
"          55555                 ",
"          5:5555                ",
"          :::5555               ",
"          :==55555              ",
"          ==&=555555            ",
"          =&&&5555555           ",
"          &&&+=5555555          ",
"          &&+++5555555          ",
"          &+++O                 ",
"          +++O                  ",
"          ++O                   ",
"          +OO                   ",
"          OO                    ",
"                                ",
"                                ",
"                                ",
"                                ",
"                                ",
"                                ",
"                                ",
"                                "
};
