/* XPM */
static xpm_row_t const resume_text_xpm[] = {
/* columns rows colors chars-per-pixel */
"110 32 17 1 ",
"  c None",
". c #000000",
"X c #262626",
"o c #424242",
"O c #585858",
"+ c #6B6B6B",
"@ c #7D7D7D",
"# c #8D8D8D",
"$ c #9C9C9C",
"% c #AAAAAA",
"& c #B8B8B8",
"* c #C5C5C5",
"= c #D1D1D1",
"- c #DDDDDD",
"; c #E9E9E9",
": c #F4F4F4",
"> c #FFFFFF",
/* pixels */
"        ..............   ...........   ...........   ......  ......  ......................   ...........     ",
"      .....................................................................................................   ",
"      .X==============O.X===========O.X===========O.X======OO======.X======================..X===========O.   ",
"      .+>>>>>>>>>>>>>>+.+>>>>>>>>>>>+.+>>>>>>>>>>>+.+>>>>>>.@>>>>>>.+>>>>>>>>>>>>>>>>>>>>>-..+>>>>>>>>>>>+.   ",
"      .@>>>>>>>>>>>>>>O.@>>>>>>>>>>>..@>>>>>>>>>>>..@>>>>>>.$>>>>>=.@>>>>>>>>>>>>>>>>>>>>>=..@>>>>>>>>>>>..   ",
"      .$>>>>>>>>>>>>>>..$>>>>>>>>>>>..$>>>>>>>>>>>..$>>>>>=.%>>>>>=.$>>>>>>>>>>>>>>>>>>>>>%..$>>>>>>>>>>>..   ",
"     ..%>>>>>>>>>>>>>:..%>>>>>>>>>>=..%>>>>>>>>>>=..%>>>>>=.=>>>>>%.%>>>>>>>>>>>>>>>>>>>>>$..%>>>>>>>>>>=..   ",
"     ..=>>>>>>>>>>>>>=..=>>>>>>>>>>=..=>>>>>>>>>>=..=>>>>>%.=>>>>>$.=>>>>>>>>>>>>>>>>>>>>>@..=>>>>>>>>>>=..   ",
"     ..=>>>>>$.&>>>>>=..=>>>>>$.......=>>>>>$.......=>>>>>$.>>>>>>@.=>>>>>$.>>>>>>@.>>>>>>+..=>>>>>$......    ",
"     ..>>>>>>@.=>>>>>$..>>>>>>@.......>>>>>>@.......>>>>>>@.>>>>>>+.>>>>>>@.>>>>>>++>>>>>>o..>>>>>>@.....     ",
"     ..>>>>>>+.->>>>>$..>>>>>>+.    ..>>>>>>+.    ..>>>>>>++>>>>>>o.>>>>>>++>>>>>>o+>>>>>>...>>>>>>+.         ",
"     .+>>>>>>X.>>>>>>+.+>>>>>>X.    .+>>>>>>X.    .+>>>>>>X+>>>>>>.+>>>>>>X+>>>>>>.$>>>>>;..+>>>>>>X.         ",
"     .+>>>>>>.X>>>>>>+.+>>>>>>.......+>>>>>>X.    .+>>>>>>.$>>>>>;.+>>>>>>.$>>>>>;.$>>>>>=..+>>>>>>......     ",
"     .$>>>>>;.+>>>>>>..$>>>>>>$$$$$..$>>>>>>&..   .$>>>>>;.$>>>>>=.$>>>>>;.$>>>>>=.*>>>>>&..$>>>>>>$$$$$..    ",
"     .$>>>>>-+$>>>>>>..$>>>>>>>>>>-..$>>>>>>>$..  .$>>>>>=.*>>>>>&.$>>>>>=.*>>>>>&.=>>>>>$..$>>>>>>>>>>-..    ",
"    ..*>>>>>>>>>>>>>-..*>>>>>>>>>>=..X->>>>>>>@....*>>>>>&.=>>>>>$.*>>>>>&.=>>>>>$.:>>>>>$..*>>>>>>>>>>=..    ",
"    ..=>>>>>>>>>>>>>=..=>>>>>>>>>>&...X:>>>>>>:O...=>>>>>$.:>>>>>$.=>>>>>$.:>>>>>$.>>>>>>+..=>>>>>>>>>>&..    ",
"    ..:>>>>>>>>>>>>>%..:>>>>>>>>>>$. ..O>>>>>>>;X..:>>>>>#.>>>>>>+.:>>>>>#.>>>>>>+o>>>>>>O..:>>>>>>>>>>$.     ",
"    ..>>>>>>>>>>>>>>$..>>>>>>>>>>>#.  ..#>>>>>>>+..>>>>>>+O>>>>>>O.>>>>>>+O>>>>>>O+>>>>>>...>>>>>>>>>>>#.     ",
"    .O>>>>>>>>>>>>>>#.O>>>>>>#++++X.   ..%>>>>>>+.O>>>>>>o+>>>>>>.O>>>>>>O+>>>>>>.#>>>>>:..O>>>>>>#++++X.     ",
"    .+>>>>>>:>>>>>*$o.+>>>>>>.......    .O>>>>>>o.+>>>>>>.#>>>>>:.+>>>>>>.#>>>>>:.$>>>>>=..+>>>>>>.......     ",
"    .#>>>>>:=>>>>>$...#>>>>>:..         .+>>>>>>..#>>>>>:.$>>>>>=.#>>>>>:.$>>>>>=.&>>>>>=..#>>>>>:..          ",
"    .$>>>>>=$>>>>>*...$>>>>>=..         .$>>>>>;..$>>>>>=.&>>>>>=.$>>>>>=.&>>>>>=.=>>>>>$..$>>>>>=..          ",
"   ..&>>>>>*#>>>>>-...&>>>>>*............$>>>>>=..&>>>>>*.=>>>>>$.&>>>>>*.=>>>>>$.->>>>>$..&>>>>>*......      ",
"   ..=>>>>>$+>>>>>>...=>>>>>&++++o..O++++=>>>>>*..=>>>>>&+;>>>>>$.=>>>>>$.;>>>>>$.>>>>>>+..=>>>>>&++++o.      ",
"   ..;>>>>>$.>>>>>>+..;>>>>>>>>>>$..;>>>>>>>>>>$..;>>>>>>>>>>>>>+.;>>>>>$.>>>>>>+X>>>>>>+..;>>>>>>>>>>$.      ",
"   ..>>>>>>+.;>>>>>#..>>>>>>>>>>>$..>>>>>>>>>>>$..>>>>>>>>>>>>>>+.>>>>>>+X>>>>>>++>>>>>>...>>>>>>>>>>>$.      ",
"   .X>>>>>>+.=>>>>>%.X>>>>>>>>>>>+.o>>>>>>>>>>>+.X>>>>>>>>>>>>>>.X>>>>>>++>>>>>>.@>>>>>>..X>>>>>>>>>>>+.      ",
"   .+>>>>>>..$>>>>>=.+>>>>>>>>>>>O.+>>>>>>>>>>>O.+>>>>>>>>>>>>>>.+>>>>>>.@>>>>>>.$>>>>>-..+>>>>>>>>>>>O.      ",
"   .@>>>>>>..#>>>>>:.@>>>>>>>>>>>..@>>>>>>>>>>>..@>>>>>>>>>>>>>-.@>>>>>>.$>>>>>-.%>>>>>=..@>>>>>>>>>>>..      ",
"   .+$$$$$#..o$$$$$$.+$$$$$$$$$$$..+$$$$$$$$$$$..+$$$$$$$$$$$$$#.+$$$$$#.+$$$$$#.#$$$$$@..+$$$$$$$$$$$..      ",
"   ....................................................................................................       "
};
