/* XPM */
static xpm_row_t const soldier1_gun_xpm[] = {
/* columns rows colors chars-per-pixel */
"52 43 32 1 ",
"  c #1F1C12",
". c #010101",
"X c #9C7B63",
"o c #645031",
"O c #3E4F34",
"+ c #2E3438",
"@ c #33383C",
"# c #2D3A35",
"$ c #305531",
"% c #2F522F",
"& c #39643B",
"* c #30522F",
"= c None",
"- c #3F6B41",
"; c #475054",
": c #437645",
"> c #517042",
", c #62685D",
"< c #565C3F",
"1 c #875C30",
"2 c #9C6B38",
"3 c #876D3B",
"4 c #A8733C",
"5 c #9A7C50",
"6 c #728A5C",
"7 c #A7896A",
"8 c #A5905F",
"9 c #C48647",
"0 c #C5A17E",
"q c #FFD0A3",
"w c #F3C69B",
"e c #D3B189",
/* pixels */
"            .O##$$$##O.                             ",
"           o$$$$$$$$$$$O                            ",
"          O$$&--:::--&$$O                           ",
"         o$$-:::::::::&$$o                          ",
"         *$&:::::::::::&$%                          ",
"        .$$:::::::::::::$$o                         ",
"        O$&:::::::::::::&$O                         ",
"        O$&:::::::::::::&$#                         ",
"    .ooo#$&:>>========>:-$#.                        ",
" .<111111==22222222222223$$...                      ",
" =11122222222222232222222$$o...                     ",
"o11999999922==-&&&&>>=222&$O...                     ",
"o1299999992>&&&&&&&&&-:=2=$O....                    ",
"o129999993&&&&&&&&&&&&::8=$#.....                   ",
"o1299999=&&&&&&&&&&&&&::87,7o.....                  ",
"o1299993&&&&&&&&&&&&&&-::q07<.....                  ",
"o129994&&&&&&&&&&&&&&&-::eq77o....                  ",
"o12999=&&&&&&&&&&&&&&&&::0qe7<.....                 ",
"o12999&&&&&&&&&&&&&&&&&::8qq77=....                 ",
"o12993&&&&&&&&&&&&&&&&&::6qqe77O...                 ",
"o1299=&&&&&&&&&&&&&&&&&::6qqw075...                 ",
"o1299=&&&&&&&&&&&&&&&&&::6qqwe75...                 ",
"o1299=&&&&&&&&&&&&&&&&&::6qqw77<...                 ",
"o12993&&&&&&&&&&&&&&&&&::6qq077o...                 ",
"o12994&&&&&&&&&&&&&&&&&::6qq77O....                 ",
"o12999>&&&&&&&&&&&&&&&&::8qw77.....                 ",
"o12999=&&&&&&&&&&&&&&&-::eqe7<...O##++++++++++++#O  ",
"o129999=&&&&&&&&&&&&&&-::wq77o..o+++++++++++++++++O ",
"o1299999>&&&&&&&&&&&&&::6q77<...#+@;;;;;;;;;;;;;@++ ",
"o12999999>&&&&&&&&&&&&::08>5$<<7;+;;,,,,,,;;;;;;;@+o",
"o129999994>&&&&&&&&&&-:>4=$$$,77;+;;,,,,,,;;;;;;;@+o",
".1299999992==&&&&&&&->=22=$&&7ew,+;;,,,,,,;;;;;;;@+o",
" 1149999994222===>===2222&$-:0qq,+;;;;;;;;;;;;;;;@+o",
" <11111111222222222222222$$::6qq,+@;;;;;;;;;;;;;;++.",
"  <111111=32222222222222=$$:::eqe+++++++++++++++++# ",
"        O$&:>=3333333=>:&$$:::8qq0@++++++++++++++O. ",
"        O$&:::::::::::::&$&:::6qqqqe7<              ",
"        .$$:::::::::::::$$&:::6qqqe77<              ",
"         *$&:::::::::::&$$::::6e0777=.              ",
"         o$$-:::::::::&$$&::::&,775O                ",
"          #$$&:::::::&$$$&&&$$$$O.                  ",
"           O$$$$$$$$$$$$$$$$$$$O                    ",
"            o*$$$$$$$*####OOoo.                     "
};
