/* XPM */
static char *soldier1_hold[] = {
/* columns rows colors chars-per-pixel */
"38 43 28 1 ",
"  c #4B3D28",
". c #040302",
"X c #6D5733",
"o c #636545",
"O c #335431",
"+ c #305531",
"@ c #39643B",
"# c #375532",
"$ c None",
"% c #3F6E40",
"& c #437645",
"* c #536F42",
"= c #767347",
"- c #9A7A5C",
"; c #875C30",
": c #9C6B38",
"> c #876D3B",
", c #A8733C",
"< c #9B7E55",
"1 c #6F895A",
"2 c #A6886A",
"3 c #A69564",
"4 c #C48647",
"5 c #C5A17E",
"6 c #DAB48C",
"7 c #FFD0A3",
"8 c #F2C69B",
"9 c #B8AE80",
/* pixels */
"            .OOO+++OOO.               ",
"           X+++++++++++OOOOX.         ",
"          X++@%%&&&%%@++++++++OO      ",
"         X++%&&&&&&&&&@++@@+++++O.    ",
"         #+@&&&&&&&&&&&@++&&&&@*2<-o. ",
"        .++&&&&&&&&&&&&&++@&&&193222- ",
"        o+@&&&&&&&&&&&&&@+@&&&1777622o",
"        o+@&&&&&&&&&&&&&@+@&&&3777762-",
"    .XXX#+@&**=======$*&%++&&&5777782-",
" .O;;;;;;$=:::::::::::::>++&&&6777762o",
" $;;;::::::::::::>:::::::++&&17777722.",
"X;;4444444::=$@@@@@%*=:::@+@&5777782< ",
"X;:4444444:*@@@@@@@@@%&=:$+@%5877732- ",
"X;:444444>@@@@@@@@@@@@&&2$+++=222222X ",
"X;:44444=@@@@@@@@@@@@@&&33=2##;222<o  ",
"X;:4444>@@@@@@@@@@@@@@%&&752O.....    ",
"X;:444,@@@@@@@@@@@@@@@%&&6722X....    ",
"X;:444*@@@@@@@@@@@@@@@@&&3762-.....   ",
"X;:444@@@@@@@@@@@@@@@@@&&37722;....   ",
"X;:44>@@@@@@@@@@@@@@@@@&&177622o...   ",
"X;:44=@@@@@@@@@@@@@@@@@&&177892<...   ",
"X;:44=@@@@@@@@@@@@@@@@@&&177862<...   ",
"X;:44=@@@@@@@@@@@@@@@@@&&177832-...   ",
"X;:44>@@@@@@@@@@@@@@@@@&&177922X...   ",
"X;:44,@@@@@@@@@@@@@@@@@&&17722o....   ",
"X;:444@@@@@@@@@@@@@@@@@&&37822.....   ",
"X;:444=@@@@@@@@@@@@@@@%&&6762O.....   ",
"X;:4444*@@@@@@@@@@@@@@%&&8722X....    ",
"X;:44444*@@@@@@@@@@@@@&&1732-.....    ",
"X;:444444*@@@@@@@@@@@@&&53*<+O-2222O  ",
"X;:444444,*@@@@@@@@@@%&*,$+++=222222X ",
".;:4444444:=$@@@@@@@%*=::$+@@3687762- ",
" ;;,444444,:::$$$*$==::::@+%&9777782< ",
" O;;;;;;;;:::::::::::::::++&&17777722.",
"  O;;;;;;$>:::::::::::::$++&&&6777792o",
"        o+@&*=>>>>>>>=*&@++&&&3777782-",
"        o+@&&&&&&&&&&&&&@+@&&&1777762-",
"        .++&&&&&&&&&&&&&++@&&&1777622O",
"         #+@&&&&&&&&&&&@++&&&&165222;.",
"         X++%&&&&&&&&&@++@&&&&@=22<o  ",
"          O++@&&&&&&&@+++@@@++++O.    ",
"           o+++++++++++++++++++O      ",
"            X#+++++++#OOOOOoXX.       "
};
