/* XPM */
static char *soldier1_reload[] = {
/* columns rows colors chars-per-pixel */
"42 43 31 1 ",
"  c #5C5038",
". c #241C17",
"X c #665231",
"o c #46523A",
"O c #304A32",
"+ c #2F3539",
"@ c #323538",
"# c #305532",
"$ c #304834",
"% c #39643B",
"& c #375532",
"* c None",
"= c #3E5B44",
"- c #475054",
"; c #437645",
": c #536F42",
"> c #60655C",
", c #5F554A",
"< c #875C30",
"1 c #9C6B38",
"2 c #876D3B",
"3 c #A8733C",
"4 c #947A57",
"5 c #6E885A",
"6 c #A7896B",
"7 c #A59364",
"8 c #C48647",
"9 c #C5A17E",
"0 c #FFD0A3",
"q c #F3C79C",
"w c #D9B38C",
/* pixels */
"            .OOO###OOO.                   ",
"           X###########OOOOo.             ",
"          o##%;;;;;;;%########OO          ",
"         X##;;;;;;;;;;%##%%#####O.        ",
"         &#%;;;;;;;;;;;%##;;;;%:64,o.     ",
"        .##;;;;;;;;;;;;;##%;;;596664,     ",
"        o#%;;;;;;;;;;;;;%#%;;;5000>++@O.  ",
"        o#%;;;;;;;;;;;;;%#%;;;700q++++++@X",
"    .XXX@#%;::********:;;##;;;9006++--+++O",
" .&<<<<<<**11111111111112##;;;w00-+-----+@",
" ,<<<11111111111121111111##;;500w++----++o",
"X<<888888811**%%%%%::*111=#%;9004++----++.",
"X<188888881:%%%%%%%%%;;*1*#%;9qq++-----+O ",
"X<18888882%%%%%%%%%%%%;;7*###>66+++---++X ",
"X<188888*%%%%%%%%%%%%%;;77*6&&<6>+$>-++@  ",
"X<188882%%%%%%%%%%%%%%;;;096O...@+->-++o  ",
"X<18883%%%%%%%%%%%%%%%%;;w066X..++>>++o   ",
"X<1888:%%%%%%%%%%%%%%%%;;90w6,.O+->-+O    ",
"X<1888%%%%%%%%%%%%%%%%%;;70066<@+->++o    ",
"X<1882%%%%%%%%%%%%%%%%%;;500w66>+>>++     ",
"X<188*%%%%%%%%%%%%%%%%%;;500q964->-+O     ",
"X<188*%%%%%%%%%%%%%%%%%;;500qw66--+++X    ",
"X<188*%%%%%%%%%%%%%%%%%;;500q664---++O    ",
"X<1882%%%%%%%%%%%%%%%%%;;500966>---++O    ",
"X<1883%%%%%%%%%%%%%%%%%;;50066>----++o    ",
"X<1888%%%%%%%%%%%%%%%%%;;70q66-----++.    ",
"X<1888*%%%%%%%%%%%%%%%%;;w0w64----++O     ",
"X<18888:%%%%%%%%%%%%%%;;;qq66>----++X     ",
"X<188888:%%%%%%%%%%%%%;;50664-----++      ",
"X<1888888:%%%%%%%%%%%%;;97:4->---++@      ",
"X<18888883:%%%%%%%%%%%;:3*##-----++>X     ",
".<188888881**%%%%%%%;:*11*#=-----++6,     ",
" <<38888883111***:***1111%#->---++>64     ",
" O<<<<<<<<111111111111111##>>>>-++966.    ",
"  O<<<<<<*21111111111111*##->>--+-096o    ",
"        o#%;:*2222222*:;%#$+---++40q6,    ",
"        o#%;;;;;;;;;;;;;%#$++++++w0w6,    ",
"        .##;;;;;;;;;;;;;##%#++++60w66O    ",
"         &#%;;;;;;;;;;;%##;;;;5w9666<.    ",
"         X##;;;;;;;;;;%##%;;;;%>664o      ",
"          O##%;;;;;;;%###%%%####O.        ",
"           o###################O          ",
"            X&#######&OOOOOoXX.           "
};
