/* XPM */
static char *soldier1_silencer[] = {
/* columns rows colors chars-per-pixel */
"57 43 32 1 ",
"  c #1E1C14",
". c #010101",
"X c #9C7B63",
"o c #665230",
"O c #3F5135",
"+ c #2E3438",
"@ c #32383C",
"# c #2D3D33",
"$ c #305531",
"% c #2F522F",
"& c #39643B",
"* c #30522F",
"= c None",
"- c #3F6B41",
"; c #464E53",
": c #437645",
"> c #517042",
", c #5C655F",
"< c #4F553E",
"1 c #875C30",
"2 c #9C6B38",
"3 c #876D3B",
"4 c #A8733C",
"5 c #9A7C50",
"6 c #728A5C",
"7 c #A7896B",
"8 c #A38F60",
"9 c #C48647",
"0 c #C5A17E",
"q c #FFD0A3",
"w c #F3C69B",
"e c #D6B38A",
/* pixels */
"            .O##$$$##O.                                  ",
"           o$$$$$$$$$$$O                                 ",
"          O$$&--:::--&$$O                                ",
"         o$$-:::::::::&$$o                               ",
"         *$&:::::::::::&$%                               ",
"        .$$:::::::::::::$$o                              ",
"        O$&:::::::::::::&$O                              ",
"        O$&:::::::::::::&$#                              ",
"    .ooo#$&:>>========>:-$#.                             ",
" .<111111==22222222222223$$...                           ",
" =11122222222222232222222$$o...                          ",
"o11999999922==-&&&&>>=222&$O...                          ",
"o1299999992>&&&&&&&&&-:=2=$O....                         ",
"o129999993&&&&&&&&&&&&::8=$#.....                        ",
"o1299999=&&&&&&&&&&&&&::87=7o.....                       ",
"o1299993&&&&&&&&&&&&&&-::q07<.....                       ",
"o129994&&&&&&&&&&&&&&&-::eq77o....                       ",
"o12999=&&&&&&&&&&&&&&&&::0qe7<.....                      ",
"o12999&&&&&&&&&&&&&&&&&::8qq77=....                      ",
"o12993&&&&&&&&&&&&&&&&&::6qqe77O...                      ",
"o1299=&&&&&&&&&&&&&&&&&::6qqw075...                      ",
"o1299=&&&&&&&&&&&&&&&&&::6qqwe75...                      ",
"o1299=&&&&&&&&&&&&&&&&&::6qqw77<...                      ",
"o12993&&&&&&&&&&&&&&&&&::6qq077o...                      ",
"o12994&&&&&&&&&&&&&&&&&::6qq77O....                      ",
"o12999>&&&&&&&&&&&&&&&&::8qw77.....                      ",
"o12999=&&&&&&&&&&&&&&&-::eqe7<..O#++++++++++##.          ",
"o129999=&&&&&&&&&&&&&&-::wq77o.O++++++++++++++O          ",
"o1299999>&&&&&&&&&&&&&::6q77<..#+@;;;;;;;;;;;+++++++++#O ",
"o12999999>&&&&&&&&&&&&::08>5$<<;+;,,,;;;;;;;;@++++++++++.",
"o129999994>&&&&&&&&&&-:>4=$$$,7;+;,,,;;;;;;;;,,,,,,,,,@+o",
".1299999992==&&&&&&&->=22=$&&7e,+;,,,;;;;;;;;,,,,,,,,,@+o",
" 1149999994222===>===2222&$-:0q,+;,,,;;;;;;;;@++++++++++.",
" <11111111222222222222222$$::6q,+@;;;;;;;;;;;++++++++++# ",
"  <111111=32222222222222=$$:::e7++++++++++++++#          ",
"        O$&:>=3333333=>:&$$:::7q7++++++++++++#.          ",
"        O$&:::::::::::::&$&:::6qqqqe7<                   ",
"        .$$:::::::::::::$$&:::6qqqe77<                   ",
"         *$&:::::::::::&$$::::6e0777=.                   ",
"         o$$-:::::::::&$$&::::&=775O                     ",
"          #$$&:::::::&$$$&&&$$$$O.                       ",
"           O$$$$$$$$$$$$$$$$$$$O                         ",
"            o*$$$$$$$*####OOoo.                          "
};
