/* XPM */
static char *soldier1_machine[] = {
/* columns rows colors chars-per-pixel */
"52 43 31 1 ",
"  c #1F1C12",
". c #010101",
"X c #9C7B63",
"o c #635031",
"O c #415236",
"+ c #2E3438",
"@ c #33393D",
"# c #2D3D34",
"$ c #305431",
"% c #2F4E31",
"& c #39643B",
"* c #30522F",
"= c None",
"- c #3E6A41",
"; c #464F53",
": c #437645",
"> c #517042",
", c #61685C",
"< c #535B3C",
"1 c #875C30",
"2 c #9C6B38",
"3 c #876D3B",
"4 c #A8733C",
"5 c #987C52",
"6 c #738B5C",
"7 c #A7886A",
"8 c #A58E5D",
"9 c #C48647",
"0 c #C5A17E",
"q c #FDCEA2",
"w c #D7B28A",
/* pixels */
"            .O##$$$##O.                             ",
"           o$$$$$$$$$$$O                            ",
"          O$$&--:::--&$$O                           ",
"         o$$-:::::::::&$$o                          ",
"         *$&:::::::::::&$%                          ",
"        .$$:::::::::::::$$o                         ",
"        O$&:::::::::::::&$O                         ",
"        O$&:::::::::::::&$#                         ",
"    .ooo#$&:>>========>:-$#.                        ",
" .<111111==22222222222223$$...                      ",
" =11122222222222232222222$$o...                     ",
"o11999999922==-&&&&>>=222&$O...                     ",
"o1299999992>&&&&&&&&&-:=2=$O....                    ",
"o129999993&&&&&&&&&&&&::8=$#.....                   ",
"o1299999=&&&&&&&&&&&&&::87,7o.....                  ",
"o1299993&&&&&&&&&&&&&&-::q07<.....                  ",
"o129994&&&&&&&&&&&&&&&-::wq77o....                  ",
"o12999=&&&&&&&&&&&&&&&&::0qw7<.....                 ",
"o12999&&&&&&&&&&&&&&&&&::8qq77=....                 ",
"o12993&&&&&&&&&&&&&&&&&::6qqw77<...                 ",
"o1299=&&&&&&&&&&&&&&&&&::6qqq075...                 ",
"o1299=&&&&&&&&&&&&&&&&&::6qqqw75...                 ",
"o1299=&&&&&&&&&&&&&&&&&::6qqq77<...                 ",
"o12993&&&&&&&&&&&&&&&&&::6qq077o...                 ",
"o12994&&&&&&&&&&&&&&&&&::6qq77O....                 ",
"o12999-&&&&&&&&&&&&&&&&::7qq77.....                 ",
"o12999=&&&&&&&&&&&&&&&-::wqw7,++++##.               ",
"o129999>&&&&&&&&&&&&&&-::qq77;++++++O    o#++++++#O ",
"o1299999>&&&&&&&&&&&&&::6q775;;;;;;++++++++++++++++.",
"o12999999>&&&&&&&&&&&&::08>5;;;;;;;@+++++++;;;;;;@+o",
"o129999994>&&&&&&&&&&-:>4=$$;;;;;;;,,,,,,,,;;;;;;@+o",
".1299999992==&&&&&&&->=22=$$;;;;;;;,,,,,,,,;;;;;;@+o",
" 1149999994222===>===2222&$;;;;;;;;@+++++++;;;;;;@+o",
" <11111111222222222222222$$;;;;;;;;++++++++++++++++.",
"  <111111=32222222222222=$%+++++++++;O   o++++++++# ",
"        O$&:>=3333333=>:&$%++++++++,7<              ",
"        O$&:::::::::::::&$&:::6qqqqw7<              ",
"        .$$:::::::::::::$$&:::6qqqw77<              ",
"         *$&:::::::::::&$$::::6w0777=.              ",
"         o$$-:::::::::&$$&::::&,775O                ",
"          #$$&:::::::&$$$&&&$$$$O.                  ",
"           O$$$$$$$$$$$$$$$$$$$O                    ",
"            o*$$$$$$$*####OOoo.                     "
};
