/* XPM */
static char *soldier1_stand[] = {
/* columns rows colors chars-per-pixel */
"36 43 28 1 ",
"  c #0B0603",
". c black",
"X c #6C5430",
"o c #35502E",
"O c #8E7359",
"+ c #305431",
"@ c #2F522F",
"# c #39643B",
"$ c #30512F",
"% c None",
"& c #3F6E40",
"* c #437545",
"= c #517042",
"- c #757342",
"; c #545D3B",
": c #875C30",
"> c #9C6B38",
", c #876D3B",
"< c #A8733C",
"1 c #997C4D",
"2 c #728A5C",
"3 c #A8896A",
"4 c #A58E5D",
"5 c #C48647",
"6 c #C5A17E",
"7 c #FFD0A3",
"8 c #F3C69B",
"9 c #D4B089",
/* pixels */
"            .o$$+++$$o.             ",
"           X+++++++++++o            ",
"          o++#&&***&&#++o           ",
"         X++&*********#++X          ",
"         $+#***********#+@          ",
"        .++*************++X         ",
"        o+#*************#+o         ",
"        o+#*************#+;         ",
"    .XXX$+#*==-------%=*&+$.        ",
" .;::::::%->>>>>>>>>>>>>,++...      ",
" %:::>>>>>>>>>>>>,>>>>>>>++X...     ",
"X::5555555>>-%#####==->>>#+o...     ",
"X:>5555555>=#########&*->%+o....    ",
"X:>555555,############**4%+$.....   ",
"X:>55555-#############**43-3X.....  ",
"X:>5555,##############&**763;.....  ",
"X:>555<###############&**9733X....  ",
"X:>555%################**6793;..... ",
"X:>555#################**47733:.... ",
"X:>551#################**277933O... ",
"X:>55-#################**2778631... ",
"X:>55-#################**2778931... ",
"X:>55-#################**277833;... ",
"X:>55,#################**277633X... ",
"X:>55<#################**27733o.... ",
"X:>555#################**37833..... ",
"X:>555-###############&**9793;..... ",
"X:>5555=##############&**8733o....  ",
"X:>55555=#############**2733;.....  ",
"X:>555555=############**64=,......  ",
"X:>555555<=##########&*=<%+;.....   ",
".:>5555555>-%#######&=->>%+o....    ",
" ::<555555<>>>%%%=%-->>>>#+o...     ",
" ;::::::::>>>>>>>>>>>>>>>++...      ",
"  ;::::::%,>>>>>>>>>>>>>%+$..       ",
"        o+#*=-,,,,,,,-=*#+;.        ",
"        o+#*************#+o         ",
"        .++*************++X         ",
"         $+#***********#+@          ",
"         X++&*********#++o          ",
"          ;++#*******#++;           ",
"           o+++++++++++o            ",
"            X$+++++++$X             "
};
